; generated by PrusaSlicer 2.3.3+arm64 on 2021-08-25 at 14:42:38 UTC


;
;

;
;
; 

; external perimeters extrusion width = 0.45mm
; perimeters extrusion width = 0.45mm
; infill extrusion width = 0.45mm
; solid infill extrusion width = 0.45mm
; top infill extrusion width = 0.40mm
; first layer extrusion width = 0.42mm

M73 P0 R131
M201 X1250 Y1250 Z400 E5000 ; sets maximum accelerations, mm/sec^2
M203 X180 Y180 Z12 E80 ; sets maximum feedrates, mm/sec
M204 P1250 R1250 T1250 ; sets acceleration (P, T) and retract acceleration (R), mm/sec^2
M205 X8.00 Y8.00 Z2.00 E10.00 ; sets the jerk limits, mm/sec
M205 S0 T0 ; sets the minimum extruding and travel feed rate, mm/sec
M107
;TYPE:Custom
G90 ; use absolute coordinates
M83 ; extruder relative mode
M104 S170 ; set extruder temp for bed leveling
M140 S80 ; set bed temp
M109 R170 ; wait for bed leveling temp
M190 S80 ; wait for bed temp
G28 ; home all without mesh bed level
G29 ; mesh bed leveling 
M104 S220 ; set extruder temp
G92 E0.0
G1 Y-2.0 X179 F2400
M73 P0 R130
G1 Z3 F720
M109 S220 ; wait for extruder temp

; intro line
G1 X170 F1000
G1 Z0.2 F720
G1 X110.0 E8.0 F900
G1 X40.0 E10.0 F700
G92 E0.0

M221 S95 ; set flow
G21 ; set units to millimeters
G90 ; use absolute coordinates
M83 ; use relative distances for extrusion
M900 K0.2 ; Filament gcode
;LAYER_CHANGE
;Z:0.2
;HEIGHT:0.2
;BEFORE_LAYER_CHANGE
G92 E0.0
;0.2


G1 E-3.20000 F2400.000
G1 Z0.200 F9000.000
;AFTER_LAYER_CHANGE
;0.2
G1 Z0.400
G1 X49.564 Y25.520
G1 Z0.200
G1 E3.20000 F1500.000
M204 S800
;TYPE:Skirt
;WIDTH:0.42
G1 F1200.000
G1 X49.985 Y25.026 E0.02036
G1 X50.521 Y24.666 E0.02024
G1 X51.097 Y24.471 E0.01906
G1 X51.860 Y24.396 E0.02404
G1 X128.092 Y24.396 E2.39021
G1 X129.153 Y24.541 E0.03358
G1 X129.979 Y25.009 E0.02977
G1 X130.316 Y25.371 E0.01550
G1 X130.570 Y25.795 E0.01550
G1 X130.731 Y26.258 E0.01538
G1 X130.793 Y26.749 E0.01550
G1 X131.115 Y79.702 E1.66035
G1 X131.115 Y143.568 E2.00248
G1 X131.021 Y144.234 E0.02107
G1 X130.741 Y144.849 E0.02119
G1 X130.343 Y145.323 E0.01941
G1 X129.839 Y145.676 E0.01929
G1 X129.027 Y145.970 E0.02706
G1 X128.436 Y146.051 E0.01870
G1 X52.198 Y146.051 E2.39040
G1 X51.526 Y145.950 E0.02130
G1 X50.608 Y145.571 E0.03115
G1 X50.155 Y145.195 E0.01846
G1 X49.808 Y144.719 E0.01846
G1 X49.589 Y144.172 E0.01846
G1 X49.511 Y143.588 E0.01846
G1 X49.189 Y87.759 E1.75051
G1 X49.190 Y26.801 E1.91132
G1 X49.285 Y26.136 E0.02107
G1 X49.539 Y25.575 E0.01931
M204 S1250
; printing object pixel_pump_back_side.stl id:1 copy 0
G1 E-2.24000 F2400.000
;WIPE_START
G1 F7200.000
G1 X49.985 Y25.026 E-0.22394
G1 X50.521 Y24.666 E-0.20442
G1 X51.097 Y24.471 E-0.19246
G1 X51.860 Y24.396 E-0.24280
G1 X52.012 Y24.396 E-0.04838
;WIPE_END
G1 E-0.04800 F2400.000
G1 Z0.400 F9000.000
G1 X84.275 Y86.887
G1 Z0.200
G1 E3.20000 F1500.000
M204 S800
;TYPE:External perimeter
G1 F1200.000
G1 X83.731 Y86.408 E0.02274
G1 X83.321 Y85.823 E0.02240
G1 X83.040 Y85.169 E0.02229
G1 X82.897 Y84.473 E0.02228
G1 X82.897 Y83.763 E0.02228
G1 X83.040 Y83.067 E0.02228
G1 X83.321 Y82.414 E0.02228
G1 X83.727 Y81.830 E0.02228
G1 X84.242 Y81.341 E0.02228
G1 X84.845 Y80.965 E0.02228
G1 X85.511 Y80.718 E0.02228
G1 X86.166 Y80.618 E0.02078
G1 X86.922 Y80.646 E0.02371
G1 X87.611 Y80.825 E0.02233
G1 X88.250 Y81.138 E0.02230
G1 X88.814 Y81.581 E0.02248
G1 X89.248 Y82.159 E0.02267
G1 X89.375 Y82.510 E0.01170
G1 X89.635 Y83.455 E0.03075
G1 X89.703 Y84.118 E0.02089
G1 X89.635 Y84.781 E0.02089
G1 X89.375 Y85.726 E0.03075
G1 X89.247 Y86.078 E0.01174
G1 X88.803 Y86.654 E0.02279
G1 X88.497 Y86.869 E0.01172
G1 X88.180 Y87.054 E0.01151
G1 X86.893 Y87.391 E0.04171
G1 X86.224 Y87.425 E0.02102
G1 X85.565 Y87.324 E0.02090
G1 X85.264 Y87.223 E0.00995
G1 X84.937 Y87.162 E0.01042
G1 X84.331 Y86.910 E0.02060
M204 S1250
G1 X83.916 Y87.064 F9000.000
G1 E-2.24000 F2400.000
;WIPE_START
G1 F7200.000
G1 X83.731 Y86.408 E-0.24777
G1 X83.321 Y85.823 E-0.22626
G1 X83.040 Y85.169 E-0.22512
G1 X82.905 Y84.511 E-0.21285
;WIPE_END
G1 E-0.04800 F2400.000
G1 Z0.400 F9000.000
G1 X88.887 Y87.056
G1 Z0.200
G1 E3.20000 F1500.000
M204 S800
;TYPE:Perimeter
G1 F1200.000
G1 X89.067 Y86.929 E0.00691
G1 X89.323 Y86.598 E0.01314
G1 X89.308 Y87.044 E0.01400
G1 X88.947 Y87.053 E0.01135
M204 S1250
G1 E-2.24000 F2400.000
;WIPE_START
G1 F7200.000
G1 X89.067 Y86.929 E-0.05460
G1 X89.323 Y86.598 E-0.13273
G1 X89.308 Y87.044 E-0.14144
G1 X88.947 Y87.053 E-0.11465
;WIPE_END
G1 E-0.51658 F2400.000
G1 Z0.400 F9000.000
G1 X53.473 Y86.885
G1 Z0.200
G1 E3.20000 F1500.000
M204 S800
;TYPE:External perimeter
G1 F1200.000
G1 X52.935 Y86.388 E0.02296
G1 X52.748 Y86.064 E0.01175
G1 X52.596 Y85.737 E0.01131
G1 X52.522 Y85.401 E0.01078
G1 X52.430 Y85.098 E0.00994
G1 X52.297 Y84.453 E0.02064
G1 X52.297 Y83.783 E0.02101
G1 X52.430 Y83.138 E0.02064
G1 X52.522 Y82.835 E0.00994
G1 X52.596 Y82.499 E0.01077
G1 X52.747 Y82.172 E0.01130
G1 X52.931 Y81.850 E0.01163
G1 X53.440 Y81.343 E0.02252
G1 X54.045 Y80.965 E0.02236
G1 X54.711 Y80.718 E0.02229
G1 X55.366 Y80.617 E0.02078
G1 X56.122 Y80.646 E0.02371
G1 X56.811 Y80.824 E0.02232
G1 X57.449 Y81.137 E0.02228
G1 X58.011 Y81.572 E0.02228
G1 X58.474 Y82.111 E0.02228
G1 X58.819 Y82.733 E0.02228
G1 X59.032 Y83.411 E0.02228
G1 X59.104 Y84.118 E0.02228
G1 X59.032 Y84.825 E0.02228
G1 X58.819 Y85.503 E0.02228
G1 X58.473 Y86.125 E0.02232
G1 X58.000 Y86.662 E0.02244
G1 X57.697 Y86.870 E0.01153
G1 X57.380 Y87.054 E0.01148
G1 X56.093 Y87.391 E0.04170
G1 X55.424 Y87.425 E0.02102
G1 X54.765 Y87.324 E0.02090
G1 X54.464 Y87.223 E0.00995
G1 X54.137 Y87.161 E0.01042
G1 X53.529 Y86.908 E0.02067
M204 S1250
G1 X53.112 Y87.056 F9000.000
G1 X53.101 Y87.055
M204 S800
;TYPE:Perimeter
G1 F1200.000
G1 X52.671 Y87.045 E0.01348
G1 X52.664 Y86.651 E0.01236
G1 X53.057 Y87.014 E0.01679
M204 S1250
G1 E-2.24000 F2400.000
;WIPE_START
G1 F7200.000
G1 X52.671 Y87.045 E-0.12253
G1 X52.664 Y86.651 E-0.12484
G1 X53.057 Y87.014 E-0.16957
;WIPE_END
G1 E-0.54305 F2400.000
G1 Z0.400 F9000.000
G1 X55.414 Y35.871
G1 Z0.200
G1 E3.20000 F1500.000
M204 S800
;TYPE:External perimeter
G1 F1200.000
G1 X54.711 Y35.764 E0.02228
G1 X54.045 Y35.517 E0.02229
G1 X53.440 Y35.139 E0.02236
G1 X52.932 Y34.632 E0.02252
G1 X52.748 Y34.310 E0.01163
G1 X52.597 Y33.982 E0.01130
G1 X52.523 Y33.647 E0.01077
G1 X52.430 Y33.344 E0.00994
G1 X52.298 Y32.699 E0.02064
G1 X52.298 Y32.029 E0.02101
G1 X52.430 Y31.384 E0.02064
G1 X52.523 Y31.081 E0.00994
G1 X52.597 Y30.745 E0.01077
G1 X52.748 Y30.418 E0.01130
G1 X52.932 Y30.096 E0.01163
G1 X53.440 Y29.589 E0.02252
G1 X54.045 Y29.211 E0.02236
G1 X54.712 Y28.964 E0.02229
G1 X55.367 Y28.863 E0.02078
G1 X56.122 Y28.892 E0.02371
G1 X56.812 Y29.070 E0.02232
G1 X57.450 Y29.383 E0.02228
G1 X58.012 Y29.818 E0.02228
G1 X58.474 Y30.357 E0.02228
G1 X58.819 Y30.979 E0.02228
G1 X59.032 Y31.657 E0.02228
G1 X59.104 Y32.364 E0.02228
G1 X59.032 Y33.071 E0.02228
G1 X58.819 Y33.749 E0.02228
G1 X58.474 Y34.370 E0.02228
G1 X58.012 Y34.909 E0.02228
G1 X57.450 Y35.344 E0.02228
G1 X56.812 Y35.657 E0.02228
G1 X56.124 Y35.835 E0.02228
G1 X55.474 Y35.868 E0.02040
M204 S1250
G1 X55.197 Y36.207 F9000.000
G1 E-2.24000 F2400.000
;WIPE_START
G1 F7200.000
G1 X54.711 Y35.764 E-0.24368
G1 X54.045 Y35.517 E-0.22508
G1 X53.440 Y35.139 E-0.22580
G1 X52.954 Y34.654 E-0.21745
;WIPE_END
G1 E-0.04800 F2400.000
G1 Z0.400 F9000.000
G1 X69.393 Y76.138
G1 Z0.200
G1 E3.20000 F1500.000
M204 S800
;TYPE:Perimeter
G1 F1200.000
G1 X70.135 Y75.939 E0.02407
G1 X70.988 Y75.858 E0.02689
G1 X71.841 Y75.929 E0.02681
G1 X72.667 Y76.150 E0.02681
G1 X73.441 Y76.513 E0.02680
G1 X74.071 Y76.954 E0.02412
G1 X74.681 Y77.548 E0.02670
G1 X75.180 Y78.245 E0.02686
G1 X75.548 Y79.018 E0.02687
G1 X75.774 Y79.845 E0.02687
G1 X75.849 Y80.698 E0.02683
G1 X75.774 Y81.550 E0.02683
G1 X75.548 Y82.377 E0.02687
G1 X75.181 Y83.148 E0.02677
G1 X74.740 Y83.778 E0.02412
G1 X74.141 Y84.386 E0.02676
G1 X73.442 Y84.882 E0.02687
G1 X72.667 Y85.245 E0.02685
G1 X71.840 Y85.466 E0.02681
G1 X70.986 Y85.537 E0.02687
G1 X70.136 Y85.457 E0.02678
G1 X69.393 Y85.257 E0.02412
G1 X68.617 Y84.904 E0.02676
G1 X67.912 Y84.416 E0.02687
G1 X67.304 Y83.812 E0.02686
G1 X66.814 Y83.112 E0.02679
G1 X66.455 Y82.334 E0.02687
G1 X66.239 Y81.507 E0.02678
G1 X66.172 Y80.741 E0.02412
G1 X66.238 Y79.890 E0.02675
G1 X66.455 Y79.061 E0.02687
G1 X66.814 Y78.283 E0.02687
G1 X67.304 Y77.583 E0.02679
G1 X67.912 Y76.979 E0.02686
G1 X68.617 Y76.491 E0.02687
G1 X69.338 Y76.162 E0.02487
M204 S1250
G1 X69.495 Y76.506 F9000.000
M204 S800
;TYPE:External perimeter
G1 F1200.000
G1 X70.203 Y76.311 E0.02302
G1 X70.989 Y76.237 E0.02477
G1 X71.776 Y76.302 E0.02474
G1 X72.537 Y76.506 E0.02471
G1 X73.251 Y76.840 E0.02473
G1 X73.830 Y77.246 E0.02215
G1 X74.394 Y77.795 E0.02469
G1 X74.854 Y78.437 E0.02476
G1 X75.193 Y79.150 E0.02476
G1 X75.401 Y79.912 E0.02477
G1 X75.471 Y80.698 E0.02472
G1 X75.401 Y81.483 E0.02472
G1 X75.193 Y82.245 E0.02477
G1 X74.854 Y82.957 E0.02473
G1 X74.449 Y83.536 E0.02215
G1 X73.896 Y84.098 E0.02472
G1 X73.251 Y84.554 E0.02477
G1 X72.537 Y84.889 E0.02474
G1 X71.776 Y85.093 E0.02471
G1 X70.988 Y85.158 E0.02477
G1 X70.203 Y85.084 E0.02473
G1 X69.521 Y84.901 E0.02215
G1 X68.803 Y84.574 E0.02472
G1 X68.154 Y84.125 E0.02476
G1 X67.594 Y83.568 E0.02476
G1 X67.142 Y82.923 E0.02469
G1 X66.811 Y82.206 E0.02477
G1 X66.612 Y81.443 E0.02473
G1 X66.550 Y80.739 E0.02215
G1 X66.611 Y79.953 E0.02472
G1 X66.811 Y79.189 E0.02476
G1 X67.142 Y78.472 E0.02477
G1 X67.594 Y77.827 E0.02469
G1 X68.154 Y77.270 E0.02476
G1 X68.803 Y76.821 E0.02476
G1 X69.440 Y76.530 E0.02194
M204 S1250
G1 X69.563 Y76.112 F9000.000
G1 E-2.24000 F2400.000
;WIPE_START
G1 F7200.000
G1 X70.203 Y76.311 E-0.25125
G1 X70.989 Y76.237 E-0.25018
G1 X71.776 Y76.302 E-0.24990
G1 X72.266 Y76.433 E-0.16067
;WIPE_END
G1 E-0.04800 F2400.000
G1 Z0.400 F9000.000
G1 X67.295 Y28.846
G1 Z0.200
G1 E3.20000 F1500.000
M204 S800
;TYPE:Perimeter
G1 F1200.000
G1 X82.569 Y28.846 E0.47891
G1 X82.569 Y44.039 E0.47637
G1 X82.489 Y44.647 E0.01923
G1 X82.235 Y45.262 E0.02085
G1 X81.831 Y45.791 E0.02085
G1 X81.305 Y46.196 E0.02085
G1 X80.691 Y46.452 E0.02085
G1 X80.083 Y46.532 E0.01921
G1 X79.546 Y46.532 E0.01685
G1 X69.780 Y46.532 E0.30621
G1 X69.172 Y46.451 E0.01921
G1 X68.559 Y46.196 E0.02085
G1 X68.032 Y45.790 E0.02085
G1 X67.628 Y45.262 E0.02085
G1 X67.374 Y44.647 E0.02085
G1 X67.295 Y44.039 E0.01923
G1 X67.295 Y28.906 E0.47449
M204 S1250
G1 X67.672 Y29.223 F9000.000
M204 S800
;TYPE:External perimeter
G1 F1200.000
G1 X82.192 Y29.223 E0.45526
G1 X82.192 Y44.015 E0.46377
G1 X82.122 Y44.549 E0.01690
G1 X81.906 Y45.073 E0.01775
G1 X81.562 Y45.522 E0.01774
G1 X81.114 Y45.867 E0.01773
G1 X80.592 Y46.084 E0.01773
G1 X80.059 Y46.155 E0.01687
G1 X69.805 Y46.155 E0.32151
G1 X69.271 Y46.084 E0.01687
G1 X68.749 Y45.867 E0.01773
G1 X68.301 Y45.522 E0.01773
G1 X67.958 Y45.073 E0.01774
G1 X67.742 Y44.549 E0.01775
G1 X67.672 Y44.015 E0.01690
G1 X67.672 Y29.283 E0.46189
M204 S1250
G1 X67.671 Y28.823 F9000.000
G1 E-2.24000 F2400.000
;WIPE_START
G1 F7200.000
G1 X70.552 Y29.271 E-0.91200
;WIPE_END
G1 E-0.04800 F2400.000
G1 Z0.400 F9000.000
G1 X85.975 Y31.092
G1 Z0.200
G1 E3.20000 F1500.000
M204 S800
;TYPE:Perimeter
G1 F1200.000
G1 X86.174 Y30.498 E0.01965
G1 X86.248 Y30.361 E0.00487
G1 X86.517 Y29.932 E0.01588
G1 X86.966 Y29.475 E0.02009
G1 X87.508 Y29.129 E0.02017
G1 X88.112 Y28.915 E0.02011
G1 X88.707 Y28.846 E0.01878
G1 X95.146 Y28.846 E0.20189
G1 X95.740 Y28.914 E0.01872
G1 X96.345 Y29.129 E0.02016
G1 X96.888 Y29.475 E0.02017
G1 X97.339 Y29.934 E0.02018
G1 X97.673 Y30.481 E0.02008
G1 X97.852 Y30.995 E0.01709
G1 X97.939 Y31.642 E0.02046
G1 X97.939 Y32.297 E0.02055
G1 X97.873 Y32.887 E0.01860
G1 X97.663 Y33.489 E0.01999
G1 X97.325 Y34.029 E0.01998
G1 X96.875 Y34.481 E0.01998
G1 X96.336 Y34.821 E0.01998
G1 X95.735 Y35.032 E0.01998
G1 X95.146 Y35.098 E0.01858
G1 X88.707 Y35.098 E0.20188
G1 X88.119 Y35.032 E0.01858
G1 X87.518 Y34.821 E0.01998
G1 X86.979 Y34.481 E0.01998
G1 X86.529 Y34.029 E0.01998
G1 X86.191 Y33.489 E0.01998
G1 X85.981 Y32.887 E0.01999
G1 X85.915 Y32.297 E0.01860
G1 X85.915 Y31.647 E0.02039
G1 X85.969 Y31.152 E0.01561
M204 S1250
G1 X86.343 Y31.192 F9000.000
M204 S800
;TYPE:External perimeter
G1 F1200.000
G1 X86.521 Y30.649 E0.01792
G1 X86.815 Y30.167 E0.01770
G1 X87.205 Y29.770 E0.01746
G1 X87.675 Y29.470 E0.01747
G1 X88.199 Y29.284 E0.01744
G1 X88.729 Y29.223 E0.01672
G1 X95.125 Y29.224 E0.20055
G1 X95.654 Y29.284 E0.01670
G1 X96.179 Y29.470 E0.01746
G1 X96.649 Y29.770 E0.01747
G1 X97.039 Y30.168 E0.01749
G1 X97.330 Y30.643 E0.01747
G1 X97.484 Y31.083 E0.01462
G1 X97.562 Y31.667 E0.01847
G1 X97.562 Y32.276 E0.01910
G1 X97.503 Y32.803 E0.01661
G1 X97.321 Y33.325 E0.01733
G1 X97.027 Y33.793 E0.01732
G1 X96.638 Y34.184 E0.01732
G1 X96.171 Y34.479 E0.01731
G1 X95.650 Y34.662 E0.01730
G1 X95.125 Y34.721 E0.01657
G1 X88.729 Y34.721 E0.20055
G1 X88.203 Y34.662 E0.01657
G1 X87.683 Y34.479 E0.01730
G1 X87.216 Y34.184 E0.01731
G1 X86.826 Y33.793 E0.01732
G1 X86.533 Y33.325 E0.01732
G1 X86.351 Y32.803 E0.01733
G1 X86.292 Y32.276 E0.01661
G1 X86.292 Y31.667 E0.01909
G1 X86.337 Y31.252 E0.01310
M204 S1250
G1 X86.051 Y30.920 F9000.000
G1 E-2.24000 F2400.000
;WIPE_START
G1 F7200.000
G1 X86.521 Y30.649 E-0.19963
G1 X86.815 Y30.167 E-0.17878
G1 X87.205 Y29.770 E-0.17629
G1 X87.675 Y29.470 E-0.17645
G1 X88.199 Y29.284 E-0.17615
G1 X88.213 Y29.282 E-0.00470
;WIPE_END
G1 E-0.04800 F2400.000
G1 Z0.400 F9000.000
G1 X101.899 Y29.118
G1 Z0.200
G1 E3.20000 F1500.000
M204 S800
;TYPE:Perimeter
G1 F1200.000
G1 X102.424 Y28.906 E0.01777
G1 X102.875 Y28.846 E0.01426
G1 X110.985 Y28.847 E0.25429
G1 X111.475 Y28.916 E0.01552
G1 X111.964 Y29.123 E0.01664
G1 X112.381 Y29.449 E0.01660
G1 X112.680 Y29.839 E0.01541
G1 X112.903 Y30.358 E0.01771
G1 X112.966 Y30.837 E0.01516
G1 X112.966 Y40.677 E0.30852
G1 X112.903 Y41.155 E0.01512
G1 X112.699 Y41.649 E0.01675
G1 X112.375 Y42.073 E0.01675
G1 X111.952 Y42.399 E0.01675
G1 X111.458 Y42.604 E0.01675
G1 X110.980 Y42.667 E0.01512
G1 X102.877 Y42.667 E0.25408
G1 X102.399 Y42.604 E0.01512
G1 X101.906 Y42.399 E0.01675
G1 X101.482 Y42.073 E0.01675
G1 X101.158 Y41.649 E0.01675
G1 X100.954 Y41.155 E0.01675
G1 X100.892 Y40.677 E0.01512
G1 X100.893 Y30.822 E0.30899
G1 X100.962 Y30.339 E0.01529
G1 X101.165 Y29.855 E0.01646
G1 X101.461 Y29.468 E0.01529
G1 X101.852 Y29.156 E0.01567
M204 S1250
G1 X102.087 Y29.450 F9000.000
M204 S800
;TYPE:External perimeter
G1 F1200.000
G1 X102.521 Y29.274 E0.01468
G1 X102.900 Y29.224 E0.01198
G1 X110.959 Y29.224 E0.25268
G1 X111.373 Y29.282 E0.01314
G1 X111.771 Y29.451 E0.01353
G1 X112.111 Y29.716 E0.01353
G1 X112.352 Y30.031 E0.01242
G1 X112.536 Y30.459 E0.01460
G1 X112.589 Y30.862 E0.01274
G1 X112.589 Y40.652 E0.30698
G1 X112.536 Y41.057 E0.01280
G1 X112.370 Y41.459 E0.01364
G1 X112.105 Y41.805 E0.01364
G1 X111.761 Y42.070 E0.01363
G1 X111.360 Y42.237 E0.01363
G1 X110.956 Y42.290 E0.01278
G1 X102.902 Y42.290 E0.25253
G1 X102.498 Y42.237 E0.01278
G1 X102.096 Y42.070 E0.01363
G1 X101.752 Y41.805 E0.01363
G1 X101.488 Y41.459 E0.01364
G1 X101.322 Y41.057 E0.01364
G1 X101.269 Y40.652 E0.01280
G1 X101.270 Y30.849 E0.30738
G1 X101.328 Y30.441 E0.01292
G1 X101.494 Y30.046 E0.01342
G1 X101.733 Y29.734 E0.01233
G1 X102.040 Y29.488 E0.01235
M204 S1250
G1 X102.089 Y29.050 F9000.000
G1 E-2.24000 F2400.000
;WIPE_START
G1 F7200.000
G1 X102.521 Y29.274 E-0.16655
G1 X102.900 Y29.224 E-0.12100
G1 X104.872 Y29.224 E-0.62444
;WIPE_END
G1 E-0.04800 F2400.000
G1 Z0.400 F9000.000
M73 P0 R129
G1 X89.304 Y70.327
G1 Z0.200
G1 E3.20000 F1500.000
M204 S800
;TYPE:Perimeter
G1 F1200.000
G1 X89.321 Y81.628 E0.35436
G1 X89.086 Y81.315 E0.01230
G1 X88.452 Y80.817 E0.02527
G1 X87.743 Y80.469 E0.02475
G1 X86.977 Y80.271 E0.02481
G1 X86.145 Y80.239 E0.02612
G1 X85.416 Y80.351 E0.02311
G1 X84.678 Y80.624 E0.02469
G1 X84.010 Y81.041 E0.02469
G1 X83.439 Y81.583 E0.02469
G1 X82.989 Y82.230 E0.02469
G1 X82.679 Y82.953 E0.02469
G1 X82.520 Y83.724 E0.02469
G1 X82.520 Y84.512 E0.02469
G1 X82.679 Y85.283 E0.02469
G1 X82.990 Y86.007 E0.02471
G1 X83.448 Y86.661 E0.02504
G1 X83.906 Y87.064 E0.01913
G1 X83.174 Y87.040 E0.02296
G1 X58.411 Y87.044 E0.77642
