; generated by PrusaSlicer 2.3.3+arm64 on 2021-08-25 at 14:49:06 UTC


;
;

;
;
; 

; external perimeters extrusion width = 0.45mm
; perimeters extrusion width = 0.45mm
; infill extrusion width = 0.45mm
; solid infill extrusion width = 0.45mm
; top infill extrusion width = 0.40mm
; first layer extrusion width = 0.42mm

M73 P0 R171
M201 X1250 Y1250 Z400 E5000 ; sets maximum accelerations, mm/sec^2
M203 X180 Y180 Z12 E80 ; sets maximum feedrates, mm/sec
M204 P1250 R1250 T1250 ; sets acceleration (P, T) and retract acceleration (R), mm/sec^2
M205 X8.00 Y8.00 Z2.00 E10.00 ; sets the jerk limits, mm/sec
M205 S0 T0 ; sets the minimum extruding and travel feed rate, mm/sec
M107
;TYPE:Custom
G90 ; use absolute coordinates
M83 ; extruder relative mode
M104 S170 ; set extruder temp for bed leveling
M140 S80 ; set bed temp
M109 R170 ; wait for bed leveling temp
M190 S80 ; wait for bed temp
G28 ; home all without mesh bed level
G29 ; mesh bed leveling 
M104 S220 ; set extruder temp
G92 E0.0
G1 Y-2.0 X179 F2400
G1 Z3 F720
M109 S220 ; wait for extruder temp

; intro line
G1 X170 F1000
G1 Z0.2 F720
G1 X110.0 E8.0 F900
G1 X40.0 E10.0 F700
G92 E0.0

M221 S95 ; set flow
G21 ; set units to millimeters
G90 ; use absolute coordinates
M83 ; use relative distances for extrusion
M900 K0.2 ; Filament gcode
;LAYER_CHANGE
;Z:0.2
;HEIGHT:0.2
;BEFORE_LAYER_CHANGE
G92 E0.0
;0.2


G1 E-3.20000 F2400.000
G1 Z0.200 F9000.000
;AFTER_LAYER_CHANGE
;0.2
G1 Z0.400
G1 X51.196 Y21.125
G1 Z0.200
G1 E3.20000 F1500.000
M204 S800
;TYPE:Skirt
;WIDTH:0.42
G1 F1200.000
G1 X51.939 Y20.975 E0.02378
G1 X127.973 Y20.973 E2.38398
G1 X128.875 Y21.152 E0.02884
G1 X129.641 Y21.661 E0.02884
G1 X131.837 Y23.893 E0.09818
G1 X132.176 Y24.542 E0.02296
G1 X132.302 Y25.264 E0.02296
G1 X132.302 Y138.756 E3.55846
G1 X130.792 Y156.949 E0.57241
G1 X130.693 Y157.437 E0.01562
G1 X130.497 Y157.891 E0.01550
G1 X130.125 Y158.386 E0.01941
G1 X129.635 Y158.771 E0.01953
G1 X129.066 Y159.014 E0.01941
G1 X128.453 Y159.102 E0.01941
G1 X51.567 Y159.102 E2.41070
M73 P0 R170
G1 X50.969 Y159.023 E0.01894
G1 X50.409 Y158.796 E0.01894
G1 X49.966 Y158.475 E0.01716
G1 X49.608 Y158.060 E0.01716
G1 X49.355 Y157.575 E0.01716
G1 X49.220 Y157.045 E0.01716
G1 X47.698 Y138.767 E0.57509
G1 X47.698 Y25.298 E3.55771
G1 X47.777 Y24.700 E0.01894
G1 X48.004 Y24.140 E0.01894
G1 X48.362 Y23.658 E0.01882
G1 X50.540 Y21.499 E0.09617
G1 X51.143 Y21.154 E0.02178
M204 S1250
; printing object pixel_pump_bottom_lid.stl id:1 copy 0
G1 E-2.24000 F2400.000
;WIPE_START
G1 F7200.000
G1 X51.939 Y20.975 E-0.25831
G1 X54.003 Y20.975 E-0.65369
;WIPE_END
G1 E-0.04800 F2400.000
G1 Z0.400 F9000.000
G1 X88.913 Y147.777
G1 Z0.200
G1 E3.20000 F1500.000
M204 S800
;TYPE:Perimeter
G1 F1200.000
G1 X89.573 Y147.618 E0.02128
G1 X90.159 Y147.588 E0.01840
G1 X90.787 Y147.684 E0.01993
G1 X91.383 Y147.905 E0.01993
G1 X91.923 Y148.241 E0.01993
G1 X92.383 Y148.679 E0.01993
G1 X92.746 Y149.201 E0.01993
G1 X92.997 Y149.785 E0.01993
G1 X93.125 Y150.407 E0.01993
G1 X93.125 Y151.043 E0.01993
G1 X92.997 Y151.665 E0.01993
G1 X92.746 Y152.249 E0.01993
G1 X92.383 Y152.771 E0.01993
G1 X91.923 Y153.209 E0.01993
G1 X91.383 Y153.545 E0.01993
G1 X90.787 Y153.766 E0.01993
G1 X90.159 Y153.862 E0.01993
G1 X89.524 Y153.830 E0.01993
G1 X88.909 Y153.671 E0.01993
G1 X88.338 Y153.391 E0.01993
G1 X87.836 Y153.002 E0.01993
G1 X87.422 Y152.519 E0.01993
G1 X87.113 Y151.964 E0.01993
G1 X86.923 Y151.357 E0.01993
G1 X86.859 Y150.725 E0.01993
G1 X86.923 Y150.093 E0.01993
G1 X87.113 Y149.486 E0.01993
G1 X87.422 Y148.931 E0.01993
G1 X87.836 Y148.448 E0.01993
G1 X88.338 Y148.059 E0.01993
G1 X88.859 Y147.804 E0.01819
M204 S1250
G1 X89.025 Y148.142 F9000.000
M204 S800
;TYPE:External perimeter
G1 F1200.000
G1 X89.627 Y147.992 E0.01945
G1 X90.140 Y147.966 E0.01609
G1 X90.692 Y148.051 E0.01752
G1 X91.216 Y148.245 E0.01752
G1 X91.691 Y148.541 E0.01752
G1 X92.096 Y148.926 E0.01752
G1 X92.415 Y149.385 E0.01752
G1 X92.635 Y149.898 E0.01752
G1 X92.748 Y150.446 E0.01752
G1 X92.748 Y151.005 E0.01752
G1 X92.635 Y151.552 E0.01752
G1 X92.415 Y152.066 E0.01752
G1 X92.096 Y152.524 E0.01752
G1 X91.691 Y152.909 E0.01752
G1 X91.216 Y153.205 E0.01752
G1 X90.692 Y153.399 E0.01752
G1 X90.140 Y153.484 E0.01752
G1 X89.582 Y153.455 E0.01752
G1 X89.041 Y153.315 E0.01752
G1 X88.539 Y153.069 E0.01752
G1 X88.097 Y152.727 E0.01752
G1 X87.733 Y152.303 E0.01752
G1 X87.462 Y151.814 E0.01752
G1 X87.294 Y151.281 E0.01752
G1 X87.238 Y150.725 E0.01752
G1 X87.294 Y150.169 E0.01752
G1 X87.462 Y149.636 E0.01752
G1 X87.733 Y149.147 E0.01752
G1 X88.097 Y148.723 E0.01752
G1 X88.539 Y148.381 E0.01752
G1 X88.972 Y148.169 E0.01511
M204 S1250
G1 X89.095 Y147.748 F9000.000
G1 E-2.24000 F2400.000
;WIPE_START
G1 F7200.000
G1 X89.627 Y147.992 E-0.21506
G1 X90.140 Y147.966 E-0.16248
G1 X90.692 Y148.051 E-0.17698
G1 X91.216 Y148.245 E-0.17698
G1 X91.691 Y148.541 E-0.17698
G1 X91.699 Y148.549 E-0.00353
;WIPE_END
G1 E-0.04800 F2400.000
G1 Z0.400 F9000.000
G1 X59.125 Y150.407
G1 Z0.200
G1 E3.20000 F1500.000
M204 S800
;TYPE:Perimeter
G1 F1200.000
G1 X59.125 Y151.043 E0.01993
G1 X58.997 Y151.665 E0.01993
G1 X58.746 Y152.249 E0.01993
G1 X58.383 Y152.771 E0.01993
G1 X57.923 Y153.209 E0.01993
G1 X57.383 Y153.545 E0.01993
G1 X56.787 Y153.766 E0.01993
G1 X56.159 Y153.862 E0.01993
G1 X55.524 Y153.830 E0.01993
G1 X54.909 Y153.671 E0.01993
G1 X54.338 Y153.391 E0.01993
G1 X53.836 Y153.002 E0.01993
G1 X53.422 Y152.519 E0.01993
G1 X53.113 Y151.964 E0.01993
G1 X52.923 Y151.357 E0.01993
G1 X52.859 Y150.725 E0.01993
G1 X52.923 Y150.093 E0.01993
G1 X53.113 Y149.486 E0.01993
G1 X53.422 Y148.931 E0.01993
G1 X53.836 Y148.448 E0.01993
G1 X54.338 Y148.059 E0.01993
G1 X54.913 Y147.777 E0.02008
G1 X55.573 Y147.618 E0.02129
G1 X56.159 Y147.588 E0.01840
G1 X56.787 Y147.684 E0.01993
G1 X57.383 Y147.905 E0.01993
G1 X57.923 Y148.241 E0.01993
G1 X58.383 Y148.679 E0.01993
G1 X58.746 Y149.201 E0.01993
G1 X58.997 Y149.785 E0.01993
G1 X59.113 Y150.349 E0.01805
M204 S1250
G1 X58.744 Y150.424 F9000.000
M204 S800
;TYPE:External perimeter
G1 F1200.000
G1 X58.748 Y151.005 E0.01819
G1 X58.635 Y151.552 E0.01752
G1 X58.415 Y152.066 E0.01752
G1 X58.096 Y152.524 E0.01752
G1 X57.691 Y152.909 E0.01752
G1 X57.216 Y153.205 E0.01752
G1 X56.692 Y153.399 E0.01752
G1 X56.140 Y153.484 E0.01752
G1 X55.582 Y153.455 E0.01752
G1 X55.041 Y153.315 E0.01752
G1 X54.539 Y153.069 E0.01752
G1 X54.097 Y152.727 E0.01752
G1 X53.733 Y152.303 E0.01752
G1 X53.462 Y151.814 E0.01752
G1 X53.294 Y151.281 E0.01752
G1 X53.238 Y150.725 E0.01752
G1 X53.294 Y150.169 E0.01752
G1 X53.462 Y149.636 E0.01752
G1 X53.733 Y149.147 E0.01752
G1 X54.097 Y148.723 E0.01752
G1 X54.539 Y148.381 E0.01752
G1 X55.042 Y148.134 E0.01758
G1 X55.627 Y147.992 E0.01888
G1 X56.140 Y147.966 E0.01609
G1 X56.692 Y148.051 E0.01752
G1 X57.216 Y148.245 E0.01752
G1 X57.691 Y148.541 E0.01752
G1 X58.096 Y148.926 E0.01752
G1 X58.415 Y149.385 E0.01752
G1 X58.635 Y149.898 E0.01752
G1 X58.732 Y150.366 E0.01496
M204 S1250
G1 X59.109 Y150.586 F9000.000
G1 E-2.24000 F2400.000
;WIPE_START
G1 F7200.000
G1 X58.748 Y151.005 E-0.20237
G1 X58.635 Y151.552 E-0.17698
G1 X58.415 Y152.066 E-0.17698
G1 X58.096 Y152.524 E-0.17698
G1 X57.691 Y152.909 E-0.17698
G1 X57.686 Y152.912 E-0.00172
;WIPE_END
G1 E-0.04800 F2400.000
G1 Z0.400 F9000.000
G1 X120.859 Y150.725
G1 Z0.200
G1 E3.20000 F1500.000
M204 S800
;TYPE:Perimeter
G1 F1200.000
G1 X120.923 Y150.093 E0.01993
G1 X121.113 Y149.486 E0.01993
G1 X121.422 Y148.931 E0.01993
G1 X121.836 Y148.448 E0.01993
G1 X122.338 Y148.059 E0.01993
G1 X122.913 Y147.777 E0.02008
G1 X123.573 Y147.618 E0.02129
G1 X124.159 Y147.588 E0.01840
G1 X124.787 Y147.684 E0.01993
G1 X125.383 Y147.905 E0.01993
G1 X125.923 Y148.241 E0.01993
G1 X126.383 Y148.679 E0.01993
G1 X126.746 Y149.201 E0.01993
G1 X126.997 Y149.785 E0.01993
G1 X127.125 Y150.407 E0.01993
G1 X127.125 Y151.043 E0.01993
G1 X126.997 Y151.665 E0.01993
G1 X126.746 Y152.249 E0.01993
G1 X126.383 Y152.771 E0.01993
G1 X125.923 Y153.209 E0.01993
G1 X125.383 Y153.545 E0.01993
G1 X124.787 Y153.766 E0.01993
G1 X124.159 Y153.862 E0.01993
G1 X123.524 Y153.830 E0.01993
G1 X122.909 Y153.671 E0.01993
G1 X122.338 Y153.391 E0.01993
G1 X121.836 Y153.002 E0.01993
G1 X121.422 Y152.520 E0.01993
G1 X121.113 Y151.964 E0.01993
G1 X120.923 Y151.357 E0.01993
G1 X120.865 Y150.785 E0.01805
M204 S1250
G1 X121.240 Y150.747 F9000.000
M204 S800
;TYPE:External perimeter
G1 F1200.000
G1 X121.294 Y150.169 E0.01819
G1 X121.462 Y149.636 E0.01752
G1 X121.733 Y149.147 E0.01752
G1 X122.097 Y148.723 E0.01752
G1 X122.539 Y148.381 E0.01752
G1 X123.042 Y148.134 E0.01758
G1 X123.627 Y147.992 E0.01888
G1 X124.140 Y147.966 E0.01609
G1 X124.692 Y148.051 E0.01752
G1 X125.216 Y148.245 E0.01752
G1 X125.691 Y148.541 E0.01752
G1 X126.096 Y148.926 E0.01752
G1 X126.415 Y149.385 E0.01752
G1 X126.635 Y149.898 E0.01752
G1 X126.748 Y150.446 E0.01752
G1 X126.748 Y151.005 E0.01752
G1 X126.635 Y151.552 E0.01752
G1 X126.415 Y152.066 E0.01752
G1 X126.096 Y152.524 E0.01752
G1 X125.691 Y152.909 E0.01752
G1 X125.216 Y153.205 E0.01752
G1 X124.692 Y153.399 E0.01752
G1 X124.140 Y153.484 E0.01752
G1 X123.582 Y153.455 E0.01752
G1 X123.041 Y153.315 E0.01752
G1 X122.539 Y153.069 E0.01752
G1 X122.097 Y152.727 E0.01752
G1 X121.733 Y152.303 E0.01752
G1 X121.462 Y151.814 E0.01752
G1 X121.294 Y151.281 E0.01752
G1 X121.246 Y150.806 E0.01496
M204 S1250
G1 X120.893 Y150.549 F9000.000
G1 E-2.24000 F2400.000
;WIPE_START
G1 F7200.000
G1 X121.294 Y150.169 E-0.20237
G1 X121.462 Y149.636 E-0.17698
G1 X121.733 Y149.147 E-0.17698
G1 X122.097 Y148.723 E-0.17698
G1 X122.539 Y148.381 E-0.17698
G1 X122.544 Y148.379 E-0.00172
;WIPE_END
G1 E-0.04800 F2400.000
G1 Z0.400 F9000.000
G1 X127.313 Y145.916
G1 Z0.200
G1 E3.20000 F1500.000
M204 S800
;TYPE:Perimeter
G1 F1200.000
G1 X127.313 Y155.938 E0.31424
G1 X52.687 Y155.938 E2.33983
G1 X52.692 Y145.912 E0.31435
G1 X127.253 Y145.916 E2.33781
M204 S1250
G1 X127.690 Y145.539 F9000.000
M204 S800
;TYPE:External perimeter
G1 F1200.000
G1 X127.690 Y156.315 E0.33789
G1 X52.310 Y156.315 E2.36348
G1 X52.315 Y145.535 E0.33800
G1 X127.630 Y145.539 E2.36145
M204 S1250
G1 X127.507 Y145.894 F9000.000
G1 E-2.24000 F2400.000
;WIPE_START
G1 F7200.000
G1 X127.646 Y148.419 E-0.91200
;WIPE_END
G1 E-0.04800 F2400.000
G1 Z0.400 F9000.000
G1 X127.200 Y146.791
G1 Z0.200
G1 E3.20000 F1500.000
M204 S800
;TYPE:Solid infill
;WIDTH:0.420062
G1 F1200.000
G1 X126.607 Y146.198 E0.02629
G1 X126.074 Y146.198 E0.01673
G1 X127.030 Y147.155 E0.04242
G1 X127.030 Y147.688 E0.01673
G1 X125.540 Y146.198 E0.06607
G1 X125.007 Y146.198 E0.01673
G1 X127.030 Y148.222 E0.08973
G1 X127.030 Y148.755 E0.01673
G1 X124.474 Y146.198 E0.11338
G1 X123.940 Y146.198 E0.01673
G1 X125.323 Y147.581 E0.06132
G1 X124.859 Y147.409 E0.01552
G1 X124.574 Y147.365 E0.00903
G1 X123.407 Y146.198 E0.05176
G1 X122.873 Y146.198 E0.01673
G1 X123.989 Y147.313 E0.04946
G1 X123.489 Y147.347 E0.01571
G1 X122.340 Y146.198 E0.05095
G1 X121.807 Y146.198 E0.01673
G1 X123.059 Y147.451 E0.05556
G1 X122.817 Y147.510 E0.00784
G1 X122.661 Y147.586 E0.00543
G1 X121.273 Y146.198 E0.06155
G1 X120.740 Y146.198 E0.01673
G1 X122.303 Y147.762 E0.06934
G1 X122.188 Y147.818 E0.00402
G1 X121.984 Y147.976 E0.00808
G1 X120.206 Y146.198 E0.07884
G1 X119.673 Y146.198 E0.01673
G1 X121.684 Y148.209 E0.08917
G1 X121.429 Y148.488 E0.01184
G1 X119.140 Y146.198 E0.10155
G1 X118.606 Y146.198 E0.01673
G1 X121.184 Y148.776 E0.11433
G1 X120.994 Y149.119 E0.01230
G1 X118.073 Y146.198 E0.12954
G1 X117.540 Y146.198 E0.01673
G1 X120.820 Y149.478 E0.14547
G1 X120.692 Y149.884 E0.01334
G1 X117.006 Y146.198 E0.16347
G1 X116.473 Y146.198 E0.01673
G1 X120.614 Y150.339 E0.18365
G1 X120.575 Y150.725 E0.01217
G1 X120.587 Y150.845 E0.00379
G1 X115.939 Y146.198 E0.20611
G1 X115.406 Y146.198 E0.01673
G1 X120.914 Y151.706 E0.24427
M204 S1250
G1 E-2.24000 F2400.000
;WIPE_START
G1 F7200.000
G1 X118.877 Y149.669 E-0.91200
;WIPE_END
G1 E-0.04800 F2400.000
G1 Z0.400 F9000.000
G1 X126.846 Y152.304
G1 Z0.200
G1 E3.20000 F1500.000
M204 S800
G1 F1200.000
G1 X127.030 Y152.488 E0.00817
G1 X127.030 Y153.022 E0.01673
G1 X126.749 Y152.741 E0.01246
G1 X126.599 Y152.956 E0.00824
G1 X126.513 Y153.038 E0.00372
G1 X127.030 Y153.555 E0.02293
G1 X127.030 Y154.089 E0.01673
G1 X126.240 Y153.298 E0.03506
G1 X126.097 Y153.434 E0.00618
G1 X125.940 Y153.532 E0.00580
G1 X127.030 Y154.622 E0.04835
G1 X127.030 Y155.155 E0.01673
G1 X125.611 Y153.736 E0.06292
G1 X125.509 Y153.800 E0.00380
G1 X125.241 Y153.899 E0.00895
G1 X126.997 Y155.655 E0.07786
G1 X126.463 Y155.655 E0.01673
G1 X124.851 Y154.042 E0.07153
G1 X124.388 Y154.113 E0.01467
G1 X125.930 Y155.655 E0.06839
G1 X125.397 Y155.655 E0.01673
G1 X123.872 Y154.131 E0.06761
G1 X123.481 Y154.111 E0.01228
G1 X123.262 Y154.054 E0.00709
G1 X124.863 Y155.655 E0.07100
G1 X124.330 Y155.655 E0.01673
G1 X122.421 Y153.746 E0.08466
G1 X122.188 Y153.632 E0.00814
G1 X121.640 Y153.208 E0.02173
G1 X121.189 Y152.682 E0.02173
G1 X120.979 Y152.304 E0.01355
G1 X114.873 Y146.198 E0.27081
G1 X114.339 Y146.198 E0.01673
G1 X123.797 Y155.655 E0.41942
G1 X123.263 Y155.655 E0.01673
G1 X113.806 Y146.198 E0.41943
G1 X113.272 Y146.198 E0.01673
G1 X122.730 Y155.655 E0.41943
G1 X122.196 Y155.655 E0.01673
G1 X112.739 Y146.198 E0.41943
G1 X112.206 Y146.198 E0.01673
G1 X121.663 Y155.655 E0.41943
G1 X121.130 Y155.655 E0.01673
G1 X111.672 Y146.198 E0.41943
G1 X111.139 Y146.198 E0.01673
G1 X120.596 Y155.655 E0.41943
G1 X120.063 Y155.655 E0.01673
G1 X110.606 Y146.198 E0.41943
G1 X110.072 Y146.198 E0.01673
G1 X119.530 Y155.655 E0.41943
G1 X118.996 Y155.655 E0.01673
G1 X109.539 Y146.198 E0.41943
G1 X109.005 Y146.198 E0.01673
G1 X118.463 Y155.655 E0.41943
G1 X117.930 Y155.655 E0.01673
G1 X108.472 Y146.198 E0.41944
G1 X107.939 Y146.198 E0.01673
G1 X117.396 Y155.655 E0.41944
G1 X116.863 Y155.655 E0.01673
G1 X107.405 Y146.198 E0.41944
G1 X106.872 Y146.197 E0.01673
G1 X116.330 Y155.655 E0.41944
G1 X115.796 Y155.655 E0.01673
G1 X106.338 Y146.197 E0.41944
G1 X105.805 Y146.197 E0.01673
G1 X115.263 Y155.655 E0.41944
G1 X114.729 Y155.655 E0.01673
G1 X105.272 Y146.197 E0.41944
G1 X104.738 Y146.197 E0.01673
G1 X114.196 Y155.655 E0.41944
G1 X113.663 Y155.655 E0.01673
G1 X104.205 Y146.197 E0.41944
G1 X103.672 Y146.197 E0.01673
G1 X113.129 Y155.655 E0.41945
G1 X112.596 Y155.655 E0.01673
G1 X103.138 Y146.197 E0.41945
G1 X102.605 Y146.197 E0.01673
G1 X112.063 Y155.655 E0.41945
G1 X111.529 Y155.655 E0.01673
G1 X102.071 Y146.197 E0.41945
G1 X101.538 Y146.197 E0.01673
G1 X110.996 Y155.655 E0.41945
G1 X110.463 Y155.655 E0.01673
G1 X101.005 Y146.197 E0.41945
M73 P0 R169
G1 X100.471 Y146.197 E0.01673
G1 X109.929 Y155.655 E0.41945
G1 X109.396 Y155.655 E0.01673
G1 X99.938 Y146.197 E0.41945
G1 X99.404 Y146.197 E0.01673
G1 X108.863 Y155.655 E0.41945
G1 X108.329 Y155.655 E0.01673
G1 X98.871 Y146.197 E0.41946
G1 X98.338 Y146.197 E0.01673
G1 X107.796 Y155.655 E0.41946
G1 X107.262 Y155.655 E0.01673
G1 X97.804 Y146.197 E0.41946
G1 X97.271 Y146.197 E0.01673
G1 X106.729 Y155.655 E0.41946
G1 X106.196 Y155.655 E0.01673
G1 X96.738 Y146.197 E0.41946
G1 X96.204 Y146.197 E0.01673
G1 X105.662 Y155.655 E0.41946
G1 X105.129 Y155.655 E0.01673
G1 X95.671 Y146.197 E0.41946
G1 X95.137 Y146.197 E0.01673
G1 X104.596 Y155.655 E0.41946
G1 X104.062 Y155.655 E0.01673
G1 X94.604 Y146.197 E0.41946
G1 X94.071 Y146.197 E0.01673
G1 X103.529 Y155.655 E0.41947
G1 X102.996 Y155.655 E0.01673
G1 X93.537 Y146.197 E0.41947
G1 X93.004 Y146.197 E0.01673
G1 X102.462 Y155.655 E0.41947
G1 X101.929 Y155.655 E0.01673
G1 X92.470 Y146.197 E0.41947
G1 X91.937 Y146.197 E0.01673
G1 X101.395 Y155.655 E0.41947
G1 X100.862 Y155.655 E0.01673
G1 X91.404 Y146.197 E0.41947
M73 P1 R169
G1 X90.870 Y146.197 E0.01673
G1 X100.329 Y155.655 E0.41947
G1 X99.795 Y155.655 E0.01673
G1 X90.337 Y146.197 E0.41947
G1 X89.804 Y146.197 E0.01673
G1 X91.108 Y147.502 E0.05787
G1 X91.509 Y147.650 E0.01338
G1 X92.097 Y148.016 E0.02173
G1 X92.599 Y148.494 E0.02173
G1 X92.995 Y149.063 E0.02173
G1 X93.240 Y149.633 E0.01945
G1 X99.262 Y155.655 E0.26709
G1 X98.729 Y155.655 E0.01673
G1 X93.396 Y150.323 E0.23648
G1 X93.408 Y150.868 E0.01709
