; generated by PrusaSlicer 2.3.3+arm64 on 2021-08-25 at 14:50:41 UTC


;
;

;
;
; 

; external perimeters extrusion width = 0.45mm
; perimeters extrusion width = 0.45mm
; infill extrusion width = 0.45mm
; solid infill extrusion width = 0.45mm
; top infill extrusion width = 0.40mm
; first layer extrusion width = 0.42mm

M73 P0 R76
M201 X1250 Y1250 Z400 E5000 ; sets maximum accelerations, mm/sec^2
M203 X180 Y180 Z12 E80 ; sets maximum feedrates, mm/sec
M204 P1250 R1250 T1250 ; sets acceleration (P, T) and retract acceleration (R), mm/sec^2
M205 X8.00 Y8.00 Z2.00 E10.00 ; sets the jerk limits, mm/sec
M205 S0 T0 ; sets the minimum extruding and travel feed rate, mm/sec
M107
;TYPE:Custom
G90 ; use absolute coordinates
M83 ; extruder relative mode
M104 S170 ; set extruder temp for bed leveling
M140 S80 ; set bed temp
M109 R170 ; wait for bed leveling temp
M190 S80 ; wait for bed temp
G28 ; home all without mesh bed level
G29 ; mesh bed leveling 
M104 S220 ; set extruder temp
G92 E0.0
G1 Y-2.0 X179 F2400
G1 Z3 F720
M109 S220 ; wait for extruder temp

; intro line
G1 X170 F1000
G1 Z0.2 F720
G1 X110.0 E8.0 F900
G1 X40.0 E10.0 F700
G92 E0.0

M221 S95 ; set flow
G21 ; set units to millimeters
G90 ; use absolute coordinates
M83 ; use relative distances for extrusion
M900 K0.2 ; Filament gcode
;LAYER_CHANGE
;Z:0.2
;HEIGHT:0.2
;BEFORE_LAYER_CHANGE
G92 E0.0
;0.2


G1 E-3.20000 F2400.000
G1 Z0.200 F9000.000
;AFTER_LAYER_CHANGE
;0.2
G1 Z0.400
G1 X48.780 Y59.063
G1 Z0.200
G1 E3.20000 F1500.000
M204 S800
;TYPE:Skirt
;WIDTH:0.42
G1 F1200.000
G1 X49.800 Y58.959 E0.03216
G1 X89.864 Y58.965 E1.25617
G1 X124.243 Y63.511 E1.08732
G1 X125.649 Y63.855 E0.04538
G1 X126.579 Y64.309 E0.03245
G1 X132.112 Y67.941 E0.20752
G1 X132.789 Y68.504 E0.02761
G1 X133.401 Y69.207 E0.02922
G1 X133.864 Y69.958 E0.02768
G1 X134.204 Y70.777 E0.02780
G1 X134.412 Y71.646 E0.02803
G1 X134.477 Y72.496 E0.02672
G1 X134.476 Y107.553 E1.09919
G1 X134.407 Y108.380 E0.02601
G1 X134.211 Y109.202 E0.02649
G1 X133.886 Y109.998 E0.02696
G1 X133.511 Y110.630 E0.02302
G1 X132.886 Y111.400 E0.03112
G1 X132.254 Y111.955 E0.02636
G1 X127.209 Y115.605 E0.19523
G1 X126.323 Y116.078 E0.03150
G1 X125.452 Y116.365 E0.02877
G1 X89.977 Y121.025 E1.12184
G1 X49.456 Y121.041 E1.27052
G1 X48.817 Y120.948 E0.02024
G1 X48.227 Y120.687 E0.02024
G1 X47.765 Y120.315 E0.01858
G1 X47.410 Y119.841 E0.01858
G1 X47.183 Y119.293 E0.01858
G1 X47.098 Y118.710 E0.01846
G1 X47.099 Y61.275 E1.80084
G1 X47.163 Y60.785 E0.01550
G1 X47.328 Y60.315 E0.01562
G1 X47.586 Y59.893 E0.01550
G1 X47.928 Y59.532 E0.01562
G1 X48.328 Y59.254 E0.01526
G1 X48.724 Y59.086 E0.01350
M204 S1250
; printing object pixel_pump_ui_pcb_spacer.stl id:1 copy 0
G1 E-2.24000 F2400.000
;WIPE_START
G1 F7200.000
G1 X49.800 Y58.959 E-0.34301
G1 X51.597 Y58.959 E-0.56899
;WIPE_END
G1 E-0.04800 F2400.000
G1 Z0.400 F9000.000
G1 X113.262 Y85.878
G1 Z0.200
G1 E3.20000 F1500.000
M204 S800
;TYPE:Perimeter
G1 F1200.000
G1 X113.785 Y85.984 E0.01675
G1 X114.323 Y85.943 E0.01691
G1 X114.546 Y85.865 E0.00742
G1 X114.515 Y85.923 E0.00208
G1 X114.360 Y86.456 E0.01740
G1 X114.313 Y86.964 E0.01600
G1 X114.313 Y93.035 E0.19035
G1 X114.359 Y93.544 E0.01600
G1 X114.515 Y94.076 E0.01740
G1 X114.548 Y94.138 E0.00219
G1 X114.279 Y94.048 E0.00891
G1 X113.740 Y94.019 E0.01691
G1 X113.261 Y94.122 E0.01535
G1 X113.441 Y93.543 E0.01901
G1 X113.487 Y93.035 E0.01599
G1 X113.487 Y86.965 E0.19034
G1 X113.441 Y86.457 E0.01599
G1 X113.289 Y85.931 E0.01714
M204 S1250
G1 E-2.24000 F2400.000
;WIPE_START
G1 F7200.000
G1 X113.785 Y85.984 E-0.15811
G1 X114.323 Y85.943 E-0.17078
G1 X114.546 Y85.865 E-0.07496
G1 X114.515 Y85.923 E-0.02103
G1 X114.360 Y86.456 E-0.17568
G1 X114.313 Y86.964 E-0.16162
G1 X114.313 Y87.438 E-0.14983
;WIPE_END
G1 E-0.04800 F2400.000
G1 Z0.400 F9000.000
G1 X111.751 Y84.249
G1 Z0.200
G1 E3.20000 F1500.000
M204 S800
G1 F1200.000
G1 X111.681 Y84.000 E0.00811
G1 X111.687 Y83.458 E0.01701
G1 X111.745 Y83.253 E0.00667
G1 X111.470 Y83.396 E0.00972
G1 X110.939 Y83.543 E0.01727
G1 X110.435 Y83.587 E0.01588
G1 X100.866 Y83.587 E0.30003
G1 X100.364 Y83.543 E0.01581
G1 X99.843 Y83.403 E0.01689
G1 X99.355 Y83.176 E0.01689
G1 X98.914 Y82.867 E0.01689
G1 X98.533 Y82.486 E0.01689
G1 X98.224 Y82.045 E0.01689
G1 X97.996 Y81.557 E0.01689
G1 X97.857 Y81.036 E0.01689
G1 X97.813 Y80.534 E0.01581
G1 X97.813 Y74.465 E0.19028
G1 X97.857 Y73.963 E0.01581
G1 X97.997 Y73.443 E0.01689
G1 X98.224 Y72.955 E0.01689
G1 X98.533 Y72.513 E0.01689
G1 X98.914 Y72.133 E0.01689
G1 X99.355 Y71.824 E0.01689
G1 X99.843 Y71.596 E0.01689
G1 X100.364 Y71.457 E0.01689
G1 X100.866 Y71.413 E0.01581
G1 X103.389 Y71.413 E0.07910
M73 P0 R75
G1 X102.956 Y71.315 E0.01390
G1 X102.488 Y71.086 E0.01633
G1 X102.086 Y70.756 E0.01632
G1 X101.771 Y70.342 E0.01633
G1 X101.559 Y69.866 E0.01632
G1 X101.463 Y69.354 E0.01632
G1 X101.488 Y68.834 E0.01633
G1 X101.632 Y68.334 E0.01633
G1 X101.887 Y67.880 E0.01633
G1 X102.240 Y67.498 E0.01632
G1 X102.677 Y67.203 E0.01652
G1 X103.204 Y67.018 E0.01749
G1 X103.676 Y66.957 E0.01493
G1 X104.194 Y67.012 E0.01633
G1 X104.685 Y67.185 E0.01632
G1 X105.128 Y67.470 E0.01652
G1 X105.507 Y67.879 E0.01749
G1 X105.750 Y68.289 E0.01493
G1 X105.904 Y68.786 E0.01632
G1 X105.940 Y69.306 E0.01633
G1 X105.854 Y69.826 E0.01652
G1 X105.628 Y70.336 E0.01749
G1 X105.348 Y70.721 E0.01493
G1 X104.953 Y71.060 E0.01633
G1 X104.490 Y71.298 E0.01632
G1 X104.031 Y71.413 E0.01484
G1 X110.435 Y71.413 E0.20079
G1 X110.937 Y71.457 E0.01581
G1 X111.457 Y71.596 E0.01689
G1 X111.945 Y71.824 E0.01689
G1 X112.387 Y72.133 E0.01689
G1 X112.767 Y72.514 E0.01689
G1 X113.076 Y72.955 E0.01689
G1 X113.304 Y73.443 E0.01689
G1 X113.443 Y73.963 E0.01689
G1 X113.487 Y74.465 E0.01581
G1 X113.487 Y80.535 E0.19031
G1 X113.441 Y81.043 E0.01599
G1 X113.261 Y81.622 E0.01901
G1 X113.740 Y81.519 E0.01535
G1 X114.279 Y81.548 E0.01691
G1 X114.548 Y81.638 E0.00891
G1 X114.515 Y81.576 E0.00219
G1 X114.360 Y81.044 E0.01740
G1 X114.313 Y80.535 E0.01600
G1 X114.313 Y74.466 E0.19032
G1 X114.357 Y73.963 E0.01581
G1 X114.497 Y73.443 E0.01689
G1 X114.724 Y72.955 E0.01689
G1 X115.033 Y72.514 E0.01689
G1 X115.414 Y72.133 E0.01689
G1 X115.855 Y71.824 E0.01689
G1 X116.343 Y71.596 E0.01689
G1 X116.864 Y71.457 E0.01689
G1 X117.343 Y71.415 E0.01508
G1 X123.292 Y71.414 E0.18653
G1 X122.856 Y71.315 E0.01400
G1 X122.388 Y71.087 E0.01633
G1 X121.986 Y70.756 E0.01633
G1 X121.671 Y70.342 E0.01633
G1 X121.459 Y69.866 E0.01632
G1 X121.363 Y69.355 E0.01632
G1 X121.388 Y68.835 E0.01633
G1 X121.532 Y68.334 E0.01633
G1 X121.787 Y67.880 E0.01632
G1 X122.140 Y67.498 E0.01632
G1 X122.577 Y67.204 E0.01652
G1 X123.104 Y67.018 E0.01749
G1 X123.576 Y66.958 E0.01494
G1 X124.094 Y67.013 E0.01633
G1 X124.585 Y67.185 E0.01632
G1 X125.028 Y67.470 E0.01652
G1 X125.407 Y67.880 E0.01749
G1 X125.650 Y68.290 E0.01494
G1 X125.804 Y68.787 E0.01632
G1 X125.840 Y69.306 E0.01633
G1 X125.755 Y69.820 E0.01632
G1 X125.554 Y70.300 E0.01632
G1 X125.248 Y70.721 E0.01633
G1 X124.853 Y71.060 E0.01633
G1 X124.390 Y71.299 E0.01633
G1 X123.928 Y71.414 E0.01492
G1 X126.935 Y71.413 E0.09427
G1 X127.437 Y71.457 E0.01581
G1 X127.957 Y71.596 E0.01689
G1 X128.445 Y71.824 E0.01689
G1 X128.887 Y72.133 E0.01689
G1 X129.267 Y72.514 E0.01689
G1 X129.576 Y72.955 E0.01689
G1 X129.804 Y73.443 E0.01689
G1 X129.943 Y73.963 E0.01689
G1 X129.987 Y74.466 E0.01581
G1 X129.987 Y80.534 E0.19028
G1 X129.943 Y81.037 E0.01581
G1 X129.804 Y81.557 E0.01689
G1 X129.576 Y82.045 E0.01689
G1 X129.267 Y82.486 E0.01689
G1 X128.886 Y82.867 E0.01689
G1 X128.445 Y83.176 E0.01689
G1 X127.957 Y83.404 E0.01689
G1 X127.437 Y83.543 E0.01689
G1 X126.934 Y83.587 E0.01581
G1 X117.366 Y83.587 E0.30003
G1 X116.861 Y83.543 E0.01588
G1 X116.330 Y83.396 E0.01726
G1 X116.062 Y83.257 E0.00948
G1 X116.133 Y83.729 E0.01497
G1 X116.062 Y84.243 E0.01626
G1 X116.330 Y84.104 E0.00947
G1 X116.861 Y83.957 E0.01726
G1 X117.343 Y83.915 E0.01515
G1 X126.934 Y83.913 E0.30075
G1 X127.437 Y83.957 E0.01581
G1 X127.957 Y84.096 E0.01689
G1 X128.445 Y84.324 E0.01689
G1 X128.886 Y84.633 E0.01689
G1 X129.267 Y85.014 E0.01689
G1 X129.576 Y85.455 E0.01689
G1 X129.804 Y85.943 E0.01689
G1 X129.943 Y86.463 E0.01689
G1 X129.987 Y86.966 E0.01581
G1 X129.987 Y93.034 E0.19028
G1 X129.943 Y93.537 E0.01581
G1 X129.804 Y94.057 E0.01689
G1 X129.576 Y94.545 E0.01689
G1 X129.267 Y94.986 E0.01689
G1 X128.886 Y95.367 E0.01689
G1 X128.445 Y95.676 E0.01689
G1 X127.957 Y95.904 E0.01689
G1 X127.437 Y96.043 E0.01689
G1 X126.934 Y96.087 E0.01581
G1 X117.365 Y96.087 E0.30003
G1 X116.861 Y96.043 E0.01588
G1 X116.330 Y95.896 E0.01726
G1 X116.062 Y95.757 E0.00948
G1 X116.133 Y96.229 E0.01497
G1 X116.062 Y96.743 E0.01626
G1 X116.330 Y96.604 E0.00947
G1 X116.861 Y96.457 E0.01726
G1 X117.342 Y96.415 E0.01515
G1 X126.934 Y96.413 E0.30075
G1 X127.437 Y96.457 E0.01581
G1 X127.957 Y96.596 E0.01689
G1 X128.445 Y96.824 E0.01689
G1 X128.886 Y97.133 E0.01689
G1 X129.267 Y97.514 E0.01689
G1 X129.576 Y97.955 E0.01689
G1 X129.804 Y98.443 E0.01689
G1 X129.943 Y98.964 E0.01689
G1 X129.987 Y99.466 E0.01581
G1 X129.987 Y105.534 E0.19028
G1 X129.943 Y106.037 E0.01581
G1 X129.804 Y106.557 E0.01689
G1 X129.576 Y107.045 E0.01689
G1 X129.267 Y107.486 E0.01689
G1 X128.886 Y107.867 E0.01689
G1 X128.445 Y108.176 E0.01689
G1 X127.957 Y108.404 E0.01689
G1 X127.436 Y108.543 E0.01689
G1 X126.934 Y108.587 E0.01581
G1 X124.412 Y108.587 E0.07910
G1 X124.844 Y108.685 E0.01390
G1 X125.312 Y108.913 E0.01633
G1 X125.714 Y109.244 E0.01632
G1 X126.030 Y109.658 E0.01632
G1 X126.241 Y110.134 E0.01633
G1 X126.337 Y110.645 E0.01633
G1 X126.312 Y111.165 E0.01632
G1 X126.168 Y111.666 E0.01632
G1 X125.913 Y112.120 E0.01632
G1 X125.560 Y112.502 E0.01633
G1 X125.128 Y112.793 E0.01632
G1 X124.640 Y112.976 E0.01633
G1 X124.124 Y113.042 E0.01633
G1 X123.606 Y112.987 E0.01632
G1 X123.115 Y112.815 E0.01632
G1 X122.677 Y112.533 E0.01633
G1 X122.316 Y112.158 E0.01632
G1 X122.050 Y111.710 E0.01632
G1 X121.896 Y111.213 E0.01633
G1 X121.860 Y110.694 E0.01633
G1 X121.945 Y110.180 E0.01632
G1 X122.146 Y109.700 E0.01632
G1 X122.452 Y109.279 E0.01633
G1 X122.847 Y108.940 E0.01632
G1 X123.316 Y108.698 E0.01652
G1 X123.807 Y108.587 E0.01580
G1 X117.365 Y108.587 E0.20198
G1 X116.863 Y108.543 E0.01581
G1 X116.343 Y108.404 E0.01689
G1 X115.855 Y108.176 E0.01689
G1 X115.414 Y107.867 E0.01689
G1 X115.033 Y107.486 E0.01689
G1 X114.724 Y107.045 E0.01689
G1 X114.496 Y106.557 E0.01689
G1 X114.357 Y106.036 E0.01689
G1 X114.313 Y105.534 E0.01581
G1 X114.313 Y99.464 E0.19032
G1 X114.359 Y98.956 E0.01600
G1 X114.515 Y98.423 E0.01740
G1 X114.546 Y98.365 E0.00208
G1 X114.323 Y98.443 E0.00742
G1 X113.785 Y98.484 E0.01691
G1 X113.261 Y98.378 E0.01675
G1 X113.441 Y98.957 E0.01899
G1 X113.487 Y99.465 E0.01599
G1 X113.487 Y105.534 E0.19031
G1 X113.443 Y106.036 E0.01581
G1 X113.304 Y106.557 E0.01689
G1 X113.076 Y107.045 E0.01689
G1 X112.767 Y107.486 E0.01689
G1 X112.386 Y107.867 E0.01689
G1 X111.945 Y108.176 E0.01689
G1 X111.457 Y108.404 E0.01689
G1 X110.936 Y108.543 E0.01689
G1 X110.434 Y108.587 E0.01581
G1 X103.511 Y108.587 E0.21705
G1 X103.944 Y108.684 E0.01390
G1 X104.412 Y108.913 E0.01633
G1 X104.819 Y109.247 E0.01652
G1 X105.148 Y109.698 E0.01749
G1 X105.341 Y110.133 E0.01493
G1 X105.437 Y110.645 E0.01632
G1 X105.412 Y111.165 E0.01632
G1 X105.268 Y111.666 E0.01633
G1 X105.013 Y112.119 E0.01632
G1 X104.660 Y112.502 E0.01633
G1 X104.228 Y112.793 E0.01633
G1 X103.740 Y112.976 E0.01633
G1 X103.224 Y113.042 E0.01633
G1 X102.706 Y112.987 E0.01632
G1 X102.215 Y112.814 E0.01632
G1 X101.777 Y112.533 E0.01633
G1 X101.416 Y112.158 E0.01633
G1 X101.150 Y111.710 E0.01632
G1 X100.996 Y111.213 E0.01632
G1 X100.960 Y110.694 E0.01633
G1 X101.045 Y110.180 E0.01632
G1 X101.246 Y109.700 E0.01632
M73 P1 R75
G1 X101.552 Y109.279 E0.01633
G1 X101.947 Y108.940 E0.01632
G1 X102.416 Y108.698 E0.01652
G1 X102.907 Y108.587 E0.01580
G1 X100.865 Y108.587 E0.06402
G1 X100.363 Y108.543 E0.01581
G1 X99.843 Y108.403 E0.01689
G1 X99.355 Y108.176 E0.01689
G1 X98.914 Y107.867 E0.01689
G1 X98.533 Y107.486 E0.01689
G1 X98.224 Y107.045 E0.01689
G1 X97.996 Y106.557 E0.01689
G1 X97.857 Y106.036 E0.01689
G1 X97.813 Y105.534 E0.01581
G1 X97.813 Y99.465 E0.19028
G1 X97.857 Y98.963 E0.01581
G1 X97.996 Y98.443 E0.01689
G1 X98.224 Y97.955 E0.01689
G1 X98.533 Y97.513 E0.01689
G1 X98.914 Y97.133 E0.01689
G1 X99.355 Y96.824 E0.01689
G1 X99.843 Y96.596 E0.01689
G1 X100.363 Y96.457 E0.01689
G1 X100.843 Y96.415 E0.01508
G1 X110.434 Y96.413 E0.30075
G1 X110.939 Y96.457 E0.01588
G1 X111.470 Y96.604 E0.01727
G1 X111.750 Y96.749 E0.00991
G1 X111.681 Y96.500 E0.00811
G1 X111.687 Y95.958 E0.01701
G1 X111.745 Y95.753 E0.00667
G1 X111.470 Y95.896 E0.00972
G1 X110.939 Y96.043 E0.01727
G1 X110.434 Y96.087 E0.01588
G1 X100.866 Y96.087 E0.30003
G1 X100.363 Y96.043 E0.01581
G1 X99.843 Y95.903 E0.01689
G1 X99.355 Y95.676 E0.01689
G1 X98.914 Y95.367 E0.01689
G1 X98.533 Y94.986 E0.01689
G1 X98.224 Y94.545 E0.01689
G1 X97.996 Y94.057 E0.01689
G1 X97.857 Y93.536 E0.01689
G1 X97.813 Y93.034 E0.01581
G1 X97.813 Y86.965 E0.19028
G1 X97.857 Y86.463 E0.01581
G1 X97.996 Y85.943 E0.01689
G1 X98.224 Y85.455 E0.01689
G1 X98.533 Y85.013 E0.01689
G1 X98.914 Y84.633 E0.01689
G1 X99.355 Y84.324 E0.01689
G1 X99.843 Y84.096 E0.01689
G1 X100.364 Y83.957 E0.01689
G1 X100.843 Y83.915 E0.01508
G1 X110.435 Y83.913 E0.30075
G1 X110.939 Y83.957 E0.01588
G1 X111.470 Y84.104 E0.01727
G1 X111.697 Y84.222 E0.00803
M204 S1250
G1 E-2.24000 F2400.000
;WIPE_START
G1 F7200.000
G1 X111.681 Y84.000 E-0.07031
G1 X111.687 Y83.458 E-0.17182
G1 X111.745 Y83.253 E-0.06737
G1 X111.470 Y83.396 E-0.09819
G1 X110.939 Y83.543 E-0.17440
G1 X110.435 Y83.587 E-0.16036
G1 X109.899 Y83.587 E-0.16955
;WIPE_END
G1 E-0.04800 F2400.000
G1 Z0.400 F9000.000
G1 X113.770 Y94.399
G1 Z0.200
G1 E3.20000 F1500.000
M204 S800
;TYPE:External perimeter
G1 F1200.000
G1 X114.208 Y94.422 E0.01373
G1 X114.627 Y94.562 E0.01385
G1 X114.993 Y94.830 E0.01424
G1 X115.251 Y95.092 E0.01153
G1 X115.523 Y95.433 E0.01366
G1 X115.687 Y95.798 E0.01255
G1 X115.752 Y96.231 E0.01375
G1 X115.687 Y96.701 E0.01485
G1 X115.523 Y97.067 E0.01260
G1 X115.251 Y97.408 E0.01366
G1 X114.993 Y97.670 E0.01153
G1 X114.628 Y97.937 E0.01420
G1 X114.245 Y98.071 E0.01270
G1 X113.809 Y98.104 E0.01373
G1 X113.344 Y98.010 E0.01485
G1 X112.959 Y97.808 E0.01365
G1 X112.664 Y97.528 E0.01275
G1 X112.403 Y97.237 E0.01225
G1 X112.186 Y96.909 E0.01234
G1 X112.058 Y96.451 E0.01490
G1 X112.064 Y96.012 E0.01375
G1 X112.174 Y95.622 E0.01271
G1 X112.421 Y95.238 E0.01433
G1 X112.956 Y94.694 E0.02391
G1 X113.343 Y94.490 E0.01372
G1 X113.712 Y94.411 E0.01181
M204 S1250
G1 X113.942 Y94.037 F9000.000
G1 E-2.24000 F2400.000
;WIPE_START
G1 F7200.000
G1 X114.208 Y94.422 E-0.15712
G1 X114.627 Y94.562 E-0.13988
G1 X114.993 Y94.830 E-0.14385
G1 X115.251 Y95.092 E-0.11646
G1 X115.523 Y95.433 E-0.13797
G1 X115.687 Y95.798 E-0.12679
G1 X115.729 Y96.079 E-0.08993
;WIPE_END
G1 E-0.04800 F2400.000
G1 Z0.400 F9000.000
G1 X116.042 Y97.178
G1 Z0.200
G1 E3.20000 F1500.000
M204 S800
G1 F1200.000
G1 X116.469 Y96.957 E0.01508
G1 X116.928 Y96.830 E0.01495
G1 X117.359 Y96.792 E0.01356
G1 X126.918 Y96.790 E0.29971
G1 X127.371 Y96.830 E0.01426
G1 X127.827 Y96.952 E0.01482
G1 X128.256 Y97.152 E0.01482
G1 X128.643 Y97.423 E0.01482
G1 X128.977 Y97.757 E0.01482
G1 X129.248 Y98.144 E0.01482
G1 X129.448 Y98.573 E0.01482
G1 X129.570 Y99.029 E0.01482
G1 X129.610 Y99.482 E0.01426
G1 X129.610 Y105.518 E0.18925
G1 X129.570 Y105.971 E0.01426
G1 X129.448 Y106.427 E0.01482
G1 X129.248 Y106.856 E0.01482
G1 X128.977 Y107.243 E0.01482
G1 X128.643 Y107.577 E0.01482
G1 X128.256 Y107.848 E0.01482
G1 X127.827 Y108.048 E0.01482
G1 X127.371 Y108.170 E0.01482
G1 X126.918 Y108.210 E0.01426
G1 X117.382 Y108.210 E0.29899
G1 X116.929 Y108.170 E0.01426
G1 X116.472 Y108.048 E0.01482
G1 X116.044 Y107.848 E0.01482
G1 X115.657 Y107.577 E0.01482
G1 X115.323 Y107.243 E0.01482
G1 X115.052 Y106.856 E0.01482
G1 X114.852 Y106.427 E0.01482
G1 X114.729 Y105.971 E0.01482
G1 X114.690 Y105.518 E0.01426
G1 X114.690 Y99.482 E0.18926
G1 X114.732 Y99.027 E0.01432
G1 X114.865 Y98.568 E0.01498
