; generated by PrusaSlicer 2.6.0+MacOS-arm64 on 2023-07-03 at 13:11:52 UTC


;
;

;
;
; 

; external perimeters extrusion width = 0.45mm
; perimeters extrusion width = 0.45mm
; infill extrusion width = 0.45mm
; solid infill extrusion width = 0.45mm
; top infill extrusion width = 0.40mm
; first layer extrusion width = 0.42mm

; external perimeters extrusion width = 0.45mm
; perimeters extrusion width = 0.45mm
; infill extrusion width = 0.45mm
; solid infill extrusion width = 0.45mm
; top infill extrusion width = 0.40mm
; first layer extrusion width = 0.42mm

; external perimeters extrusion width = 0.45mm
; perimeters extrusion width = 0.45mm
; infill extrusion width = 0.45mm
; solid infill extrusion width = 0.45mm
; top infill extrusion width = 0.40mm
; first layer extrusion width = 0.42mm

M73 P0 R157
M201 X2500 Y2500 Z400 E5000 ; sets maximum accelerations, mm/sec^2
M203 X180 Y180 Z12 E80 ; sets maximum feedrates, mm / sec
M204 P1250 R1250 T2500 ; sets acceleration (P, T) and retract acceleration (R), mm/sec^2
M205 X8.00 Y8.00 Z2.00 E10.00 ; sets the jerk limits, mm/sec
M205 S0 T0 ; sets the minimum extruding and travel feed rate, mm/sec
;TYPE:Custom
M862.3 P "MINI" ; printer model check
G90 ; use absolute coordinates
M83 ; extruder relative mode
M104 S155 ; set extruder temp for bed leveling
M140 S80 ; set bed temp
M109 R155 ; wait for bed leveling temp
M190 S80 ; wait for bed temp
M204 T1250 ; set travel acceleration
G28 ; home all without mesh bed level
G29 ; mesh bed leveling 
M204 T2500 ; restore travel acceleration
M104 S218 ; set extruder temp
G92 E0
G1 Y-2 X179 F2400
G1 Z0.3 F720
M109 S218 ; wait for extruder temp

; intro line
G1 Z0.3 E2 F900
G1 Z2 E6 F500
G1 Z0.4 X85 E12 F900
G1 Z0.2 X30 E12 F900
G1 Z0.1 X25 E0 F900
G92 E0

M221 S95 ; set flow
G21 ; set units to millimeters
G90 ; use absolute coordinates
M83 ; use relative distances for extrusion
M900 K0.2 ; Filament gcode LA 1.5
; ; Filament gcode LA 1.0
M107
;LAYER_CHANGE
;Z:0.2
;HEIGHT:0.2
;BEFORE_LAYER_CHANGE
G92 E0.0
;0.2


G1 E-3.2 F2400
G1 Z.2 F9000
;AFTER_LAYER_CHANGE
;0.2
; printing object pixel_pump_bottom_lid.stl id:2 copy 0
G1 Z.4
G1 X40.548 Y46.632
G1 Z.2
G1 E3.2 F1500
M204 P800
;TYPE:Perimeter
;WIDTH:0.419999
G1 F1200
G1 X44.046 Y46.632 E.10968
;WIDTH:0.467072
G1 X44.177 Y46.658 E.00471
;WIDTH:0.514145
G1 X44.307 Y46.685 E.0052
;WIDTH:0.561218
G1 X44.438 Y46.712 E.00576
;WIDTH:0.608291
G1 X44.568 Y46.739 E.00624
G1 X44.418 Y46.797 E.00756
;WIDTH:0.561218
G1 X44.268 Y46.855 E.00693
;WIDTH:0.514145
G1 X44.118 Y46.912 E.00629
;WIDTH:0.467072
G1 X43.968 Y46.97 E.00567
;WIDTH:0.419999
G1 X43.39 Y47.231 E.01988
G1 X42.876 Y47.603 E.01989
G1 X42.393 Y48.157 E.02304
G1 X42.121 Y48.615 E.0167
G1 X41.912 Y49.214 E.01989
G1 X41.827 Y49.843 E.0199
G1 X41.871 Y50.476 E.0199
G1 X42.041 Y51.087 E.01989
G1 X42.331 Y51.652 E.01991
G1 X42.728 Y52.146 E.01987
G1 X43.217 Y52.551 E.01991
G1 X43.777 Y52.848 E.01987
G1 X44.386 Y53.027 E.0199
G1 X45.019 Y53.08 E.01992
G1 X45.648 Y53.004 E.01987
G1 X46.25 Y52.803 E.0199
G1 X46.799 Y52.485 E.01989
G1 X47.273 Y52.063 E.0199
G1 X47.652 Y51.554 E.0199
G1 X47.921 Y50.98 E.01988
G1 X48.069 Y50.363 E.01989
G1 X48.09 Y49.729 E.01989
G1 X47.982 Y49.103 E.01992
G1 X47.751 Y48.512 E.0199
G1 X47.406 Y47.98 E.01988
G1 X46.96 Y47.528 E.01991
G1 X46.433 Y47.175 E.01989
G1 X45.845 Y46.936 E.0199
;WIDTH:0.460308
G1 X45.747 Y46.895 E.00369
;WIDTH:0.500616
G1 X45.649 Y46.854 E.00404
;WIDTH:0.540924
G1 X45.552 Y46.814 E.00434
;WIDTH:0.581232
G1 X45.454 Y46.773 E.00475
;WIDTH:0.62154
G1 X45.356 Y46.732 E.00511
G1 X45.46 Y46.712 E.0051
;WIDTH:0.581232
G1 X45.564 Y46.692 E.00474
;WIDTH:0.540924
G1 X45.668 Y46.672 E.00439
;WIDTH:0.500616
G1 X45.772 Y46.652 E.00403
;WIDTH:0.460308
G1 X45.876 Y46.632 E.00368
;WIDTH:0.419999
G1 X50.174 Y46.632 E.13476
G1 X50.174 Y47.916 E.04026
G1 X50.174 Y121.257 E2.29955
G1 X46.208 Y121.257 E.12435
;WIDTH:0.467531
M73 P0 R156
G1 X46.086 Y121.234 E.00438
;WIDTH:0.515063
G1 X45.964 Y121.21 E.00488
;WIDTH:0.562595
G1 X45.842 Y121.186 E.00537
;WIDTH:0.610127
G1 X45.719 Y121.162 E.00591
;WIDTH:0.657658
G1 X45.597 Y121.139 E.00635
G1 X45.637 Y121.115 E.00238
;WIDTH:0.630767
G1 X45.676 Y121.092 E.00221
;WIDTH:0.603876
G1 X45.82 Y121.02 E.00751
;WIDTH:0.557907
G1 X45.963 Y120.948 E.00686
;WIDTH:0.511938
G1 X46.107 Y120.875 E.0063
;WIDTH:0.465969
G1 X46.25 Y120.803 E.00563
;WIDTH:0.419999
G1 X46.799 Y120.485 E.01989
G1 X47.273 Y120.063 E.0199
G1 X47.652 Y119.554 E.0199
G1 X47.921 Y118.98 E.01988
G1 X48.069 Y118.363 E.01989
G1 X48.09 Y117.729 E.01989
G1 X47.982 Y117.103 E.01992
G1 X47.751 Y116.512 E.0199
G1 X47.406 Y115.98 E.01988
G1 X46.96 Y115.528 E.01991
G1 X46.433 Y115.175 E.01989
G1 X45.845 Y114.936 E.0199
G1 X45.222 Y114.82 E.01987
G1 X44.587 Y114.831 E.01991
G1 X43.968 Y114.97 E.01989
G1 X43.39 Y115.231 E.01988
G1 X42.876 Y115.603 E.01989
G1 X42.482 Y116.031 E.01824
G1 X42.121 Y116.615 E.02153
G1 X41.912 Y117.214 E.01989
G1 X41.827 Y117.843 E.0199
G1 X41.871 Y118.476 E.0199
G1 X42.041 Y119.087 E.01989
G1 X42.331 Y119.652 E.01991
G1 X42.728 Y120.146 E.01987
G1 X43.217 Y120.551 E.01991
G1 X43.777 Y120.848 E.01987
;WIDTH:0.466171
G1 X43.897 Y120.907 E.00471
;WIDTH:0.512342
G1 X44.016 Y120.966 E.00518
;WIDTH:0.558514
G1 X44.136 Y121.025 E.00573
;WIDTH:0.604685
G1 X44.255 Y121.083 E.00618
;WIDTH:0.650856
G1 X44.375 Y121.142 E.00676
G1 X44.305 Y121.162 E.00368
;WIDTH:0.610469
G1 X44.235 Y121.182 E.00344
;WIDTH:0.570081
G1 X44.105 Y121.201 E.00576
;WIDTH:0.532561
G1 X43.975 Y121.22 E.00535
;WIDTH:0.49504
G1 X43.845 Y121.239 E.00494
;WIDTH:0.45752
G1 X43.715 Y121.257 E.00452
;WIDTH:0.419999
G1 X40.548 Y121.257 E.0993
G1 X40.548 Y46.692 E2.33793
M204 P1250
G1 X40.171 Y46.255 F9000
M204 P800
;TYPE:External perimeter
G1 F1200
G1 X50.551 Y46.255 E.32546
G1 X50.551 Y121.635 E2.36348
G1 X40.171 Y121.635 E.32546
G1 X40.171 Y46.315 E2.3616
M204 P1250
G1 X40.526 Y46.439 F9000
G1 E-2.24 F2400
;WIPE_START
G1 F7200
G1 X43.203 Y46.297 E-.96
;WIPE_END
G1 Z.4 F9000
G1 X42.767 Y48.27
G1 Z.2
G1 E3.2 F1500
M204 P800
G1 F1200
G1 X43.149 Y47.863 E.0175
G1 X43.605 Y47.54 E.01752
G1 X44.117 Y47.317 E.01751
G1 X44.663 Y47.2 E.01751
G1 X45.222 Y47.197 E.01753
G1 X45.769 Y47.305 E.01748
G1 X46.284 Y47.522 E.01752
G1 X46.745 Y47.838 E.01752
G1 X47.132 Y48.24 E.0175
G1 X47.431 Y48.712 E.01752
G1 X47.629 Y49.234 E.0175
G1 X47.717 Y49.786 E.01753
G1 X47.693 Y50.344 E.01751
G1 X47.556 Y50.885 E.0175
G1 X47.314 Y51.388 E.0175
G1 X46.975 Y51.832 E.01752
G1 X46.554 Y52.199 E.01751
G1 X46.067 Y52.474 E.01754
G1 X45.536 Y52.644 E.01748
G1 X44.98 Y52.705 E.01754
G1 X44.424 Y52.652 E.01751
G1 X43.89 Y52.489 E.01751
G1 X43.4 Y52.221 E.01751
G1 X42.974 Y51.86 E.01751
G1 X42.629 Y51.421 E.01751
G1 X42.38 Y50.921 E.01751
G1 X42.236 Y50.381 E.01752
G1 X42.204 Y49.824 E.01749
G1 X42.284 Y49.271 E.01752
G1 X42.475 Y48.746 E.01752
G1 X42.736 Y48.321 E.01564
M204 P1250
G1 X42.613 Y47.901 F9000
G1 E-2.24 F2400
;WIPE_START
G1 F7200
G1 X43.149 Y47.863 E-.19529
G1 X43.605 Y47.54 E-.17696
G1 X44.117 Y47.317 E-.17684
G1 X44.663 Y47.2 E-.17683
G1 X45.222 Y47.197 E-.17702
G1 X45.399 Y47.232 E-.05706
;WIPE_END
G1 Z.4 F9000
G1 X44.586 Y46.731
G1 Z.2
G1 E3.2 F1500
M204 P800
;TYPE:Perimeter
;WIDTH:0.617894
G1 F1200
G1 X45.222 Y46.726 E.03041
;WIDTH:0.62154
G1 X45.356 Y46.732 E.00645
M204 P1250
G1 E-2.24 F2400
;WIPE_START
G1 F7200
G1 X45.222 Y46.726 E-.04248
G1 X44.586 Y46.731 E-.20141
;WIPE_END
G1 E-.71611 F2400
G1 Z.4 F9000
G1 X41.933 Y83.153
G1 Z.2
G1 E3.2 F1500
M204 P800
;WIDTH:0.419999
G1 F1200
G1 X42.121 Y82.615 E.01787
G1 X42.482 Y82.031 E.02153
G1 X42.876 Y81.603 E.01824
G1 X43.39 Y81.231 E.01989
G1 X43.968 Y80.97 E.01988
G1 X44.587 Y80.831 E.01989
G1 X45.222 Y80.82 E.01991
G1 X45.845 Y80.936 E.01987
G1 X46.433 Y81.175 E.0199
G1 X46.96 Y81.528 E.01989
G1 X47.406 Y81.98 E.01991
G1 X47.751 Y82.512 E.01988
G1 X47.982 Y83.103 E.0199
G1 X48.09 Y83.729 E.01992
G1 X48.069 Y84.363 E.01989
G1 X47.921 Y84.98 E.01989
G1 X47.652 Y85.554 E.01988
G1 X47.273 Y86.063 E.0199
G1 X46.799 Y86.485 E.0199
G1 X46.25 Y86.803 E.01989
G1 X45.648 Y87.004 E.0199
G1 X45.019 Y87.08 E.01987
G1 X44.274 Y87.004 E.02348
G1 X43.777 Y86.848 E.01633
G1 X43.217 Y86.551 E.01987
G1 X42.728 Y86.146 E.01991
G1 X42.331 Y85.652 E.01987
G1 X42.041 Y85.087 E.01991
G1 X41.871 Y84.476 E.01989
G1 X41.827 Y83.843 E.0199
G1 X41.913 Y83.21 E.02003
M204 P1250
G1 X42.284 Y83.271 F9000
M204 P800
;TYPE:External perimeter
G1 F1200
G1 X42.475 Y82.746 E.01752
G1 X42.799 Y82.235 E.01897
G1 X43.149 Y81.863 E.01601
G1 X43.605 Y81.54 E.01752
G1 X44.117 Y81.317 E.01751
G1 X44.663 Y81.2 E.01751
G1 X45.222 Y81.197 E.01753
G1 X45.769 Y81.305 E.01748
G1 X46.284 Y81.522 E.01752
G1 X46.745 Y81.838 E.01752
G1 X47.132 Y82.24 E.0175
G1 X47.431 Y82.712 E.01752
G1 X47.629 Y83.234 E.0175
G1 X47.717 Y83.786 E.01753
G1 X47.693 Y84.344 E.01751
G1 X47.556 Y84.885 E.0175
G1 X47.314 Y85.388 E.0175
G1 X46.975 Y85.832 E.01752
G1 X46.554 Y86.199 E.01751
G1 X46.067 Y86.474 E.01754
G1 X45.536 Y86.644 E.01748
G1 X44.98 Y86.705 E.01754
G1 X44.424 Y86.652 E.01751
G1 X43.89 Y86.489 E.01751
G1 X43.4 Y86.221 E.01751
G1 X42.974 Y85.86 E.01751
G1 X42.629 Y85.421 E.01751
G1 X42.38 Y84.921 E.01751
G1 X42.236 Y84.381 E.01752
G1 X42.204 Y83.824 E.01749
G1 X42.276 Y83.331 E.01562
M204 P1250
G1 X41.997 Y82.993 F9000
G1 E-2.24 F2400
;WIPE_START
G1 F7200
G1 X42.475 Y82.746 E-.19567
G1 X42.799 Y82.235 E-.1916
G1 X43.149 Y81.863 E-.16174
G1 X43.605 Y81.54 E-.17696
G1 X44.117 Y81.317 E-.17684
G1 X44.294 Y81.279 E-.05719
;WIPE_END
G1 Z.4 F9000
G1 X43.4 Y120.221
G1 Z.2
G1 E3.2 F1500
M204 P800
G1 F1200
G1 X42.974 Y119.86 E.01751
G1 X42.63 Y119.422 E.01746
G1 X42.38 Y118.921 E.01756
G1 X42.236 Y118.381 E.01752
G1 X42.204 Y117.824 E.01749
G1 X42.284 Y117.271 E.01752
G1 X42.475 Y116.746 E.01752
G1 X42.799 Y116.235 E.01897
G1 X43.149 Y115.863 E.01601
G1 X43.605 Y115.54 E.01752
G1 X44.117 Y115.317 E.01751
G1 X44.663 Y115.2 E.01751
G1 X45.222 Y115.197 E.01753
G1 X45.769 Y115.305 E.01748
G1 X46.284 Y115.522 E.01752
G1 X46.745 Y115.838 E.01752
G1 X47.132 Y116.24 E.0175
G1 X47.431 Y116.712 E.01752
G1 X47.629 Y117.234 E.0175
G1 X47.717 Y117.786 E.01753
G1 X47.693 Y118.344 E.01751
G1 X47.556 Y118.885 E.0175
G1 X47.314 Y119.388 E.0175
G1 X46.975 Y119.832 E.01752
G1 X46.554 Y120.199 E.01751
G1 X46.067 Y120.474 E.01754
G1 X45.536 Y120.644 E.01748
G1 X44.98 Y120.705 E.01754
G1 X44.424 Y120.652 E.01751
G1 X43.89 Y120.489 E.01751
G1 X43.453 Y120.25 E.01562
M204 P1250
G1 X43.039 Y120.393 F9000
G1 E-2.24 F2400
;WIPE_START
G1 F7200
G1 X42.974 Y119.86 E-.1956
G1 X42.63 Y119.422 E-.17636
G1 X42.38 Y118.921 E-.17731
G1 X42.236 Y118.381 E-.17698
G1 X42.204 Y117.824 E-.17667
G1 X42.23 Y117.646 E-.05708
;WIPE_END
G1 Z.4 F9000
G1 X45.597 Y121.139
G1 Z.2
G1 E3.2 F1500
M204 P800
;TYPE:Perimeter
;WIDTH:0.657658
G1 F1200
G1 X45.312 Y121.154 E.01459
;WIDTH:0.627859
G1 X45.028 Y121.168 E.01383
;WIDTH:0.624458
G1 X44.701 Y121.155 E.01582
;WIDTH:0.650856
G1 X44.375 Y121.142 E.01649
M204 P1250
G1 E-2.24 F2400
;WIPE_START
G1 F7200
G1 X44.701 Y121.155 E-.10332
G1 X45.028 Y121.168 E-.10363
G1 X45.312 Y121.154 E-.09004
G1 X45.597 Y121.139 E-.09037
;WIPE_END
G1 E-.57264 F2400
G1 Z.4 F9000
G1 X50.061 Y47.508
G1 Z.2
G1 E3.2 F1500
M204 P800
;TYPE:Solid infill
;WIDTH:0.420679
G1 F1200
G1 X49.467 Y46.914 E.02639
G1 X48.933 Y46.914 E.01677
G1 X49.891 Y47.873 E.04258
G1 X49.891 Y48.407 E.01677
G1 X48.399 Y46.914 E.0663
G1 X47.864 Y46.914 E.0168
G1 X49.891 Y48.941 E.09004
G1 X49.891 Y49.476 E.0168
G1 X47.33 Y46.914 E.11379
G1 X46.796 Y46.914 E.01677
G1 X49.891 Y50.01 E.13751
G1 X49.891 Y50.544 E.01677
G1 X48.178 Y48.831 E.07609
G1 X48.29 Y49.167 E.01112
G1 X48.34 Y49.527 E.01142
G1 X49.891 Y51.078 E.0689
G1 X49.891 Y51.613 E.0168
G1 X48.363 Y50.085 E.06788
G1 X48.341 Y50.479 E.0124
G1 X48.317 Y50.572 E.00302
G1 X49.891 Y52.147 E.06994
G1 X49.891 Y52.681 E.01677
G1 X48.208 Y50.998 E.07476
G1 X48.048 Y51.372 E.01278
G1 X49.891 Y53.215 E.08187
G1 X49.891 Y53.75 E.0168
G1 X47.871 Y51.729 E.08975
G1 X47.644 Y52.037 E.01202
G1 X49.891 Y54.284 E.09982
G1 X49.891 Y54.818 E.01677
G1 X47.406 Y52.333 E.11039
G1 X47.115 Y52.576 E.01191
G1 X49.891 Y55.352 E.12331
G1 X49.891 Y55.886 E.01677
G1 X46.817 Y52.812 E.13655
G1 X46.466 Y52.996 E.01245
G1 X49.891 Y56.421 E.15214
G1 X49.891 Y56.955 E.01677
G1 X46.094 Y53.157 E.16869
G1 X45.679 Y53.277 E.01357
G1 X49.891 Y57.489 E.1871
G1 X49.891 Y58.023 E.01677
G1 X45.212 Y53.344 E.20785
G1 X45.018 Y53.364 E.00613
G1 X44.668 Y53.335 E.01103
G1 X49.891 Y58.558 E.23201
G1 X49.891 Y59.092 E.01677
G1 X43.761 Y52.961 E.27233
M204 P1250
G1 E-2.24 F2400
;WIPE_START
G1 F7200
G1 X45.904 Y55.105 E-.96
;WIPE_END
G1 Z.4 F9000
G1 X43.299 Y47.157
G1 Z.2
G1 E3.2 F1500
M204 P800
G1 F1200
G1 X43.056 Y46.914 E.01079
G1 X42.522 Y46.914 E.01677
G1 X42.869 Y47.261 E.01541
G1 X42.676 Y47.403 E.00753
G1 X42.581 Y47.507 E.00442
G1 X41.988 Y46.914 E.02634
G1 X41.454 Y46.914 E.01677
G1 X42.326 Y47.787 E.03876
G1 X42.211 Y47.915 E.0054
G1 X42.102 Y48.098 E.00669
G1 X40.919 Y46.914 E.05257
G1 X40.831 Y46.914 E.00276
G1 X40.831 Y47.36 E.01401
G1 X41.904 Y48.433 E.04766
G1 X41.858 Y48.51 E.00282
G1 X41.753 Y48.816 E.01016
G1 X40.831 Y47.895 E.04093
G1 X40.831 Y48.429 E.01677
G1 X41.624 Y49.222 E.03523
G1 X41.553 Y49.685 E.01471
G1 X40.831 Y48.963 E.03207
G1 X40.831 Y49.497 E.01677
G1 X41.567 Y50.233 E.03269
G1 X41.596 Y50.542 E.00975
G1 X41.685 Y50.885 E.01113
G1 X40.831 Y50.032 E.03791
G1 X40.831 Y50.566 E.01677
G1 X49.891 Y59.626 E.40246
G1 X49.891 Y60.16 E.01677
G1 X40.831 Y51.1 E.40246
G1 X40.831 Y51.634 E.01677
G1 X49.891 Y60.695 E.40248
G1 X49.891 Y61.229 E.01677
G1 X40.831 Y52.169 E.40246
G1 X40.831 Y52.703 E.01677
G1 X49.891 Y61.763 E.40246
G1 X49.891 Y62.297 E.01677
G1 X40.831 Y53.237 E.40246
G1 X40.831 Y53.771 E.01677
G1 X49.891 Y62.831 E.40246
G1 X49.891 Y63.366 E.0168
G1 X40.831 Y54.305 E.40248
G1 X40.831 Y54.84 E.0168
G1 X49.891 Y63.9 E.40246
G1 X49.891 Y64.434 E.01677
G1 X40.831 Y55.374 E.40246
G1 X40.831 Y55.908 E.01677
G1 X49.891 Y64.968 E.40246
G1 X49.891 Y65.503 E.0168
G1 X40.831 Y56.442 E.40248
G1 X40.831 Y56.977 E.0168
G1 X49.891 Y66.037 E.40246
G1 X49.891 Y66.571 E.01677
G1 X40.831 Y57.511 E.40246
G1 X40.831 Y58.045 E.01677
G1 X49.891 Y67.105 E.40246
G1 X49.891 Y67.64 E.0168
G1 X40.831 Y58.579 E.40248
G1 X40.831 Y59.114 E.0168
G1 X49.891 Y68.174 E.40246
G1 X49.891 Y68.708 E.01677
G1 X40.831 Y59.648 E.40246
G1 X40.831 Y60.182 E.01677
G1 X49.891 Y69.242 E.40246
G1 X49.891 Y69.777 E.0168
G1 X40.831 Y60.716 E.40248
G1 X40.831 Y61.251 E.0168
G1 X49.891 Y70.311 E.40246
G1 X49.891 Y70.845 E.01677
G1 X40.831 Y61.785 E.40246
G1 X40.831 Y62.319 E.01677
G1 X49.891 Y71.379 E.40246
G1 X49.891 Y71.913 E.01677
G1 X40.831 Y62.853 E.40246
G1 X40.831 Y63.387 E.01677
G1 X49.891 Y72.448 E.40248
G1 X49.891 Y72.982 E.01677
G1 X40.831 Y63.922 E.40246
G1 X40.831 Y64.456 E.01677
G1 X49.891 Y73.516 E.40246
G1 X49.891 Y74.05 E.01677
G1 X40.831 Y64.99 E.40246
G1 X40.831 Y65.524 E.01677
G1 X49.891 Y74.585 E.40248
G1 X49.891 Y75.119 E.01677
G1 X40.831 Y66.059 E.40246
G1 X40.831 Y66.593 E.01677
G1 X49.891 Y75.653 E.40246
G1 X49.891 Y76.187 E.01677
G1 X40.831 Y67.127 E.40246
G1 X40.831 Y67.661 E.01677
G1 X49.891 Y76.722 E.40248
G1 X49.891 Y77.256 E.01677
G1 X40.831 Y68.196 E.40246
G1 X40.831 Y68.73 E.01677
G1 X49.891 Y77.79 E.40246
G1 X49.891 Y78.324 E.01677
G1 X40.831 Y69.264 E.40246
G1 X40.831 Y69.798 E.01677
G1 X49.891 Y78.858 E.40246
G1 X49.891 Y79.393 E.0168
G1 X40.831 Y70.332 E.40248
G1 X40.831 Y70.867 E.0168
G1 X49.891 Y79.927 E.40246
G1 X49.891 Y80.461 E.01677
G1 X40.831 Y71.401 E.40246
G1 X40.831 Y71.935 E.01677
G1 X49.891 Y80.995 E.40246
G1 X49.891 Y81.53 E.0168
G1 X40.831 Y72.469 E.40248
G1 X40.831 Y73.004 E.0168
G1 X49.891 Y82.064 E.40246
G1 X49.891 Y82.598 E.01677
G1 X40.831 Y73.538 E.40246
G1 X40.831 Y74.072 E.01677
G1 X49.891 Y83.132 E.40246
G1 X49.891 Y83.667 E.0168
G1 X40.831 Y74.606 E.40248
G1 X40.831 Y75.141 E.0168
M73 P0 R155
G1 X49.891 Y84.201 E.40246
G1 X49.891 Y84.735 E.01677
G1 X48.273 Y83.117 E.07187
G1 X48.371 Y83.749 E.02009
G1 X49.891 Y85.269 E.06752
G1 X49.891 Y85.803 E.01677
