; generated by PrusaSlicer 2.4.1-beta1+arm64 on 2022-02-18 at 14:34:53 UTC


;
;

;
;
; 

; external perimeters extrusion width = 0.45mm
; perimeters extrusion width = 0.45mm
; infill extrusion width = 0.45mm
; solid infill extrusion width = 0.45mm
; top infill extrusion width = 0.40mm
; first layer extrusion width = 0.42mm

; external perimeters extrusion width = 0.45mm
; perimeters extrusion width = 0.45mm
; infill extrusion width = 0.45mm
; solid infill extrusion width = 0.45mm
; top infill extrusion width = 0.40mm
; first layer extrusion width = 0.42mm

; external perimeters extrusion width = 0.45mm
; perimeters extrusion width = 0.45mm
; infill extrusion width = 0.45mm
; solid infill extrusion width = 0.45mm
; top infill extrusion width = 0.40mm
; first layer extrusion width = 0.42mm

M73 P0 R170
M107
;TYPE:Custom
G90 ; use absolute coordinates
M83 ; extruder relative mode
M104 S170 ; set extruder temp for bed leveling
M140 S80 ; set bed temp
M109 R170 ; wait for bed leveling temp
M190 S80 ; wait for bed temp
G28 ; home all without mesh bed level
G29 ; mesh bed leveling 
M104 S222 ; set extruder temp
G92 E0.0
G1 Y-2.0 X179 F2400
G1 Z3 F720
M109 S222 ; wait for extruder temp

; intro line
G1 X170 F1000
G1 Z0.2 F720
G1 X110.0 E8.0 F900
G1 X40.0 E10.0 F700
G92 E0.0

M221 S95 ; set flow
G21 ; set units to millimeters
G90 ; use absolute coordinates
M83 ; use relative distances for extrusion
M900 K0.2 ; Filament gcode LA 1.5
; ; Filament gcode LA 1.0
M107
;LAYER_CHANGE
;Z:0.2
;HEIGHT:0.2
;BEFORE_LAYER_CHANGE
G92 E0.0
;0.2


M73 P0 R169
G1 E-3.2 F2400
G1 Z.2 F9000
;AFTER_LAYER_CHANGE
;0.2
G1 Z.4
G1 X42.981 Y37.94
G1 Z.2
G1 E3.2 F1500
M204 S800
;TYPE:Skirt/Brim
;WIDTH:0.42
G1 F1200
G1 X56.903 Y22.168 E.65962
G1 X58.478 Y21.373 E.05531
G1 X135.21 Y21.336 E2.40588
G1 X135.743 Y21.373 E.01673
G1 X137.011 Y21.877 E.04278
G1 X137.793 Y22.996 E.04278
G1 X137.913 Y23.727 E.02324
G1 X138.234 Y76.649 E1.65937
G1 X138.234 Y140.509 E2.00227
G1 X137.843 Y141.816 E.04278
G1 X136.592 Y142.769 E.04932
G1 X135.532 Y142.991 E.03394
G1 X59.332 Y142.991 E2.3892
G1 X58.272 Y142.769 E.03394
G1 X57.39 Y142.251 E.03209
G1 X37.844 Y124.112 E.83609
G1 X37.095 Y123.141 E.03845
G1 X36.659 Y121.769 E.04515
G1 X36.659 Y46.121 E2.37189
G1 X37.095 Y44.748 E.04515
G1 X37.679 Y43.946 E.0311
G1 X42.941 Y37.985 E.24932
M204 S1250
; printing object pixel_pump_bottom_lid.stl id:2 copy 0
G1 E-2.24 F2400
;WIPE_START
G1 F7200
G1 X44.847 Y35.826 E-.912
;WIPE_END
G1 E-.048 F2400
G1 Z.4 F9000
G1 X44.606 Y80.827
G1 Z.2
G1 E3.2 F1500
M204 S800
;TYPE:Perimeter
G1 F1200
G1 X45.279 Y80.82 E.02111
G1 X45.902 Y80.947 E.01993
G1 X46.486 Y81.198 E.01993
G1 X47.007 Y81.561 E.01993
G1 X47.445 Y82.022 E.01993
G1 X47.781 Y82.561 E.01993
G1 X48.002 Y83.157 E.01993
G1 X48.098 Y83.785 E.01993
G1 X48.066 Y84.42 E.01993
G1 X47.907 Y85.035 E.01993
G1 X47.627 Y85.606 E.01993
G1 X47.238 Y86.109 E.01993
G1 X46.756 Y86.523 E.01993
G1 X46.2 Y86.831 E.01993
G1 X45.594 Y87.021 E.01993
G1 X44.961 Y87.086 E.01993
G1 X44.329 Y87.021 E.01993
G1 X43.723 Y86.831 E.01993
G1 X43.167 Y86.523 E.01993
G1 X42.685 Y86.109 E.01993
G1 X42.296 Y85.606 E.01993
G1 X42.016 Y85.035 E.01993
G1 X41.856 Y84.42 E.01993
G1 X41.824 Y83.785 E.01993
G1 X41.92 Y83.157 E.01993
G1 X42.141 Y82.561 E.01993
G1 X42.477 Y82.022 E.01993
G1 X42.915 Y81.561 E.01993
G1 X43.437 Y81.198 E.01993
G1 X44.021 Y80.947 E.01993
G1 X44.547 Y80.839 E.01684
M204 S1250
G1 X44.682 Y81.197 F9000
M204 S800
;TYPE:External perimeter
G1 F1200
G1 X45.241 Y81.197 E.01752
G1 X45.788 Y81.309 E.01752
G1 X46.302 Y81.529 E.01752
G1 X46.76 Y81.849 E.01752
G1 X47.146 Y82.254 E.01752
G1 X47.441 Y82.728 E.01752
G1 X47.635 Y83.252 E.01752
G1 X47.72 Y83.805 E.01752
G1 X47.692 Y84.363 E.01752
G1 X47.551 Y84.904 E.01752
G1 X47.305 Y85.406 E.01752
G1 X46.963 Y85.848 E.01752
G1 X46.539 Y86.212 E.01752
G1 X46.051 Y86.483 E.01752
G1 X45.517 Y86.65 E.01752
G1 X44.961 Y86.707 E.01752
G1 X44.405 Y86.65 E.01752
G1 X43.872 Y86.483 E.01752
G1 X43.383 Y86.212 E.01752
G1 X42.959 Y85.848 E.01752
G1 X42.617 Y85.406 E.01752
G1 X42.371 Y84.904 E.01752
G1 X42.231 Y84.363 E.01752
G1 X42.203 Y83.805 E.01752
G1 X42.287 Y83.252 E.01752
G1 X42.481 Y82.728 E.01752
G1 X42.777 Y82.254 E.01752
G1 X43.162 Y81.849 E.01752
G1 X43.621 Y81.53 E.01752
G1 X44.134 Y81.309 E.01752
G1 X44.623 Y81.209 E.01564
M204 S1250
G1 X44.846 Y80.832 F9000
G1 E-2.24 F2400
;WIPE_START
G1 F7200
G1 X45.241 Y81.197 E-.19563
G1 X45.788 Y81.309 E-.17698
G1 X46.302 Y81.529 E-.17698
G1 X46.76 Y81.849 E-.17698
G1 X47.146 Y82.254 E-.17698
G1 X47.16 Y82.277 E-.00846
;WIPE_END
G1 E-.048 F2400
G1 Z.4 F9000
G1 X44.923 Y53.082
G1 Z.2
G1 E3.2 F1500
M204 S800
;TYPE:Perimeter
G1 F1200
G1 X44.329 Y53.021 E.01873
G1 X43.723 Y52.831 E.01993
G1 X43.167 Y52.523 E.01993
G1 X42.685 Y52.109 E.01993
G1 X42.296 Y51.606 E.01993
G1 X42.016 Y51.035 E.01993
G1 X41.856 Y50.42 E.01993
G1 X41.824 Y49.785 E.01993
G1 X41.92 Y49.157 E.01993
G1 X42.141 Y48.561 E.01993
G1 X42.477 Y48.022 E.01993
G1 X42.915 Y47.561 E.01993
G1 X43.437 Y47.198 E.01993
G1 X44.021 Y46.947 E.01993
G1 X44.644 Y46.82 E.01993
G1 X45.279 Y46.82 E.01993
G1 X45.902 Y46.947 E.01993
G1 X46.486 Y47.198 E.01993
G1 X47.007 Y47.561 E.01993
G1 X47.445 Y48.022 E.01993
G1 X47.781 Y48.561 E.01993
G1 X48.002 Y49.157 E.01993
G1 X48.098 Y49.785 E.01993
G1 X48.066 Y50.42 E.01993
G1 X47.907 Y51.035 E.01993
G1 X47.627 Y51.606 E.01993
G1 X47.238 Y52.109 E.01993
G1 X46.756 Y52.523 E.01993
G1 X46.2 Y52.831 E.01993
G1 X45.594 Y53.021 E.01993
G1 X44.983 Y53.083 E.01925
M204 S1250
G1 X44.961 Y52.707 F9000
M204 S800
;TYPE:External perimeter
G1 F1200
G1 X44.405 Y52.65 E.01752
G1 X43.872 Y52.483 E.01752
G1 X43.383 Y52.212 E.01752
G1 X42.959 Y51.848 E.01752
G1 X42.617 Y51.406 E.01752
G1 X42.371 Y50.904 E.01752
G1 X42.231 Y50.363 E.01752
G1 X42.203 Y49.805 E.01752
G1 X42.287 Y49.252 E.01752
G1 X42.481 Y48.728 E.01752
G1 X42.777 Y48.254 E.01752
G1 X43.162 Y47.849 E.01752
G1 X43.621 Y47.529 E.01752
G1 X44.134 Y47.309 E.01752
G1 X44.682 Y47.197 E.01752
G1 X45.241 Y47.197 E.01752
G1 X45.788 Y47.309 E.01752
G1 X46.302 Y47.529 E.01752
G1 X46.76 Y47.849 E.01752
G1 X47.146 Y48.254 E.01752
G1 X47.441 Y48.728 E.01752
G1 X47.635 Y49.252 E.01752
G1 X47.72 Y49.805 E.01752
G1 X47.692 Y50.363 E.01752
G1 X47.551 Y50.904 E.01752
G1 X47.305 Y51.406 E.01752
G1 X46.963 Y51.848 E.01752
G1 X46.539 Y52.212 E.01752
G1 X46.051 Y52.483 E.01752
G1 X45.517 Y52.65 E.01752
G1 X45.021 Y52.701 E.01564
M204 S1250
G1 X44.761 Y53.053 F9000
G1 E-2.24 F2400
;WIPE_START
G1 F7200
G1 X44.405 Y52.65 E-.19563
G1 X43.872 Y52.483 E-.17698
G1 X43.383 Y52.212 E-.17698
G1 X42.959 Y51.848 E-.17698
G1 X42.617 Y51.406 E-.17698
G1 X42.605 Y51.382 E-.00846
;WIPE_END
G1 E-.048 F2400
G1 Z.4 F9000
G1 X44.682 Y114.82
G1 Z.2
G1 E3.2 F1500
M204 S800
;TYPE:Perimeter
G1 F1200
G1 X45.279 Y114.82 E.01873
G1 X45.902 Y114.947 E.01993
G1 X46.486 Y115.198 E.01993
G1 X47.007 Y115.561 E.01993
G1 X47.445 Y116.022 E.01993
G1 X47.781 Y116.561 E.01993
G1 X48.002 Y117.157 E.01993
G1 X48.098 Y117.785 E.01993
G1 X48.066 Y118.42 E.01993
G1 X47.907 Y119.035 E.01993
G1 X47.627 Y119.606 E.01993
G1 X47.238 Y120.109 E.01993
G1 X46.756 Y120.523 E.01993
G1 X46.2 Y120.831 E.01993
G1 X45.594 Y121.021 E.01993
G1 X44.961 Y121.086 E.01993
G1 X44.329 Y121.021 E.01993
G1 X43.723 Y120.831 E.01993
G1 X43.167 Y120.523 E.01993
G1 X42.685 Y120.109 E.01993
G1 X42.296 Y119.606 E.01993
G1 X42.016 Y119.035 E.01993
G1 X41.856 Y118.42 E.01993
G1 X41.824 Y117.785 E.01993
G1 X41.92 Y117.157 E.01993
G1 X42.141 Y116.561 E.01993
G1 X42.477 Y116.022 E.01993
G1 X42.915 Y115.561 E.01993
G1 X43.437 Y115.198 E.01993
G1 X44.021 Y114.947 E.01993
G1 X44.622 Y114.824 E.01925
M204 S1250
G1 X44.682 Y115.197 F9000
M204 S800
;TYPE:External perimeter
G1 F1200
G1 X45.241 Y115.197 E.01752
G1 X45.788 Y115.309 E.01752
G1 X46.302 Y115.529 E.01752
G1 X46.76 Y115.849 E.01752
G1 X47.146 Y116.254 E.01752
G1 X47.441 Y116.728 E.01752
G1 X47.635 Y117.252 E.01752
G1 X47.72 Y117.805 E.01752
G1 X47.692 Y118.363 E.01752
G1 X47.551 Y118.904 E.01752
G1 X47.305 Y119.406 E.01752
G1 X46.963 Y119.848 E.01752
G1 X46.539 Y120.212 E.01752
G1 X46.051 Y120.483 E.01752
G1 X45.517 Y120.65 E.01752
G1 X44.961 Y120.707 E.01752
G1 X44.405 Y120.65 E.01752
G1 X43.872 Y120.483 E.01752
G1 X43.383 Y120.212 E.01752
G1 X42.959 Y119.848 E.01752
G1 X42.617 Y119.406 E.01752
G1 X42.371 Y118.904 E.01752
G1 X42.231 Y118.363 E.01752
G1 X42.203 Y117.805 E.01752
G1 X42.287 Y117.252 E.01752
G1 X42.481 Y116.728 E.01752
G1 X42.777 Y116.254 E.01752
G1 X43.162 Y115.849 E.01752
G1 X43.621 Y115.529 E.01752
G1 X44.134 Y115.309 E.01752
G1 X44.623 Y115.209 E.01564
M204 S1250
G1 X44.846 Y114.832 F9000
G1 E-2.24 F2400
;WIPE_START
G1 F7200
G1 X45.241 Y115.197 E-.19563
G1 X45.788 Y115.309 E-.17698
G1 X46.302 Y115.529 E-.17698
G1 X46.76 Y115.849 E-.17698
G1 X47.146 Y116.254 E-.17698
G1 X47.16 Y116.277 E-.00846
;WIPE_END
G1 E-.048 F2400
G1 Z.4 F9000
G1 X40.148 Y121.253
G1 Z.2
G1 E3.2 F1500
M204 S800
;TYPE:Perimeter
G1 F1200
G1 X40.152 Y46.632 E2.33969
G1 X50.174 Y46.632 E.31424
G1 X50.174 Y121.257 E2.33983
G1 X40.208 Y121.253 E.31247
M204 S1250
G1 X39.771 Y121.63 F9000
M204 S800
;TYPE:External perimeter
G1 F1200
G1 X39.775 Y46.255 E2.36333
G1 X50.551 Y46.255 E.33789
G1 X50.551 Y121.634 E2.36348
G1 X39.831 Y121.63 E.33612
M204 S1250
G1 X39.79 Y121.23 F9000
G1 E-2.24 F2400
;WIPE_START
G1 F7200
G1 X39.829 Y118.75 E-.912
;WIPE_END
G1 E-.048 F2400
G1 Z.4 F9000
G1 X43.205 Y120.945
G1 Z.2
G1 E3.2 F1500
M204 S800
;TYPE:Gap fill
;WIDTH:0.107458
G1 F1200
G1 X43.639 Y121.035 E.00237
M204 S1250
M204 S800
;WIDTH:0.104825
G1 X43.701 Y121.044 E.00033
M204 S1250
G1 E-2.24 F2400
;WIPE_START
G1 F7200
G1 X43.639 Y121.035 E-.02003
;WIPE_END
G1 E-.93997 F2400
G1 Z.4 F9000
G1 X46.218 Y121.046
G1 Z.2
G1 E3.2 F1500
M204 S800
;WIDTH:0.106032
G1 F1200
G1 X46.284 Y121.035 E.00035
M204 S1250
M204 S800
;WIDTH:0.10872
G1 X46.714 Y120.947 E.0024
M204 S1250
G1 E-2.24 F2400
;WIPE_START
G1 F7200
G1 X46.284 Y121.035 E-.13904
;WIPE_END
G1 E-.82096 F2400
G1 Z.4 F9000
G1 X50.061 Y47.507
G1 Z.2
G1 E3.2 F1500
M204 S800
;TYPE:Solid infill
;WIDTH:0.420058
G1 F1200
G1 X49.468 Y46.914 E.02629
G1 X48.935 Y46.914 E.01673
G1 X49.891 Y47.871 E.04241
G1 X49.891 Y48.404 E.01673
G1 X48.402 Y46.914 E.06607
G1 X47.868 Y46.914 E.01673
G1 X49.891 Y48.938 E.08972
G1 X49.891 Y49.471 E.01673
G1 X47.335 Y46.914 E.11337
G1 X46.802 Y46.914 E.01673
G1 X49.891 Y50.004 E.13703
G1 X49.891 Y50.538 E.01673
G1 X48.182 Y48.828 E.07582
G1 X48.277 Y49.086 E.00863
G1 X48.344 Y49.524 E.01389
G1 X49.891 Y51.071 E.06861
G1 X49.891 Y51.604 E.01673
G1 X48.367 Y50.08 E.06762
G1 X48.347 Y50.463 E.01205
G1 X48.32 Y50.567 E.00335
G1 X49.891 Y52.138 E.06967
G1 X49.891 Y52.671 E.01673
G1 X48.211 Y50.99 E.07454
G1 X48.173 Y51.134 E.00466
G1 X48.058 Y51.37 E.00825
G1 X49.891 Y53.204 E.08133
G1 X49.891 Y53.738 E.01673
G1 X47.882 Y51.728 E.08911
G1 X47.654 Y52.033 E.01195
G1 X49.891 Y54.271 E.09923
G1 X49.891 Y54.804 E.01673
G1 X47.416 Y52.329 E.10979
G1 X47.129 Y52.575 E.01186
G1 X49.891 Y55.338 E.12252
G1 X49.891 Y55.871 E.01673
G1 X46.827 Y52.807 E.13591
G1 X46.484 Y52.997 E.0123
G1 X49.891 Y56.404 E.15112
G1 X49.891 Y56.938 E.01673
M73 P0 R168
G1 X46.11 Y53.156 E.16772
G1 X45.704 Y53.283 E.01334
G1 X49.891 Y57.471 E.18573
G1 X49.891 Y58.005 E.01673
G1 X45.23 Y53.343 E.20675
G1 X44.961 Y53.37 E.00846
G1 X44.697 Y53.343 E.00834
G1 X49.891 Y58.538 E.23038
G1 X49.891 Y59.071 E.01673
G1 X43.791 Y52.971 E.27052
M204 S1250
G1 E-2.24 F2400
;WIPE_START
G1 F7200
G1 X45.828 Y55.008 E-.912
;WIPE_END
G1 E-.048 F2400
G1 Z.4 F9000
G1 X43.305 Y47.152
G1 Z.2
G1 E3.2 F1500
M204 S800
G1 F1200
G1 X43.068 Y46.914 E.01053
G1 X42.535 Y46.914 E.01673
G1 X42.869 Y47.249 E.01483
G1 X42.73 Y47.345 E.00531
G1 X42.585 Y47.498 E.0066
G1 X42.001 Y46.914 E.02588
G1 X41.468 Y46.914 E.01673
G1 X42.325 Y47.771 E.03801
G1 X42.253 Y47.848 E.0033
G1 X42.105 Y48.085 E.00875
G1 X40.935 Y46.914 E.0519
G1 X40.435 Y46.914 E.01568
G1 X40.435 Y46.948 E.00104
G1 X41.9 Y48.413 E.06499
G1 X41.752 Y48.798 E.01294
G1 X40.435 Y47.481 E.05842
G1 X40.435 Y48.014 E.01672
G1 X41.627 Y49.207 E.05287
G1 X41.556 Y49.669 E.01467
G1 X40.435 Y48.548 E.04973
G1 X40.435 Y49.081 E.01672
G1 X41.563 Y50.209 E.05002
G1 X41.575 Y50.463 E.00798
G1 X41.677 Y50.857 E.01276
G1 X40.435 Y49.614 E.05512
G1 X40.435 Y50.148 E.01672
G1 X49.891 Y59.605 E.4194
G1 X49.891 Y60.138 E.01673
G1 X40.434 Y50.681 E.4194
G1 X40.434 Y51.214 E.01672
G1 X49.891 Y60.671 E.4194
G1 X49.891 Y61.205 E.01673
G1 X40.434 Y51.748 E.4194
G1 X40.434 Y52.281 E.01672
G1 X49.891 Y61.738 E.4194
G1 X49.891 Y62.271 E.01673
G1 X40.434 Y52.814 E.41941
G1 X40.434 Y53.348 E.01672
G1 X49.891 Y62.805 E.41941
G1 X49.891 Y63.338 E.01673
G1 X40.434 Y53.881 E.41941
G1 X40.434 Y54.414 E.01672
G1 X49.891 Y63.871 E.41941
G1 X49.891 Y64.405 E.01673
G1 X40.434 Y54.948 E.41941
G1 X40.434 Y55.481 E.01672
G1 X49.891 Y64.938 E.41941
G1 X49.891 Y65.471 E.01673
G1 X40.434 Y56.014 E.41941
G1 X40.434 Y56.548 E.01672
G1 X49.891 Y66.005 E.41941
G1 X49.891 Y66.538 E.01673
G1 X40.434 Y57.081 E.41941
G1 X40.434 Y57.614 E.01672
G1 X49.891 Y67.072 E.41942
G1 X49.891 Y67.605 E.01673
G1 X40.434 Y58.148 E.41942
G1 X40.434 Y58.681 E.01672
G1 X49.891 Y68.138 E.41942
G1 X49.891 Y68.672 E.01673
G1 X40.434 Y59.214 E.41942
G1 X40.434 Y59.748 E.01672
G1 X49.891 Y69.205 E.41942
G1 X49.891 Y69.738 E.01673
G1 X40.434 Y60.281 E.41942
G1 X40.434 Y60.814 E.01672
G1 X49.891 Y70.272 E.41942
G1 X49.891 Y70.805 E.01673
G1 X40.434 Y61.348 E.41942
G1 X40.434 Y61.881 E.01672
G1 X49.891 Y71.338 E.41942
G1 X49.891 Y71.872 E.01673
G1 X40.434 Y62.414 E.41943
G1 X40.434 Y62.948 E.01672
G1 X49.891 Y72.405 E.41943
G1 X49.891 Y72.938 E.01673
G1 X40.434 Y63.481 E.41943
G1 X40.434 Y64.014 E.01672
G1 X49.891 Y73.472 E.41943
G1 X49.891 Y74.005 E.01673
G1 X40.434 Y64.548 E.41943
G1 X40.434 Y65.081 E.01672
G1 X49.891 Y74.538 E.41943
G1 X49.891 Y75.072 E.01673
G1 X40.434 Y65.614 E.41943
G1 X40.434 Y66.148 E.01672
G1 X49.891 Y75.605 E.41943
G1 X49.891 Y76.139 E.01673
G1 X40.434 Y66.681 E.41943
G1 X40.434 Y67.214 E.01672
G1 X49.891 Y76.672 E.41944
G1 X49.891 Y77.205 E.01673
G1 X40.434 Y67.748 E.41944
G1 X40.434 Y68.281 E.01672
G1 X49.891 Y77.739 E.41944
G1 X49.891 Y78.272 E.01673
G1 X40.434 Y68.814 E.41944
G1 X40.434 Y69.348 E.01672
G1 X49.891 Y78.805 E.41944
G1 X49.891 Y79.339 E.01673
G1 X40.434 Y69.881 E.41944
G1 X40.434 Y70.414 E.01672
G1 X49.891 Y79.872 E.41944
G1 X49.891 Y80.405 E.01673
G1 X40.434 Y70.947 E.41944
G1 X40.434 Y71.481 E.01672
G1 X49.891 Y80.939 E.41944
G1 X49.891 Y81.472 E.01673
G1 X40.433 Y72.014 E.41945
G1 X40.433 Y72.547 E.01672
G1 X49.891 Y82.005 E.41945
G1 X49.891 Y82.539 E.01673
M73 P1 R168
G1 X40.433 Y73.081 E.41945
G1 X40.433 Y73.614 E.01672
G1 X49.891 Y83.072 E.41945
G1 X49.891 Y83.605 E.01673
G1 X40.433 Y74.147 E.41945
G1 X40.433 Y74.681 E.01672
G1 X49.891 Y84.139 E.41945
G1 X49.891 Y84.672 E.01673
G1 X48.261 Y83.042 E.07231
G1 X48.369 Y83.683 E.02039
G1 X49.891 Y85.206 E.06753
G1 X49.891 Y85.739 E.01673
G1 X48.36 Y84.208 E.06791
G1 X48.347 Y84.463 E.00803
G1 X48.293 Y84.674 E.00681
G1 X49.891 Y86.272 E.0709
G1 X49.891 Y86.806 E.01673
G1 X48.183 Y85.097 E.07576
G1 X48.013 Y85.461 E.01258
G1 X49.891 Y87.339 E.08329
G1 X49.891 Y87.872 E.01673
G1 X47.828 Y85.809 E.09152
G1 X47.595 Y86.109 E.01192
G1 X49.891 Y88.406 E.10184
G1 X49.891 Y88.939 E.01673
G1 X47.343 Y86.391 E.113
G1 X47.056 Y86.637 E.01186
G1 X49.891 Y89.472 E.12573
G1 X49.891 Y90.006 E.01673
G1 X46.74 Y86.855 E.13975
G1 X46.397 Y87.045 E.0123
G1 X49.891 Y90.539 E.15496
G1 X49.891 Y91.072 E.01673
G1 X46.007 Y87.188 E.17227
G1 X45.591 Y87.306 E.01354
G1 X49.891 Y91.606 E.1907
G1 X49.891 Y92.139 E.01673
G1 X45.107 Y87.355 E.21217
G1 X44.961 Y87.37 E.0046
G1 X44.547 Y87.328 E.01307
G1 X50.061 Y92.842 E.24456
M204 S1250
G1 E-2.24 F2400
;WIPE_START
G1 F7200
G1 X48.025 Y90.806 E-.912
;WIPE_END
G1 E-.048 F2400
G1 Z.4 F9000
G1 X46.15 Y80.931
G1 Z.2
G1 E3.2 F1500
M204 S800
G1 F1200
G1 X40.433 Y75.214 E.25354
G1 X40.433 Y75.747 E.01672
G1 X45.223 Y80.537 E.2124
G1 X44.689 Y80.537 E.01673
G1 X40.433 Y76.281 E.18874
