; generated by PrusaSlicer 2.5.0-alpha2+arm64 on 2022-06-30 at 13:23:00 UTC


;
;

;
;
; 

; external perimeters extrusion width = 0.45mm
; perimeters extrusion width = 0.45mm
; infill extrusion width = 0.45mm
; solid infill extrusion width = 0.45mm
; top infill extrusion width = 0.40mm
; first layer extrusion width = 0.42mm

; external perimeters extrusion width = 0.45mm
; perimeters extrusion width = 0.45mm
; infill extrusion width = 0.45mm
; solid infill extrusion width = 0.45mm
; top infill extrusion width = 0.40mm
; first layer extrusion width = 0.42mm

; external perimeters extrusion width = 0.45mm
; perimeters extrusion width = 0.45mm
; infill extrusion width = 0.45mm
; solid infill extrusion width = 0.45mm
; top infill extrusion width = 0.40mm
; first layer extrusion width = 0.42mm

M73 P0 R165
M201 X2500 Y2500 Z400 E5000 ; sets maximum accelerations, mm/sec^2
M203 X180 Y180 Z12 E80 ; sets maximum feedrates, mm / sec
M204 P1250 R1250 T2500 ; sets acceleration (P, T) and retract acceleration (R), mm/sec^2
M205 X8.00 Y8.00 Z2.00 E10.00 ; sets the jerk limits, mm/sec
M205 S0 T0 ; sets the minimum extruding and travel feed rate, mm/sec
M107
;TYPE:Custom
M862.3 P "MINI" ; printer model check
G90 ; use absolute coordinates
M83 ; extruder relative mode
M104 S155 ; set extruder temp for bed leveling
M140 S80 ; set bed temp
M109 R155 ; wait for bed leveling temp
M190 S80 ; wait for bed temp
M204 T1250 ; set travel acceleration
G28 ; home all without mesh bed level
G29 ; mesh bed leveling 
M204 T2500 ; restore travel acceleration
M104 S222 ; set extruder temp
G92 E0
G1 Y-2 X179 F2400
G1 Z0.3 F720
M109 S222 ; wait for extruder temp

; intro line
G1 Z0.3 E2 F900
G1 Z2 E6 F500
G1 Z0.4 X85 E12 F900
G1 Z0.2 X30 E12 F900
G1 Z0.1 X25 E0 F900
G92 E0

M221 S95 ; set flow
G21 ; set units to millimeters
G90 ; use absolute coordinates
M83 ; use relative distances for extrusion
M900 K0.2 ; Filament gcode LA 1.5
; ; Filament gcode LA 1.0
M107
;LAYER_CHANGE
;Z:0.2
;HEIGHT:0.2
;BEFORE_LAYER_CHANGE
G92 E0.0
;0.2


G1 E-3.2 F2400
G1 Z.2 F9000
;AFTER_LAYER_CHANGE
;0.2
G1 Z.4
G1 X42.981 Y37.94
G1 Z.2
G1 E3.2 F1500
M204 P800
;TYPE:Skirt/Brim
;WIDTH:0.42
G1 F1200
G1 X56.903 Y22.168 E.65962
G1 X58.478 Y21.373 E.05532
G1 X135.21 Y21.336 E2.40588
G1 X135.743 Y21.373 E.01673
G1 X137.011 Y21.877 E.04278
G1 X137.793 Y22.996 E.04278
G1 X137.913 Y23.727 E.02324
G1 X138.234 Y76.649 E1.65937
G1 X138.234 Y140.509 E2.00227
G1 X137.843 Y141.816 E.04278
G1 X136.592 Y142.769 E.04932
G1 X135.532 Y142.991 E.03394
G1 X59.332 Y142.991 E2.3892
G1 X58.272 Y142.769 E.03394
M73 P0 R164
G1 X57.39 Y142.251 E.03209
G1 X37.844 Y124.112 E.83609
G1 X37.095 Y123.141 E.03845
G1 X36.659 Y121.769 E.04515
G1 X36.659 Y46.121 E2.37189
G1 X37.095 Y44.748 E.04515
G1 X37.679 Y43.946 E.0311
G1 X42.941 Y37.985 E.24932
M204 P1250
; printing object pixel_pump_bottom_lid.stl id:2 copy 0
G1 E-2.24 F2400
;WIPE_START
G1 F7200
G1 X44.847 Y35.826 E-.912
;WIPE_END
G1 E-.048 F2400
G1 Z.4 F9000
G1 X47.456 Y85.817
G1 Z.2
G1 E3.2 F1500
M204 P800
;TYPE:Perimeter
;WIDTH:0.419999
G1 F1200
G1 X47.273 Y86.063 E.00962
G1 X46.799 Y86.485 E.01989
G1 X46.25 Y86.803 E.01989
G1 X45.648 Y87.004 E.01989
G1 X45.019 Y87.08 E.01989
G1 X44.386 Y87.027 E.01989
G1 X43.777 Y86.848 E.01989
G1 X43.217 Y86.551 E.01989
G1 X42.728 Y86.146 E.01989
G1 X42.331 Y85.652 E.01989
G1 X42.041 Y85.087 E.01989
G1 X41.871 Y84.476 E.01989
G1 X41.827 Y83.843 E.01989
G1 X41.912 Y83.214 E.01989
G1 X42.121 Y82.615 E.01989
G1 X42.447 Y82.071 E.01989
G1 X42.876 Y81.603 E.01989
G1 X43.39 Y81.231 E.01989
G1 X43.968 Y80.97 E.01989
G1 X44.587 Y80.831 E.01989
G1 X45.162 Y80.82 E.01804
G1 X45.845 Y80.936 E.02172
G1 X46.433 Y81.175 E.01989
G1 X46.96 Y81.528 E.01989
G1 X47.406 Y81.98 E.01989
G1 X47.751 Y82.512 E.01989
G1 X47.982 Y83.103 E.01989
G1 X48.09 Y83.729 E.01989
G1 X48.069 Y84.363 E.01989
G1 X47.921 Y84.98 E.01989
G1 X47.652 Y85.554 E.01989
G1 X47.492 Y85.769 E.0084
M204 P1250
G1 X47.314 Y85.388 F9000
M204 P800
;TYPE:External perimeter
G1 F1200
G1 X46.975 Y85.832 E.01751
G1 X46.554 Y86.199 E.01751
G1 X46.067 Y86.474 E.01751
G1 X45.536 Y86.644 E.01751
G1 X44.98 Y86.705 E.01751
G1 X44.424 Y86.652 E.01751
G1 X43.89 Y86.489 E.01751
G1 X43.4 Y86.221 E.01751
G1 X42.974 Y85.86 E.01751
G1 X42.629 Y85.421 E.01751
G1 X42.38 Y84.921 E.01751
G1 X42.236 Y84.381 E.01751
G1 X42.204 Y83.824 E.01751
G1 X42.284 Y83.271 E.01751
G1 X42.475 Y82.746 E.01751
G1 X42.767 Y82.27 E.01751
G1 X43.149 Y81.863 E.01751
G1 X43.605 Y81.54 E.01751
G1 X44.117 Y81.317 E.01751
G1 X44.663 Y81.2 E.01751
G1 X45.222 Y81.197 E.01751
G1 X45.769 Y81.305 E.01751
G1 X46.284 Y81.522 E.01751
G1 X46.745 Y81.838 E.01751
G1 X47.132 Y82.24 E.01751
G1 X47.431 Y82.712 E.01751
G1 X47.629 Y83.234 E.01751
G1 X47.717 Y83.786 E.01751
G1 X47.693 Y84.344 E.01751
G1 X47.556 Y84.885 E.01751
G1 X47.34 Y85.334 E.01563
M204 P1250
G1 E-2.24 F2400
;WIPE_START
G1 F7200
G1 X46.975 Y85.832 E-.19551
;WIPE_END
G1 E-.76449 F2400
G1 Z.4 F9000
G1 X48.079 Y118.056
G1 Z.2
G1 E3.2 F1500
M204 P800
;TYPE:Perimeter
G1 F1200
G1 X48.069 Y118.363 E.00962
G1 X47.921 Y118.98 E.01989
G1 X47.652 Y119.554 E.01989
G1 X47.273 Y120.063 E.01989
G1 X46.799 Y120.485 E.01989
G1 X46.25 Y120.803 E.01989
G1 X45.945 Y120.891 E.00995
;WIDTH:0.392587
G1 X45.64 Y120.978 E.00923
;WIDTH:0.365174
G1 X45.013 Y121.03 E.01685
;WIDTH:0.345463
G1 X44.39 Y120.99 E.01572
;WIDTH:0.382731
G1 X44.084 Y120.919 E.00888
;WIDTH:0.419999
G1 X43.777 Y120.848 E.00986
G1 X43.217 Y120.551 E.01989
G1 X42.728 Y120.146 E.01989
G1 X42.331 Y119.652 E.01989
G1 X42.041 Y119.087 E.01989
G1 X41.871 Y118.476 E.01989
G1 X41.827 Y117.843 E.01989
G1 X41.912 Y117.214 E.01989
G1 X42.121 Y116.615 E.01989
G1 X42.447 Y116.071 E.01989
G1 X42.876 Y115.603 E.01989
G1 X43.39 Y115.231 E.01989
G1 X43.968 Y114.97 E.01989
G1 X44.587 Y114.831 E.01989
G1 X45.162 Y114.82 E.01801
G1 X45.845 Y114.936 E.02175
G1 X46.433 Y115.175 E.01989
G1 X46.96 Y115.528 E.01989
G1 X47.406 Y115.98 E.01989
G1 X47.751 Y116.512 E.01989
G1 X47.982 Y117.103 E.01989
G1 X48.09 Y117.729 E.01989
G1 X48.081 Y117.996 E.0084
M204 P1250
G1 E-2.24 F2400
;WIPE_START
G1 F7200
G1 X48.069 Y118.363 E-.11612
;WIPE_END
G1 E-.84388 F2400
G1 Z.4 F9000
G1 X50.174 Y121.257
G1 Z.2
G1 E3.2 F1500
M204 P800
G1 F1200
G1 X48.885 Y121.257 E.04043
G1 X48.379 Y121.256 E.01587
G1 X47.858 Y121.256 E.01632
G1 X46.207 Y121.255 E.05175
G1 X45.878 Y121.274 E.01036
;WIDTH:0.382862
G1 X45.548 Y121.292 E.00934
;WIDTH:0.345724
G1 X44.895 Y121.305 E.01644
;WIDTH:0.345333
G1 X44.565 Y121.292 E.0083
;WIDTH:0.371486
G1 X44.236 Y121.279 E.00902
;WIDTH:0.419999
G1 X43.715 Y121.254 E.01634
G1 X40.148 Y121.253 E.11183
G1 X40.149 Y117.6 E.11452
G1 X40.15 Y87.331 E.94908
G1 X40.15 Y85.216 E.06632
G1 X40.15 Y84.581 E.01991
G1 X40.15 Y83.6 E.03074
G1 X40.15 Y83.08 E.01632
G1 X40.152 Y50.406 E1.02447
G1 X40.152 Y49.814 E.01855
G1 X40.152 Y46.632 E.09979
G1 X41.938 Y46.632 E.05601
G1 X43.378 Y46.632 E.04514
G1 X44.046 Y46.632 E.02096
;WIDTH:0.467072
G1 X44.177 Y46.658 E.0047
;WIDTH:0.514145
G1 X44.307 Y46.685 E.00522
;WIDTH:0.561218
G1 X44.438 Y46.712 E.00574
;WIDTH:0.608291
G1 X44.568 Y46.739 E.00626
G1 X44.418 Y46.797 E.00756
;WIDTH:0.561218
G1 X44.268 Y46.855 E.00693
;WIDTH:0.514145
G1 X44.118 Y46.912 E.0063
;WIDTH:0.467072
G1 X43.968 Y46.97 E.00567
;WIDTH:0.419999
G1 X43.39 Y47.231 E.01989
G1 X42.876 Y47.603 E.01989
G1 X42.447 Y48.071 E.01989
G1 X42.121 Y48.615 E.01989
G1 X41.912 Y49.214 E.01989
G1 X41.827 Y49.843 E.01989
G1 X41.871 Y50.476 E.01989
G1 X42.041 Y51.087 E.01989
G1 X42.331 Y51.652 E.01989
G1 X42.728 Y52.146 E.01989
G1 X43.217 Y52.551 E.01989
G1 X43.777 Y52.848 E.01989
G1 X44.386 Y53.027 E.01989
G1 X45.019 Y53.08 E.01989
G1 X45.648 Y53.004 E.01989
G1 X46.25 Y52.803 E.01989
G1 X46.799 Y52.485 E.01989
G1 X47.273 Y52.063 E.01989
G1 X47.652 Y51.554 E.01989
G1 X47.921 Y50.98 E.01989
G1 X48.069 Y50.363 E.01989
G1 X48.09 Y49.729 E.01989
G1 X47.982 Y49.103 E.01989
G1 X47.751 Y48.512 E.01989
G1 X47.406 Y47.98 E.01989
G1 X46.96 Y47.528 E.01989
G1 X46.433 Y47.175 E.01989
G1 X45.845 Y46.936 E.01989
;WIDTH:0.460308
G1 X45.747 Y46.895 E.00368
;WIDTH:0.500616
G1 X45.649 Y46.854 E.00404
;WIDTH:0.540924
G1 X45.552 Y46.814 E.00439
;WIDTH:0.581232
G1 X45.454 Y46.773 E.00475
;WIDTH:0.62154
G1 X45.356 Y46.732 E.0051
G1 X45.46 Y46.712 E.0051
;WIDTH:0.581232
G1 X45.564 Y46.692 E.00475
;WIDTH:0.540924
G1 X45.668 Y46.672 E.00439
;WIDTH:0.500616
G1 X45.772 Y46.652 E.00404
;WIDTH:0.460308
G1 X45.876 Y46.632 E.00368
;WIDTH:0.419999
G1 X50.174 Y46.632 E.13476
G1 X50.174 Y121.197 E2.33795
M204 P1250
G1 X50.551 Y121.634 F9000
M204 P800
;TYPE:External perimeter
G1 F1200
G1 X48.885 Y121.634 E.05226
G1 X48.378 Y121.633 E.01587
G1 X47.858 Y121.633 E.01632
G1 X39.771 Y121.63 E.25355
G1 X39.771 Y117.885 E.1174
G1 X39.773 Y87.331 E.95802
G1 X39.773 Y85.216 E.06632
G1 X39.773 Y84.695 E.01632
G1 X39.773 Y83.6 E.03432
G1 X39.773 Y83.08 E.01632
G1 X39.775 Y50.581 E1.01899
G1 X39.775 Y49.814 E.02403
G1 X39.775 Y46.255 E.11161
G1 X50.551 Y46.255 E.33789
G1 X50.551 Y121.574 E2.3616
M204 P1250
G1 E-2.24 F2400
;WIPE_START
G1 F7200
G1 X48.885 Y121.634 E-.52814
;WIPE_END
G1 E-.43186 F2400
G1 Z.4 F9000
G1 X47.693 Y118.344
G1 Z.2
G1 E3.2 F1500
M204 P800
G1 F1200
G1 X47.556 Y118.885 E.01751
G1 X47.314 Y119.388 E.01751
G1 X46.975 Y119.832 E.01751
G1 X46.554 Y120.199 E.01751
G1 X46.067 Y120.474 E.01751
G1 X45.536 Y120.644 E.01751
G1 X44.98 Y120.705 E.01751
G1 X44.424 Y120.652 E.01751
G1 X43.89 Y120.489 E.01751
G1 X43.4 Y120.221 E.01751
G1 X42.974 Y119.86 E.01751
G1 X42.629 Y119.421 E.01751
G1 X42.38 Y118.921 E.01751
G1 X42.236 Y118.381 E.01751
G1 X42.204 Y117.824 E.01751
G1 X42.284 Y117.271 E.01751
G1 X42.475 Y116.746 E.01751
G1 X42.767 Y116.27 E.01751
G1 X43.149 Y115.863 E.01751
G1 X43.605 Y115.54 E.01751
G1 X44.117 Y115.317 E.01751
G1 X44.663 Y115.2 E.01751
G1 X45.222 Y115.197 E.01751
G1 X45.769 Y115.305 E.01751
G1 X46.284 Y115.522 E.01751
G1 X46.745 Y115.838 E.01751
G1 X47.132 Y116.24 E.01751
G1 X47.431 Y116.712 E.01751
G1 X47.629 Y117.234 E.01751
G1 X47.717 Y117.786 E.01751
G1 X47.695 Y118.284 E.01563
M204 P1250
G1 E-2.24 F2400
;WIPE_START
G1 F7200
G1 X47.556 Y118.885 E-.19551
;WIPE_END
G1 E-.76449 F2400
G1 Z.4 F9000
G1 X42.203 Y49.814
G1 Z.2
G1 E3.2 F1500
M204 P800
G1 F1200
G1 X42.284 Y49.271 E.01722
G1 X42.475 Y48.746 E.01751
G1 X42.767 Y48.27 E.01751
G1 X43.149 Y47.863 E.01751
G1 X43.605 Y47.54 E.01751
G1 X44.117 Y47.317 E.01751
G1 X44.663 Y47.2 E.01751
G1 X45.222 Y47.197 E.01751
G1 X45.769 Y47.305 E.01751
G1 X46.284 Y47.522 E.01751
G1 X46.745 Y47.838 E.01751
G1 X47.132 Y48.24 E.01751
G1 X47.431 Y48.712 E.01751
G1 X47.629 Y49.234 E.01751
G1 X47.717 Y49.786 E.01751
G1 X47.693 Y50.344 E.01751
G1 X47.556 Y50.885 E.01751
G1 X47.314 Y51.388 E.01751
G1 X46.975 Y51.832 E.01751
G1 X46.554 Y52.199 E.01751
G1 X46.067 Y52.474 E.01751
G1 X45.536 Y52.644 E.01751
G1 X44.98 Y52.705 E.01751
G1 X44.424 Y52.652 E.01751
G1 X43.89 Y52.489 E.01751
G1 X43.4 Y52.221 E.01751
G1 X42.974 Y51.86 E.01751
G1 X42.629 Y51.421 E.01751
G1 X42.38 Y50.921 E.01751
G1 X42.236 Y50.381 E.01751
G1 X42.207 Y49.874 E.01593
M204 P1250
G1 E-2.24 F2400
;WIPE_START
G1 F7200
G1 X42.284 Y49.271 E-.19253
;WIPE_END
G1 E-.76747 F2400
G1 Z.4 F9000
G1 X44.586 Y46.731
G1 Z.2
G1 E3.2 F1500
M204 P800
;TYPE:Perimeter
;WIDTH:0.617894
G1 F1200
G1 X45.222 Y46.726 E.03038
M204 P1250
M204 P800
;WIDTH:0.62154
G1 X45.356 Y46.732 E.00646
M204 P1250
G1 E-2.24 F2400
;WIPE_START
G1 F7200
G1 X45.222 Y46.726 E-.04254
;WIPE_END
G1 E-.91746 F2400
G1 Z.4 F9000
G1 X50.061 Y47.507
G1 Z.2
G1 E3.2 F1500
M204 P800
;TYPE:Solid infill
;WIDTH:0.420058
G1 F1200
G1 X49.468 Y46.914 E.02629
G1 X48.935 Y46.914 E.01673
G1 X49.891 Y47.871 E.04241
G1 X49.891 Y48.404 E.01673
G1 X48.402 Y46.914 E.06607
G1 X47.868 Y46.914 E.01673
G1 X49.891 Y48.938 E.08972
G1 X49.891 Y49.471 E.01673
G1 X47.335 Y46.914 E.11337
G1 X46.802 Y46.914 E.01673
G1 X49.891 Y50.004 E.13703
G1 X49.891 Y50.538 E.01673
G1 X48.174 Y48.82 E.07616
G1 X48.29 Y49.167 E.01147
G1 X48.339 Y49.518 E.01112
G1 X49.891 Y51.071 E.06886
G1 X49.891 Y51.604 E.01673
G1 X48.364 Y50.077 E.06774
G1 X48.341 Y50.479 E.01263
G1 X48.319 Y50.565 E.00278
G1 X49.891 Y52.138 E.06975
G1 X49.891 Y52.671 E.01673
G1 X48.211 Y50.99 E.07455
G1 X48.052 Y51.365 E.01276
G1 X49.891 Y53.204 E.08159
G1 X49.891 Y53.738 E.01673
G1 X47.876 Y51.722 E.08938
G1 X47.65 Y52.029 E.01196
G1 X49.891 Y54.271 E.09942
G1 X49.891 Y54.804 E.01673
G1 X47.413 Y52.326 E.10993
G1 X47.123 Y52.57 E.01187
G1 X49.891 Y55.338 E.12276
G1 X49.891 Y55.871 E.01673
G1 X46.827 Y52.806 E.13592
G1 X46.477 Y52.99 E.01239
G1 X49.891 Y56.404 E.15143
G1 X49.891 Y56.938 E.01673
G1 X46.107 Y53.154 E.16782
G1 X45.693 Y53.273 E.01351
G1 X49.891 Y57.471 E.18618
G1 X49.891 Y58.005 E.01673
G1 X45.229 Y53.342 E.20679
G1 X44.989 Y53.365 E.00755
G1 X44.692 Y53.339 E.00934
G1 X49.891 Y58.538 E.23057
G1 X49.891 Y59.071 E.01673
G1 X43.79 Y52.97 E.2706
M204 P1250
G1 E-2.24 F2400
;WIPE_START
G1 F7200
G1 X45.826 Y55.006 E-.912
;WIPE_END
G1 E-.048 F2400
G1 Z.4 F9000
G1 X43.306 Y47.152
G1 Z.2
G1 E3.2 F1500
M204 P800
G1 F1200
G1 X43.068 Y46.914 E.01054
G1 X42.535 Y46.914 E.01673
G1 X42.876 Y47.256 E.01514
G1 X42.676 Y47.403 E.00779
G1 X42.587 Y47.5 E.00413
G1 X42.001 Y46.914 E.02597
G1 X41.468 Y46.914 E.01673
G1 X42.333 Y47.78 E.03837
G1 X42.211 Y47.914 E.00569
G1 X42.105 Y48.085 E.00631
G1 X40.935 Y46.914 E.0519
G1 X40.435 Y46.914 E.01568
G1 X40.435 Y46.948 E.00104
G1 X41.904 Y48.417 E.06518
G1 X41.757 Y48.804 E.01296
G1 X40.435 Y47.481 E.05865
G1 X40.435 Y48.014 E.01672
G1 X41.627 Y49.207 E.05289
G1 X41.562 Y49.675 E.01482
G1 X40.435 Y48.548 E.05
G1 X40.435 Y49.081 E.01672
G1 X41.567 Y50.213 E.0502
G1 X41.582 Y50.479 E.00835
G1 X41.679 Y50.858 E.01228
G1 X40.435 Y49.614 E.05517
G1 X40.435 Y50.148 E.01672
G1 X49.891 Y59.605 E.4194
G1 X49.891 Y60.138 E.01673
G1 X40.434 Y50.681 E.4194
G1 X40.434 Y51.214 E.01672
G1 X49.891 Y60.671 E.4194
G1 X49.891 Y61.205 E.01673
G1 X40.434 Y51.748 E.4194
G1 X40.434 Y52.281 E.01672
G1 X49.891 Y61.738 E.4194
G1 X49.891 Y62.271 E.01673
G1 X40.434 Y52.814 E.41941
G1 X40.434 Y53.348 E.01672
G1 X49.891 Y62.805 E.41941
G1 X49.891 Y63.338 E.01673
G1 X40.434 Y53.881 E.41941
G1 X40.434 Y54.414 E.01672
G1 X49.891 Y63.871 E.41941
G1 X49.891 Y64.405 E.01673
G1 X40.434 Y54.948 E.41941
G1 X40.434 Y55.481 E.01672
G1 X49.891 Y64.938 E.41941
G1 X49.891 Y65.471 E.01673
G1 X40.434 Y56.014 E.41941
G1 X40.434 Y56.548 E.01672
G1 X49.891 Y66.005 E.41941
G1 X49.891 Y66.538 E.01673
G1 X40.434 Y57.081 E.41941
G1 X40.434 Y57.614 E.01672
G1 X49.891 Y67.072 E.41942
G1 X49.891 Y67.605 E.01673
G1 X40.434 Y58.148 E.41942
G1 X40.434 Y58.681 E.01672
G1 X49.891 Y68.138 E.41942
G1 X49.891 Y68.672 E.01673
G1 X40.434 Y59.214 E.41942
G1 X40.434 Y59.748 E.01672
G1 X49.891 Y69.205 E.41942
G1 X49.891 Y69.738 E.01673
G1 X40.434 Y60.281 E.41942
G1 X40.434 Y60.814 E.01672
G1 X49.891 Y70.272 E.41942
G1 X49.891 Y70.805 E.01673
G1 X40.434 Y61.348 E.41942
G1 X40.434 Y61.881 E.01672
G1 X49.891 Y71.338 E.41942
G1 X49.891 Y71.872 E.01673
G1 X40.434 Y62.414 E.41943
G1 X40.434 Y62.948 E.01672
G1 X49.891 Y72.405 E.41943
G1 X49.891 Y72.938 E.01673
G1 X40.434 Y63.481 E.41943
G1 X40.434 Y64.014 E.01672
G1 X49.891 Y73.472 E.41943
G1 X49.891 Y74.005 E.01673
M73 P0 R163
G1 X40.434 Y64.548 E.41943
G1 X40.434 Y65.081 E.01672
G1 X49.891 Y74.538 E.41943
G1 X49.891 Y75.072 E.01673
G1 X40.434 Y65.614 E.41943
G1 X40.434 Y66.148 E.01672
G1 X49.891 Y75.605 E.41943
G1 X49.891 Y76.139 E.01673
G1 X40.434 Y66.681 E.41943
G1 X40.434 Y67.214 E.01672
G1 X49.891 Y76.672 E.41944
G1 X49.891 Y77.205 E.01673
G1 X40.434 Y67.748 E.41944
G1 X40.434 Y68.281 E.01672
G1 X49.891 Y77.739 E.41944
G1 X49.891 Y78.272 E.01673
G1 X40.434 Y68.814 E.41944
G1 X40.434 Y69.348 E.01672
G1 X49.891 Y78.805 E.41944
G1 X49.891 Y79.339 E.01673
G1 X40.434 Y69.881 E.41944
G1 X40.434 Y70.414 E.01672
G1 X49.891 Y79.872 E.41944
G1 X49.891 Y80.405 E.01673
G1 X40.434 Y70.947 E.41944
G1 X40.434 Y71.481 E.01672
G1 X49.891 Y80.939 E.41944
G1 X49.891 Y81.472 E.01673
G1 X40.433 Y72.014 E.41945
G1 X40.433 Y72.547 E.01672
M73 P1 R163
G1 X49.891 Y82.005 E.41945
