; generated by PrusaSlicer 2.4.0-rc2+arm64 on 2022-02-17 at 16:50:18 UTC


;
;

;
;
; 

; external perimeters extrusion width = 0.45mm
; perimeters extrusion width = 0.45mm
; infill extrusion width = 0.45mm
; solid infill extrusion width = 0.45mm
; top infill extrusion width = 0.40mm
; first layer extrusion width = 0.42mm

; external perimeters extrusion width = 0.45mm
; perimeters extrusion width = 0.45mm
; infill extrusion width = 0.45mm
; solid infill extrusion width = 0.45mm
; top infill extrusion width = 0.40mm
; first layer extrusion width = 0.42mm

M73 P0 R128
M201 X1250 Y1250 Z400 E5000 ; sets maximum accelerations, mm/sec^2
M203 X180 Y180 Z12 E80 ; sets maximum feedrates, mm/sec
M204 P1250 R1250 T1250 ; sets acceleration (P, T) and retract acceleration (R), mm/sec^2
M205 X8.00 Y8.00 Z2.00 E10.00 ; sets the jerk limits, mm/sec
M205 S0 T0 ; sets the minimum extruding and travel feed rate, mm/sec
M107
;TYPE:Custom
G90 ; use absolute coordinates
M83 ; extruder relative mode
M104 S170 ; set extruder temp for bed leveling
M140 S70 ; set bed temp
M109 R170 ; wait for bed leveling temp
M190 S70 ; wait for bed temp
G28 ; home all without mesh bed level
G29 ; mesh bed leveling 
M104 S220 ; set extruder temp
G92 E0.0
G1 Y-2.0 X179 F2400
G1 Z3 F720
M109 S220 ; wait for extruder temp

; intro line
G1 X170 F1000
G1 Z0.2 F720
G1 X110.0 E8.0 F900
G1 X40.0 E10.0 F700
G92 E0.0

M221 S95 ; set flow
G21 ; set units to millimeters
G90 ; use absolute coordinates
M83 ; use relative distances for extrusion
M900 K0.2 ; Filament gcode LA 1.5
; ; Filament gcode LA 1.0
M107
;LAYER_CHANGE
;Z:0.2
;HEIGHT:0.2
;BEFORE_LAYER_CHANGE
G92 E0.0
;0.2


G1 E-3.2 F2400
G1 Z.2 F9000
;AFTER_LAYER_CHANGE
;0.2
G1 Z.4
G1 X49.581 Y25.494
G1 Z.2
G1 E3.2 F1500
M204 S800
;TYPE:Skirt/Brim
;WIDTH:0.42
G1 F1200
G1 X50.627 Y24.617 E.04278
G1 X51.36 Y24.433 E.02369
G1 X51.892 Y24.395 E.01673
G1 X128.092 Y24.396 E2.3892
G1 X128.624 Y24.433 E.01673
G1 X129.892 Y24.937 E.04278
G1 X130.674 Y26.055 E.04278
G1 X130.794 Y26.787 E.02324
G1 X131.115 Y79.709 E1.65937
G1 X131.115 Y143.568 E2.00227
G1 X130.724 Y144.875 E.04278
G1 X129.473 Y145.829 E.04932
G1 X128.413 Y146.051 E.03394
G1 X52.213 Y146.051 E2.3892
G1 X51.154 Y145.829 E.03394
G1 X50.032 Y145.053 E.04278
G1 X49.511 Y143.582 E.04892
G1 X49.189 Y87.753 E1.7505
G1 X49.19 Y26.801 E1.91112
G1 X49.564 Y25.551 E.0409
M204 S1250
; printing object pixel_pump_back_side.stl id:1 copy 0
G1 E-2.24 F2400
;WIPE_START
G1 F7200
G1 X50.627 Y24.617 E-.44806
G1 X51.36 Y24.433 E-.23923
G1 X51.892 Y24.395 E-.16894
G1 X52.068 Y24.395 E-.05577
;WIPE_END
G1 E-.048 F2400
G1 Z.4 F9000
G1 X84.31 Y81.298
G1 Z.2
G1 E3.2 F1500
M204 S800
;TYPE:External perimeter
G1 F1200
G1 X84.845 Y80.965 E.01975
G1 X85.511 Y80.718 E.02228
G1 X86.166 Y80.618 E.02078
G1 X86.922 Y80.646 E.02371
G1 X87.611 Y80.825 E.02233
G1 X88.25 Y81.138 E.0223
G1 X88.814 Y81.581 E.02248
G1 X89.248 Y82.159 E.02267
G1 X89.375 Y82.51 E.0117
G1 X89.635 Y83.455 E.03075
G1 X89.703 Y84.118 E.02089
G1 X89.635 Y84.781 E.02089
G1 X89.375 Y85.726 E.03075
G1 X89.247 Y86.078 E.01174
G1 X88.803 Y86.654 E.02279
G1 X88.497 Y86.869 E.01172
G1 X88.18 Y87.054 E.01151
G1 X86.893 Y87.391 E.04171
G1 X86.224 Y87.425 E.02102
G1 X85.565 Y87.324 E.0209
G1 X85.264 Y87.223 E.00995
G1 X84.937 Y87.162 E.01042
G1 X84.275 Y86.887 E.02248
G1 X83.731 Y86.408 E.02274
G1 X83.321 Y85.823 E.0224
G1 X83.04 Y85.169 E.02229
G1 X82.897 Y84.473 E.02228
G1 X82.897 Y83.763 E.02228
G1 X83.04 Y83.067 E.02228
G1 X83.321 Y82.414 E.02228
G1 X83.727 Y81.83 E.02228
G1 X84.259 Y81.33 E.02292
M204 S1250
G1 X84.259 Y80.901 F9000
G1 E-2.24 F2400
;WIPE_START
G1 F7200
G1 X84.845 Y80.965 E-.21847
G1 X85.511 Y80.718 E-.22503
G1 X86.166 Y80.618 E-.20988
G1 X86.922 Y80.646 E-.23947
G1 X86.981 Y80.661 E-.01916
;WIPE_END
G1 E-.048 F2400
G1 Z.4 F9000
G1 X89.31 Y86.825
G1 Z.2
G1 E3.2 F1500
M204 S800
;TYPE:Perimeter
G1 F1200
G1 X89.308 Y87.044 E.00685
G1 X88.887 Y87.056 E.01323
G1 X89.067 Y86.929 E.00691
G1 X89.323 Y86.598 E.01314
G1 X89.313 Y86.765 E.00528
M204 S1250
G1 E-2.24 F2400
;WIPE_START
G1 F7200
G1 X89.308 Y87.044 E-.08819
G1 X88.887 Y87.056 E-.13365
G1 X89.067 Y86.929 E-.06977
G1 X89.323 Y86.598 E-.13274
G1 X89.313 Y86.765 E-.05328
;WIPE_END
G1 E-.48238 F2400
G1 Z.4 F9000
G1 X53.473 Y86.885
G1 Z.2
G1 E3.2 F1500
M204 S800
;TYPE:External perimeter
G1 F1200
G1 X52.935 Y86.388 E.02296
G1 X52.748 Y86.064 E.01175
G1 X52.596 Y85.737 E.01131
G1 X52.522 Y85.401 E.01078
G1 X52.43 Y85.098 E.00994
G1 X52.297 Y84.453 E.02064
G1 X52.297 Y83.783 E.02101
G1 X52.43 Y83.138 E.02064
G1 X52.522 Y82.835 E.00994
G1 X52.596 Y82.499 E.01077
G1 X52.747 Y82.172 E.0113
G1 X52.931 Y81.85 E.01163
G1 X53.44 Y81.343 E.02252
G1 X54.045 Y80.965 E.02236
G1 X54.711 Y80.718 E.02229
G1 X55.366 Y80.617 E.02078
G1 X56.122 Y80.646 E.02371
G1 X56.811 Y80.824 E.02233
G1 X57.449 Y81.137 E.02228
G1 X58.011 Y81.572 E.02228
G1 X58.474 Y82.111 E.02228
G1 X58.819 Y82.733 E.02228
G1 X59.032 Y83.411 E.02228
G1 X59.104 Y84.118 E.02228
G1 X59.032 Y84.825 E.02228
G1 X58.819 Y85.503 E.02228
G1 X58.473 Y86.125 E.02232
G1 X58 Y86.662 E.02244
G1 X57.697 Y86.87 E.01153
G1 X57.38 Y87.054 E.01148
G1 X56.093 Y87.391 E.0417
G1 X55.424 Y87.425 E.02102
G1 X54.765 Y87.324 E.0209
G1 X54.464 Y87.223 E.00995
G1 X54.137 Y87.161 E.01042
G1 X53.529 Y86.908 E.02067
M204 S1250
G1 X53.112 Y87.056 F9000
G1 X53.101 Y87.055
M204 S800
;TYPE:Perimeter
G1 F1200
G1 X52.671 Y87.045 E.01348
G1 X52.664 Y86.651 E.01236
G1 X53.057 Y87.014 E.01679
M204 S1250
G1 E-2.24 F2400
;WIPE_START
G1 F7200
G1 X52.671 Y87.045 E-.12253
G1 X52.664 Y86.651 E-.12484
G1 X53.057 Y87.014 E-.16958
;WIPE_END
G1 E-.54305 F2400
G1 Z.4 F9000
G1 X55.414 Y35.871
G1 Z.2
G1 E3.2 F1500
M204 S800
;TYPE:External perimeter
G1 F1200
G1 X54.711 Y35.764 E.02228
G1 X54.045 Y35.517 E.02229
G1 X53.44 Y35.139 E.02236
G1 X52.932 Y34.632 E.02252
G1 X52.748 Y34.31 E.01163
G1 X52.597 Y33.982 E.0113
G1 X52.523 Y33.647 E.01077
G1 X52.43 Y33.344 E.00994
G1 X52.298 Y32.699 E.02064
G1 X52.298 Y32.029 E.02101
G1 X52.43 Y31.384 E.02064
G1 X52.523 Y31.081 E.00994
G1 X52.597 Y30.745 E.01078
G1 X52.748 Y30.418 E.0113
G1 X52.932 Y30.096 E.01163
G1 X53.44 Y29.589 E.02252
G1 X54.045 Y29.211 E.02236
G1 X54.712 Y28.964 E.02229
G1 X55.367 Y28.863 E.02078
G1 X56.122 Y28.892 E.02371
G1 X56.812 Y29.07 E.02232
G1 X57.45 Y29.383 E.02228
G1 X58.012 Y29.818 E.02228
G1 X58.474 Y30.357 E.02228
G1 X58.819 Y30.979 E.02228
G1 X59.032 Y31.657 E.02228
G1 X59.104 Y32.364 E.02228
G1 X59.032 Y33.071 E.02228
G1 X58.819 Y33.749 E.02228
G1 X58.474 Y34.37 E.02228
G1 X58.012 Y34.909 E.02228
G1 X57.45 Y35.344 E.02228
G1 X56.812 Y35.657 E.02228
G1 X56.124 Y35.835 E.02228
G1 X55.474 Y35.868 E.0204
M204 S1250
G1 X55.197 Y36.207 F9000
G1 E-2.24 F2400
;WIPE_START
G1 F7200
G1 X54.711 Y35.764 E-.24367
G1 X54.045 Y35.517 E-.22508
G1 X53.44 Y35.139 E-.2258
G1 X52.954 Y34.654 E-.21745
;WIPE_END
G1 E-.048 F2400
G1 Z.4 F9000
G1 X69.749 Y76.042
G1 Z.2
G1 E3.2 F1500
M204 S800
;TYPE:Perimeter
G1 F1200
G1 X70.135 Y75.939 E.01251
G1 X70.988 Y75.858 E.02689
G1 X71.841 Y75.929 E.02681
G1 X72.667 Y76.15 E.02681
G1 X73.441 Y76.513 E.0268
G1 X74.071 Y76.954 E.02412
G1 X74.681 Y77.548 E.0267
G1 X75.18 Y78.245 E.02686
G1 X75.548 Y79.018 E.02687
G1 X75.774 Y79.845 E.02687
G1 X75.849 Y80.698 E.02683
G1 X75.774 Y81.55 E.02683
G1 X75.548 Y82.377 E.02687
G1 X75.181 Y83.148 E.02677
G1 X74.74 Y83.778 E.02412
G1 X74.141 Y84.386 E.02676
G1 X73.442 Y84.882 E.02687
G1 X72.667 Y85.245 E.02685
G1 X71.84 Y85.466 E.02681
G1 X70.986 Y85.537 E.02687
G1 X70.136 Y85.457 E.02678
G1 X69.393 Y85.257 E.02412
G1 X68.617 Y84.904 E.02676
G1 X67.912 Y84.416 E.02687
G1 X67.304 Y83.812 E.02686
G1 X66.814 Y83.112 E.02679
G1 X66.455 Y82.334 E.02687
G1 X66.238 Y81.505 E.02687
G1 X66.172 Y80.654 E.02675
G1 X66.239 Y79.888 E.02412
G1 X66.455 Y79.061 E.02678
G1 X66.814 Y78.283 E.02687
G1 X67.304 Y77.583 E.02679
G1 X67.912 Y76.979 E.02686
G1 X68.617 Y76.491 E.02687
G1 X69.393 Y76.138 E.02676
G1 X69.691 Y76.058 E.00968
M204 S1250
G1 X69.521 Y76.494 F9000
M204 S800
;TYPE:External perimeter
G1 F1200
G1 X70.203 Y76.311 E.02213
G1 X70.989 Y76.237 E.02477
G1 X71.776 Y76.302 E.02474
G1 X72.537 Y76.506 E.02471
G1 X73.251 Y76.84 E.02473
G1 X73.83 Y77.246 E.02215
G1 X74.394 Y77.795 E.02469
G1 X74.854 Y78.437 E.02476
G1 X75.193 Y79.15 E.02476
G1 X75.401 Y79.912 E.02477
G1 X75.471 Y80.698 E.02472
G1 X75.401 Y81.483 E.02472
G1 X75.193 Y82.245 E.02477
G1 X74.854 Y82.957 E.02473
G1 X74.449 Y83.536 E.02215
G1 X73.896 Y84.098 E.02472
G1 X73.251 Y84.554 E.02477
G1 X72.537 Y84.889 E.02474
G1 X71.776 Y85.093 E.02471
G1 X70.988 Y85.158 E.02477
G1 X70.203 Y85.084 E.02473
G1 X69.521 Y84.901 E.02215
G1 X68.803 Y84.574 E.02472
G1 X68.154 Y84.125 E.02476
G1 X67.594 Y83.568 E.02476
G1 X67.142 Y82.923 E.02469
G1 X66.811 Y82.206 E.02477
G1 X66.611 Y81.442 E.02476
G1 X66.55 Y80.656 E.02472
G1 X66.612 Y79.952 E.02215
G1 X66.811 Y79.189 E.02473
G1 X67.142 Y78.472 E.02477
G1 X67.594 Y77.827 E.02469
G1 X68.154 Y77.27 E.02476
G1 X68.803 Y76.821 E.02477
G1 X69.466 Y76.519 E.02284
M204 S1250
G1 X69.591 Y76.1 F9000
G1 E-2.24 F2400
;WIPE_START
G1 F7200
G1 X70.203 Y76.311 E-.24226
G1 X70.989 Y76.237 E-.25019
G1 X71.776 Y76.302 E-.2499
G1 X72.293 Y76.441 E-.16965
;WIPE_END
G1 E-.048 F2400
G1 Z.4 F9000
G1 X68.072 Y28.846
G1 Z.2
G1 E3.2 F1500
M204 S800
;TYPE:Perimeter
G1 F1200
G1 X82.569 Y28.846 E.45455
G1 X82.569 Y44.039 E.47637
G1 X82.489 Y44.647 E.01923
G1 X82.235 Y45.262 E.02085
G1 X81.831 Y45.791 E.02085
G1 X81.305 Y46.196 E.02085
G1 X80.691 Y46.452 E.02085
G1 X80.083 Y46.532 E.01921
G1 X79.546 Y46.532 E.01685
G1 X69.78 Y46.532 E.30621
G1 X69.172 Y46.451 E.01921
M73 P0 R127
G1 X68.559 Y46.196 E.02085
G1 X68.032 Y45.79 E.02085
G1 X67.628 Y45.262 E.02085
G1 X67.374 Y44.647 E.02085
G1 X67.295 Y44.039 E.01923
G1 X67.295 Y28.846 E.47637
G1 X68.012 Y28.846 E.02248
M204 S1250
G1 X67.672 Y29.223 F9000
M204 S800
;TYPE:External perimeter
G1 F1200
G1 X82.192 Y29.223 E.45526
G1 X82.192 Y44.015 E.46377
G1 X82.122 Y44.549 E.0169
G1 X81.906 Y45.073 E.01775
G1 X81.562 Y45.522 E.01774
G1 X81.114 Y45.867 E.01773
G1 X80.592 Y46.084 E.01773
G1 X80.059 Y46.155 E.01687
G1 X69.805 Y46.155 E.32151
G1 X69.271 Y46.084 E.01687
G1 X68.749 Y45.867 E.01773
G1 X68.301 Y45.522 E.01773
G1 X67.958 Y45.073 E.01774
G1 X67.742 Y44.549 E.01775
G1 X67.672 Y44.015 E.0169
G1 X67.672 Y29.283 E.46189
M204 S1250
G1 X67.671 Y28.823 F9000
G1 E-2.24 F2400
;WIPE_START
G1 F7200
G1 X70.552 Y29.271 E-.912
;WIPE_END
G1 E-.048 F2400
G1 Z.4 F9000
G1 X86.396 Y30.126
G1 Z.2
G1 E3.2 F1500
M204 S800
;TYPE:Perimeter
G1 F1200
G1 X86.517 Y29.932 E.00715
G1 X86.966 Y29.475 E.02009
G1 X87.508 Y29.129 E.02017
G1 X88.112 Y28.915 E.02011
G1 X88.707 Y28.846 E.01878
G1 X95.146 Y28.846 E.20189
G1 X95.74 Y28.914 E.01872
G1 X96.345 Y29.129 E.02016
G1 X96.888 Y29.475 E.02017
G1 X97.339 Y29.934 E.02018
G1 X97.673 Y30.481 E.02008
G1 X97.852 Y30.995 E.01709
G1 X97.939 Y31.642 E.02046
G1 X97.939 Y32.297 E.02055
G1 X97.873 Y32.887 E.0186
G1 X97.663 Y33.489 E.01999
G1 X97.325 Y34.029 E.01999
G1 X96.875 Y34.481 E.01998
G1 X96.336 Y34.821 E.01998
G1 X95.735 Y35.032 E.01998
G1 X95.146 Y35.098 E.01858
G1 X88.707 Y35.098 E.20188
G1 X88.119 Y35.032 E.01858
G1 X87.518 Y34.821 E.01998
G1 X86.979 Y34.481 E.01998
G1 X86.529 Y34.029 E.01998
G1 X86.191 Y33.489 E.01998
G1 X85.981 Y32.887 E.01999
G1 X85.915 Y32.297 E.0186
G1 X85.915 Y31.647 E.02039
G1 X85.975 Y31.092 E.0175
G1 X86.174 Y30.498 E.01965
G1 X86.364 Y30.176 E.01171
M204 S1250
G1 X86.521 Y30.649 F9000
M204 S800
;TYPE:External perimeter
G1 F1200
G1 X86.815 Y30.167 E.0177
G1 X87.205 Y29.77 E.01746
G1 X87.675 Y29.47 E.01747
G1 X88.199 Y29.284 E.01744
G1 X88.729 Y29.223 E.01672
G1 X95.125 Y29.224 E.20055
G1 X95.654 Y29.284 E.0167
G1 X96.179 Y29.47 E.01746
G1 X96.649 Y29.77 E.01747
G1 X97.039 Y30.168 E.01749
G1 X97.33 Y30.643 E.01747
G1 X97.484 Y31.083 E.01462
G1 X97.562 Y31.667 E.01847
G1 X97.562 Y32.276 E.0191
G1 X97.503 Y32.803 E.01661
G1 X97.321 Y33.325 E.01733
G1 X97.027 Y33.793 E.01732
G1 X96.638 Y34.184 E.01732
G1 X96.171 Y34.479 E.01731
G1 X95.65 Y34.662 E.0173
G1 X95.125 Y34.721 E.01657
G1 X88.729 Y34.721 E.20055
G1 X88.203 Y34.662 E.01657
G1 X87.683 Y34.479 E.0173
G1 X87.216 Y34.184 E.01731
G1 X86.826 Y33.793 E.01732
G1 X86.533 Y33.325 E.01732
G1 X86.351 Y32.803 E.01733
G1 X86.292 Y32.276 E.01661
G1 X86.292 Y31.667 E.01909
G1 X86.346 Y31.173 E.01558
G1 X86.502 Y30.706 E.01545
M204 S1250
G1 X86.292 Y30.321 F9000
G1 E-2.24 F2400
;WIPE_START
G1 F7200
G1 X86.815 Y30.167 E-.19734
G1 X87.205 Y29.77 E-.17629
G1 X87.675 Y29.47 E-.17645
G1 X88.199 Y29.284 E-.17615
G1 X88.729 Y29.223 E-.16888
G1 X88.782 Y29.223 E-.01689
;WIPE_END
G1 E-.048 F2400
G1 Z.4 F9000
G1 X102.857 Y29.605
G1 Z.2
G1 E3.2 F1500
M204 S800
;TYPE:Perimeter
G1 F1200
G1 X110.981 Y29.602 E.2547
G1 X111.264 Y29.64 E.00898
G1 X111.577 Y29.77 E.01061
G1 X111.845 Y29.976 E.0106
G1 X112.05 Y30.244 E.01059
G1 X112.179 Y30.557 E.01059
G1 X112.216 Y30.84 E.00896
G1 X112.216 Y40.68 E.30852
G1 X112.179 Y40.963 E.00896
G1 X112.05 Y41.275 E.01059
G1 X111.845 Y41.544 E.01059
G1 X111.577 Y41.75 E.0106
G1 X111.264 Y41.88 E.01061
G1 X110.981 Y41.917 E.00898
G1 X102.877 Y41.917 E.25408
G1 X102.593 Y41.88 E.00898
G1 X102.28 Y41.75 E.01061
G1 X102.013 Y41.543 E.0106
G1 X101.808 Y41.275 E.01059
G1 X101.679 Y40.963 E.01058
G1 X101.642 Y40.68 E.00896
G1 X101.642 Y30.84 E.30852
G1 X101.679 Y30.556 E.00896
G1 X101.808 Y30.244 E.01059
G1 X102.013 Y29.976 E.01061
G1 X102.281 Y29.77 E.0106
G1 X102.593 Y29.64 E.0106
G1 X102.798 Y29.613 E.00647
M204 S1250
G1 X102.692 Y30.007 F9000
M204 S800
;TYPE:External perimeter
G1 F1200
G1 X102.882 Y29.982 E.00601
G1 X110.956 Y29.979 E.25314
G1 X111.166 Y30.007 E.00664
G1 X111.386 Y30.099 E.00749
G1 X111.575 Y30.244 E.00749
G1 X111.72 Y30.434 E.00748
G1 X111.811 Y30.655 E.00748
G1 X111.839 Y30.864 E.00663
G1 X111.839 Y40.655 E.30698
G1 X111.811 Y40.865 E.00663
G1 X111.72 Y41.085 E.00748
G1 X111.575 Y41.275 E.00748
G1 X111.386 Y41.421 E.00749
G1 X111.166 Y41.512 E.00749
G1 X110.956 Y41.54 E.00664
G1 X102.902 Y41.54 E.25253
G1 X102.692 Y41.512 E.00664
G1 X102.471 Y41.421 E.00749
G1 X102.282 Y41.275 E.00749
G1 X102.137 Y41.085 E.00748
G1 X102.046 Y40.865 E.00748
G1 X102.019 Y40.655 E.00663
G1 X102.019 Y30.864 E.30698
G1 X102.046 Y30.655 E.00664
G1 X102.137 Y30.434 E.00748
G1 X102.283 Y30.244 E.00749
G1 X102.472 Y30.099 E.00748
G1 X102.637 Y30.03 E.0056
M204 S1250
G1 X102.742 Y29.822 F9000
G1 E-2.24 F2400
;WIPE_START
G1 F7200
G1 X102.882 Y29.982 E-.07925
G1 X105.512 Y29.981 E-.83275
;WIPE_END
G1 E-.048 F2400
G1 Z.4 F9000
G1 X127.307 Y27.56
G1 Z.2
G1 E3.2 F1500
M204 S800
;TYPE:Perimeter
G1 F1200
G1 X127.322 Y29.874 E.07257
G1 X127.086 Y29.561 E.0123
G1 X126.452 Y29.063 E.02527
G1 X125.743 Y28.715 E.02475
G1 X124.977 Y28.517 E.02481
G1 X124.145 Y28.486 E.02612
G1 X123.417 Y28.597 E.02311
G1 X122.678 Y28.871 E.02469
G1 X122.01 Y29.287 E.02469
G1 X121.439 Y29.829 E.02469
G1 X120.99 Y30.476 E.02469
G1 X120.679 Y31.199 E.02469
G1 X120.521 Y31.97 E.02469
G1 X120.521 Y32.758 E.02469
G1 X120.679 Y33.529 E.02469
G1 X120.99 Y34.252 E.02469
G1 X121.439 Y34.899 E.02469
G1 X122.01 Y35.441 E.02469
G1 X122.678 Y35.858 E.02469
G1 X123.416 Y36.131 E.02469
G1 X124.195 Y36.25 E.02469
G1 X124.981 Y36.21 E.02469
G1 X125.743 Y36.013 E.02469
G1 X126.452 Y35.665 E.02475
G1 X127.086 Y35.167 E.02527
G1 X127.324 Y34.85 E.01243
G1 X127.309 Y35.209 E.01126
G1 X127.305 Y38.701 E.10948
G1 X127.305 Y64.057 E.79501
G1 X127.327 Y64.902 E.02651
G1 X127.086 Y64.581 E.0126
G1 X126.452 Y64.083 E.02527
G1 X125.743 Y63.735 E.02475
G1 X124.977 Y63.537 E.02481
G1 X124.145 Y63.505 E.02612
G1 X123.416 Y63.617 E.02311
G1 X122.678 Y63.89 E.02469
G1 X122.01 Y64.307 E.02469
G1 X121.439 Y64.849 E.02469
G1 X120.989 Y65.495 E.02469
G1 X120.679 Y66.219 E.02469
G1 X120.52 Y66.99 E.02469
G1 X120.52 Y67.777 E.02469
G1 X120.679 Y68.549 E.02469
G1 X120.99 Y69.273 E.02471
G1 X121.447 Y69.926 E.025
G1 X121.92 Y70.346 E.01985
G1 X121.016 Y70.327 E.02835
G1 X89.304 Y70.327 E.99431
G1 X89.321 Y81.628 E.35436
G1 X89.086 Y81.315 E.0123
G1 X88.452 Y80.817 E.02527
G1 X87.743 Y80.469 E.02475
