; generated by PrusaSlicer 2.4.2+arm64 on 2022-06-27 at 16:50:51 UTC


;
;

;
;
; 

; external perimeters extrusion width = 0.45mm
; perimeters extrusion width = 0.45mm
; infill extrusion width = 0.45mm
; solid infill extrusion width = 0.45mm
; top infill extrusion width = 0.40mm
; first layer extrusion width = 0.42mm

M73 P0 R158
M201 X2500 Y2500 Z400 E5000 ; sets maximum accelerations, mm/sec^2
M203 X180 Y180 Z12 E80 ; sets maximum feedrates, mm / sec
M204 P1250 R1250 T2500 ; sets acceleration (P, T) and retract acceleration (R), mm/sec^2
M205 X8.00 Y8.00 Z2.00 E10.00 ; sets the jerk limits, mm/sec
M205 S0 T0 ; sets the minimum extruding and travel feed rate, mm/sec
M107
;TYPE:Custom
M862.3 P "MINI" ; printer model check
G90 ; use absolute coordinates
M83 ; extruder relative mode
M104 S170 ; set extruder temp for bed leveling
M140 S80 ; set bed temp
M109 R170 ; wait for bed leveling temp
M190 S80 ; wait for bed temp
M204 T1250 ; set travel acceleration
G28 ; home all without mesh bed level
G29 ; mesh bed leveling 
M204 T2500 ; restore travel acceleration
M104 S222 ; set extruder temp
G92 E0
G1 Y-2 X179 F2400
G1 Z3 F720
M109 S222 ; wait for extruder temp

; intro line
G1 X170 F1000
G1 Z0.2 F720
G1 X110 E8 F900
G1 X40 E10 F700
G92 E0

M221 S95 ; set flow
G21 ; set units to millimeters
G90 ; use absolute coordinates
M83 ; use relative distances for extrusion
M900 K0.2 ; Filament gcode LA 1.5
; ; Filament gcode LA 1.0
M107
;LAYER_CHANGE
;Z:0.2
;HEIGHT:0.2
;BEFORE_LAYER_CHANGE
G92 E0.0
;0.2


G1 E-3.2 F2400
G1 Z.2 F9000
;AFTER_LAYER_CHANGE
;0.2
G1 Z.4
G1 X48.394 Y32.625
G1 Z.2
G1 E3.2 F1500
M204 P800
;TYPE:Skirt/Brim
;WIDTH:0.42
G1 F1200
G1 X50.35 Y30.669 E.08674
G1 X52.031 Y29.973 E.05704
G1 X127.969 Y29.973 E2.38098
G1 X129.65 Y30.669 E.05704
G1 X131.606 Y32.625 E.08674
G1 X132.302 Y34.306 E.05704
G1 X132.302 Y147.725 E3.55618
G1 X131.91 Y149.032 E.04278
G1 X130.865 Y149.909 E.04278
G1 X129.925 Y150.102 E.03008
G1 X50.075 Y150.102 E2.50364
G1 X48.768 Y149.711 E.04278
G1 X47.892 Y148.665 E.04278
G1 X47.698 Y147.725 E.03008
G1 X47.698 Y34.306 E3.55618
G1 X48.371 Y32.681 E.05516
M204 P1250
; printing object pixel_pump_lower_bottom.stl id:0 copy 0
G1 E-2.24 F2400
;WIPE_START
G1 F7200
G1 X50.35 Y30.669 E-.89358
G1 X50.404 Y30.647 E-.01842
;WIPE_END
G1 E-.048 F2400
G1 Z.4 F9000
G1 X123.552 Y128.907
G1 Z.2
G1 E3.2 F1500
M204 P800
;TYPE:External perimeter
G1 F1200
G1 X124.259 Y128.5 E.02557
G1 X125.04 Y128.266 E.02557
G1 X125.818 Y128.22 E.02443
G1 X126.656 Y128.359 E.02665
G1 X127.406 Y128.683 E.02561
G1 X128.061 Y129.171 E.0256
G1 X128.583 Y129.804 E.02573
G1 X128.751 Y130.19 E.0132
G1 X128.882 Y130.576 E.01279
G1 X128.976 Y131.348 E.02437
G1 X128.976 Y132.102 E.02363
G1 X128.882 Y132.874 E.02437
G1 X128.751 Y133.26 E.01279
G1 X128.583 Y133.646 E.0132
G1 X128.061 Y134.279 E.02573
G1 X127.406 Y134.767 E.0256
G1 X126.657 Y135.09 E.02557
G1 X125.854 Y135.232 E.02557
G1 X125.04 Y135.184 E.02557
G1 X124.259 Y134.951 E.02557
G1 X123.552 Y134.543 E.02557
G1 X122.959 Y133.983 E.02557
G1 X122.511 Y133.302 E.02557
G1 X122.232 Y132.535 E.02557
G1 X122.137 Y131.725 E.02557
G1 X122.232 Y130.915 E.02557
G1 X122.511 Y130.149 E.02557
G1 X122.959 Y129.467 E.02557
G1 X123.509 Y128.949 E.02369
M204 P1250
G1 X123.506 Y128.51 F9000
G1 E-2.24 F2400
;WIPE_START
G1 F7200
G1 X124.259 Y128.5 E-.2768
G1 X125.04 Y128.266 E-.25828
G1 X125.818 Y128.22 E-.24673
G1 X126.223 Y128.288 E-.13018
;WIPE_END
G1 E-.048 F2400
G1 Z.4 F9000
G1 X57.839 Y131.317
G1 Z.2
G1 E3.2 F1500
M204 P800
G1 F1200
G1 X57.839 Y132.133 E.02557
G1 X57.651 Y132.927 E.02557
G1 X57.285 Y133.655 E.02557
G1 X56.761 Y134.28 E.02557
G1 X56.106 Y134.767 E.02557
G1 X55.357 Y135.09 E.02557
G1 X54.554 Y135.232 E.02557
G1 X53.74 Y135.184 E.02557
G1 X52.959 Y134.951 E.02557
G1 X52.252 Y134.543 E.02558
G1 X51.657 Y133.979 E.02569
G1 X51.228 Y133.272 E.02592
G1 X51.058 Y132.484 E.02527
G1 X51.013 Y131.725 E.02385
G1 X51.058 Y130.966 E.02385
G1 X51.228 Y130.178 E.02527
G1 X51.657 Y129.471 E.02592
G1 X52.252 Y128.908 E.02569
G1 X52.959 Y128.5 E.02558
G1 X53.74 Y128.266 E.02557
G1 X54.518 Y128.22 E.02443
G1 X55.356 Y128.359 E.02665
G1 X56.106 Y128.683 E.02561
G1 X56.761 Y129.17 E.02557
G1 X57.285 Y129.795 E.02557
G1 X57.651 Y130.524 E.02557
G1 X57.825 Y131.259 E.02369
M204 P1250
G1 X58.206 Y131.476 F9000
G1 E-2.24 F2400
;WIPE_START
G1 F7200
G1 X57.839 Y132.133 E-.2768
G1 X57.651 Y132.927 E-.25828
G1 X57.285 Y133.655 E-.25828
G1 X57.044 Y133.942 E-.11864
;WIPE_END
G1 E-.048 F2400
G1 Z.4 F9000
G1 X54.554 Y55.782
M73 P0 R157
G1 Z.2
G1 E3.2 F1500
M204 P800
G1 F1200
G1 X53.74 Y55.734 E.02557
G1 X52.959 Y55.5 E.02557
G1 X52.252 Y55.093 E.02558
G1 X51.657 Y54.529 E.02569
G1 X51.228 Y53.822 E.02592
G1 X51.058 Y53.034 E.02527
G1 X51.013 Y52.275 E.02385
G1 X51.058 Y51.516 E.02385
G1 X51.228 Y50.728 E.02527
G1 X51.657 Y50.021 E.02592
G1 X52.252 Y49.457 E.02569
G1 X52.959 Y49.049 E.02558
G1 X53.74 Y48.816 E.02557
G1 X54.518 Y48.77 E.02443
G1 X55.356 Y48.909 E.02665
G1 X56.106 Y49.233 E.02561
G1 X56.761 Y49.72 E.02557
G1 X57.285 Y50.345 E.02557
G1 X57.651 Y51.073 E.02557
G1 X57.839 Y51.867 E.02557
G1 X57.839 Y52.683 E.02557
G1 X57.651 Y53.476 E.02557
G1 X57.285 Y54.205 E.02557
G1 X56.761 Y54.83 E.02557
G1 X56.106 Y55.317 E.02557
G1 X55.357 Y55.64 E.02557
G1 X54.613 Y55.771 E.02369
M204 P1250
G1 X54.375 Y56.139 F9000
G1 E-2.24 F2400
;WIPE_START
G1 F7200
G1 X53.74 Y55.734 E-.2768
G1 X52.959 Y55.5 E-.25828
G1 X52.252 Y55.093 E-.25835
G1 X51.98 Y54.835 E-.11857
;WIPE_END
G1 E-.048 F2400
G1 Z.4 F9000
G1 X122.137 Y52.275
G1 Z.2
G1 E3.2 F1500
M204 P800
G1 F1200
G1 X122.232 Y51.465 E.02557
G1 X122.511 Y50.698 E.02557
G1 X122.959 Y50.017 E.02557
G1 X123.552 Y49.457 E.02557
G1 X124.259 Y49.049 E.02557
G1 X125.04 Y48.816 E.02557
G1 X125.818 Y48.77 E.02443
G1 X126.656 Y48.909 E.02665
G1 X127.406 Y49.233 E.02561
G1 X128.061 Y49.721 E.0256
G1 X128.583 Y50.354 E.02573
G1 X128.751 Y50.74 E.0132
G1 X128.882 Y51.126 E.01279
G1 X128.976 Y51.898 E.02437
G1 X128.976 Y52.652 E.02363
G1 X128.882 Y53.424 E.02437
G1 X128.751 Y53.81 E.01279
G1 X128.583 Y54.196 E.0132
G1 X128.061 Y54.829 E.02573
G1 X127.406 Y55.317 E.0256
G1 X126.657 Y55.64 E.02557
G1 X125.854 Y55.782 E.02557
G1 X125.04 Y55.734 E.02557
G1 X124.259 Y55.5 E.02557
G1 X123.552 Y55.093 E.02557
G1 X122.959 Y54.533 E.02557
G1 X122.511 Y53.851 E.02557
G1 X122.232 Y53.085 E.02557
G1 X122.144 Y52.335 E.02369
M204 P1250
G1 X121.791 Y52.075 F9000
G1 E-2.24 F2400
;WIPE_START
G1 F7200
G1 X122.232 Y51.465 E-.2768
G1 X122.511 Y50.698 E-.25828
G1 X122.959 Y50.017 E-.25828
G1 X123.232 Y49.76 E-.11864
;WIPE_END
G1 E-.048 F2400
G1 Z.4 F9000
G1 X115.549 Y125.088
G1 Z.2
G1 E3.2 F1500
M204 P800
;TYPE:Perimeter
G1 F1200
G1 X116.314 Y125.188 E.02418
G1 X117.072 Y125.502 E.02573
G1 X117.723 Y126.002 E.02573
G1 X118.223 Y126.653 E.02573
G1 X118.537 Y127.411 E.02573
G1 X118.644 Y128.225 E.02573
G1 X118.537 Y129.039 E.02573
G1 X118.223 Y129.797 E.02573
G1 X117.723 Y130.448 E.02573
G1 X117.072 Y130.948 E.02573
G1 X116.314 Y131.262 E.02573
G1 X115.5 Y131.369 E.02573
G1 X114.686 Y131.262 E.02573
G1 X113.928 Y130.948 E.02573
G1 X113.277 Y130.448 E.02573
G1 X112.777 Y129.797 E.02573
G1 X112.463 Y129.039 E.02573
G1 X112.356 Y128.225 E.02573
G1 X112.463 Y127.411 E.02573
G1 X112.777 Y126.653 E.02573
G1 X113.277 Y126.002 E.02573
G1 X113.928 Y125.502 E.02573
G1 X114.686 Y125.188 E.02573
G1 X115.49 Y125.083 E.02541
M204 P1250
G1 X115.5 Y125.462 F9000
M204 P800
;TYPE:External perimeter
G1 F1200
G1 X116.215 Y125.556 E.02262
G1 X116.882 Y125.832 E.02262
G1 X117.454 Y126.271 E.02262
G1 X117.893 Y126.843 E.02262
G1 X118.169 Y127.51 E.02262
G1 X118.264 Y128.225 E.02262
G1 X118.169 Y128.94 E.02262
G1 X117.893 Y129.607 E.02262
G1 X117.454 Y130.179 E.02262
G1 X116.882 Y130.618 E.02262
G1 X116.215 Y130.894 E.02262
G1 X115.5 Y130.989 E.02262
G1 X114.785 Y130.894 E.02262
G1 X114.451 Y130.756 E.01131
G1 X114.118 Y130.618 E.01131
G1 X113.546 Y130.179 E.02262
G1 X113.107 Y129.607 E.02262
G1 X112.831 Y128.94 E.02262
G1 X112.736 Y128.225 E.02262
G1 X112.831 Y127.51 E.02262
G1 X113.107 Y126.843 E.02262
G1 X113.546 Y126.271 E.02262
G1 X114.118 Y125.832 E.02262
G1 X114.785 Y125.556 E.02262
G1 X115.441 Y125.469 E.02074
M204 P1250
G1 X115.7 Y125.115 F9000
G1 E-2.24 F2400
;WIPE_START
G1 F7200
G1 X116.215 Y125.556 E-.24685
G1 X116.882 Y125.832 E-.22845
G1 X117.454 Y126.271 E-.22845
G1 X117.854 Y126.793 E-.20824
;WIPE_END
G1 E-.048 F2400
G1 Z.4 F9000
G1 X67.637 Y128.274
G1 Z.2
G1 E3.2 F1500
M204 P800
;TYPE:Perimeter
G1 F1200
G1 X67.537 Y129.039 E.02418
G1 X67.223 Y129.797 E.02573
G1 X66.723 Y130.448 E.02573
G1 X66.072 Y130.948 E.02573
G1 X65.314 Y131.262 E.02573
G1 X64.5 Y131.369 E.02573
G1 X63.686 Y131.262 E.02573
G1 X62.928 Y130.948 E.02573
G1 X62.277 Y130.448 E.02573
G1 X61.777 Y129.797 E.02573
G1 X61.463 Y129.039 E.02573
G1 X61.356 Y128.225 E.02573
G1 X61.463 Y127.411 E.02573
G1 X61.777 Y126.653 E.02573
G1 X62.277 Y126.002 E.02573
G1 X62.928 Y125.502 E.02573
G1 X63.686 Y125.188 E.02573
G1 X64.5 Y125.081 E.02573
G1 X65.314 Y125.188 E.02573
G1 X66.072 Y125.502 E.02573
G1 X66.723 Y126.002 E.02573
G1 X67.223 Y126.653 E.02573
G1 X67.537 Y127.411 E.02573
G1 X67.643 Y128.215 E.02541
M204 P1250
G1 X67.264 Y128.225 F9000
M204 P800
;TYPE:External perimeter
G1 F1200
G1 X67.169 Y128.94 E.02262
G1 X66.893 Y129.607 E.02262
G1 X66.454 Y130.179 E.02262
G1 X65.882 Y130.618 E.02262
G1 X65.215 Y130.894 E.02262
G1 X64.5 Y130.989 E.02262
G1 X63.785 Y130.894 E.02262
G1 X63.118 Y130.618 E.02262
G1 X62.546 Y130.179 E.02262
G1 X62.107 Y129.607 E.02262
G1 X61.831 Y128.94 E.02262
G1 X61.736 Y128.225 E.02262
G1 X61.831 Y127.51 E.02262
G1 X62.107 Y126.843 E.02262
G1 X62.546 Y126.271 E.02262
G1 X63.118 Y125.832 E.02262
G1 X63.785 Y125.556 E.02262
G1 X64.5 Y125.462 E.02262
G1 X65.215 Y125.556 E.02262
G1 X65.882 Y125.832 E.02262
G1 X66.454 Y126.271 E.02262
G1 X66.893 Y126.843 E.02262
G1 X67.169 Y127.51 E.02262
G1 X67.256 Y128.166 E.02074
M204 P1250
G1 X67.61 Y128.425 F9000
G1 E-2.24 F2400
;WIPE_START
G1 F7200
G1 X67.169 Y128.94 E-.24685
G1 X66.893 Y129.607 E-.22845
G1 X66.454 Y130.179 E-.22845
G1 X65.932 Y130.58 E-.20824
;WIPE_END
G1 E-.048 F2400
G1 Z.4 F9000
G1 X59.549 Y45.412
G1 Z.2
G1 E3.2 F1500
M204 P800
;TYPE:Perimeter
G1 F1200
G1 X58.686 Y45.312 E.02724
G1 X57.928 Y44.998 E.02573
G1 X57.277 Y44.498 E.02573
G1 X56.777 Y43.847 E.02573
G1 X56.463 Y43.089 E.02573
G1 X56.356 Y42.275 E.02573
G1 X56.463 Y41.461 E.02573
G1 X56.777 Y40.703 E.02573
G1 X57.277 Y40.052 E.02573
G1 X57.928 Y39.552 E.02573
G1 X58.686 Y39.238 E.02573
G1 X59.5 Y39.131 E.02573
G1 X60.314 Y39.238 E.02573
G1 X61.072 Y39.552 E.02573
G1 X61.723 Y40.052 E.02573
G1 X62.223 Y40.703 E.02573
G1 X62.537 Y41.461 E.02573
G1 X62.644 Y42.275 E.02573
G1 X62.537 Y43.089 E.02573
G1 X62.223 Y43.847 E.02573
G1 X61.723 Y44.498 E.02573
G1 X61.072 Y44.998 E.02573
G1 X60.314 Y45.312 E.02573
G1 X59.609 Y45.404 E.0223
M204 P1250
G1 X59.5 Y45.038 F9000
M204 P800
;TYPE:External perimeter
G1 F1200
G1 X58.785 Y44.944 E.02262
G1 X58.118 Y44.668 E.02262
G1 X57.546 Y44.229 E.02262
G1 X57.107 Y43.657 E.02262
G1 X56.831 Y42.99 E.02262
G1 X56.736 Y42.275 E.02262
G1 X56.831 Y41.56 E.02262
G1 X57.107 Y40.893 E.02262
G1 X57.546 Y40.321 E.02262
G1 X58.118 Y39.882 E.02262
G1 X58.785 Y39.606 E.02262
G1 X59.5 Y39.511 E.02262
G1 X60.215 Y39.606 E.02262
G1 X60.882 Y39.882 E.02262
G1 X61.454 Y40.321 E.02262
G1 X61.893 Y40.893 E.02262
G1 X62.169 Y41.56 E.02262
G1 X62.264 Y42.275 E.02262
G1 X62.169 Y42.99 E.02262
G1 X61.893 Y43.657 E.02262
G1 X61.454 Y44.229 E.02262
G1 X60.882 Y44.668 E.02262
G1 X60.215 Y44.944 E.02262
G1 X59.559 Y45.031 E.02074
M204 P1250
G1 X59.3 Y45.385 F9000
G1 E-2.24 F2400
;WIPE_START
G1 F7200
G1 X58.785 Y44.944 E-.24685
G1 X58.118 Y44.668 E-.22845
G1 X57.546 Y44.229 E-.22845
G1 X57.146 Y43.707 E-.20824
;WIPE_END
G1 E-.048 F2400
G1 Z.4 F9000
G1 X117.863 Y42.226
G1 Z.2
G1 E3.2 F1500
M204 P800
;TYPE:Perimeter
G1 F1200
G1 X117.963 Y41.461 E.02418
G1 X118.277 Y40.703 E.02573
G1 X118.777 Y40.052 E.02573
G1 X119.428 Y39.552 E.02573
G1 X120.186 Y39.238 E.02573
G1 X121 Y39.131 E.02573
G1 X121.814 Y39.238 E.02573
G1 X122.572 Y39.552 E.02573
G1 X123.223 Y40.052 E.02573
G1 X123.723 Y40.703 E.02573
G1 X124.037 Y41.461 E.02573
G1 X124.144 Y42.275 E.02573
G1 X124.037 Y43.089 E.02573
G1 X123.723 Y43.847 E.02573
G1 X123.223 Y44.498 E.02573
G1 X122.572 Y44.998 E.02573
G1 X121.814 Y45.312 E.02573
G1 X121 Y45.419 E.02573
G1 X120.186 Y45.312 E.02573
G1 X119.428 Y44.998 E.02573
G1 X118.777 Y44.498 E.02573
G1 X118.277 Y43.847 E.02573
G1 X117.963 Y43.089 E.02573
G1 X117.857 Y42.285 E.02541
M204 P1250
G1 X118.236 Y42.275 F9000
M204 P800
;TYPE:External perimeter
G1 F1200
G1 X118.331 Y41.56 E.02262
G1 X118.607 Y40.893 E.02262
G1 X119.046 Y40.321 E.02262
G1 X119.618 Y39.882 E.02262
G1 X120.285 Y39.606 E.02262
G1 X121 Y39.511 E.02262
G1 X121.715 Y39.606 E.02262
G1 X122.382 Y39.882 E.02262
G1 X122.954 Y40.321 E.02262
G1 X123.393 Y40.893 E.02262
G1 X123.669 Y41.56 E.02262
G1 X123.764 Y42.275 E.02262
G1 X123.669 Y42.99 E.02262
G1 X123.393 Y43.657 E.02262
G1 X122.954 Y44.229 E.02262
G1 X122.382 Y44.668 E.02262
G1 X121.715 Y44.944 E.02262
G1 X121 Y45.038 E.02262
G1 X120.285 Y44.944 E.02262
G1 X119.618 Y44.668 E.02262
G1 X119.046 Y44.229 E.02262
G1 X118.607 Y43.657 E.02262
G1 X118.331 Y42.99 E.02262
G1 X118.244 Y42.334 E.02074
M204 P1250
G1 X117.89 Y42.075 F9000
G1 E-2.24 F2400
;WIPE_START
G1 F7200
G1 X118.331 Y41.56 E-.24685
G1 X118.607 Y40.893 E-.22845
G1 X119.046 Y40.321 E-.22845
G1 X119.568 Y39.92 E-.20824
;WIPE_END
G1 E-.048 F2400
G1 Z.4 F9000
G1 X58.216 Y131.317
G1 Z.2
G1 E3.2 F1500
M204 P800
;TYPE:Perimeter
G1 F1200
G1 X58.008 Y130.394 E.02968
G1 X57.602 Y129.586 E.02834
G1 X57.021 Y128.894 E.02834
G1 X56.296 Y128.354 E.02834
G1 X55.464 Y127.995 E.02843
G1 X54.538 Y127.841 E.02942
G1 X53.674 Y127.892 E.02713
G1 X52.808 Y128.151 E.02834
G1 X52.025 Y128.603 E.02836
G1 X51.361 Y129.232 E.02867
G1 X51.177 Y129.536 E.01115
G1 X51.187 Y54.893 E2.34039
G1 X51.173 Y54.458 E.01363
G1 X51.361 Y54.768 E.01136
G1 X52.025 Y55.397 E.02867
G1 X52.808 Y55.849 E.02836
G1 X53.674 Y56.108 E.02834
G1 X54.576 Y56.161 E.02834
G1 X55.466 Y56.004 E.02834
G1 X56.296 Y55.646 E.02834
G1 X57.021 Y55.106 E.02834
G1 X57.312 Y54.76 E.01417
G1 X57.602 Y54.414 E.01417
G1 X58.008 Y53.606 E.02834
G1 X58.216 Y52.727 E.02834
G1 X58.216 Y51.823 E.02834
G1 X58.008 Y50.944 E.02834
G1 X57.602 Y50.136 E.02834
G1 X57.021 Y49.444 E.02834
G1 X56.296 Y48.904 E.02834
G1 X55.464 Y48.545 E.02843
G1 X54.538 Y48.391 E.02942
G1 X53.674 Y48.442 E.02713
G1 X52.808 Y48.701 E.02834
G1 X52.025 Y49.153 E.02836
G1 X51.361 Y49.782 E.02867
G1 X51.179 Y50.082 E.01099
G1 X51.187 Y34.767 E.48019
G1 X52.492 Y33.462 E.05785
G1 X127.508 Y33.462 E2.35209
G1 X128.813 Y34.767 E.05785
G1 X128.82 Y50.049 E.47916
G1 X128.323 Y49.445 E.02451
G1 X127.596 Y48.904 E.02842
G1 X126.764 Y48.545 E.02843
G1 X125.838 Y48.391 E.02942
G1 X124.974 Y48.442 E.02713
G1 X124.108 Y48.701 E.02834
G1 X123.326 Y49.153 E.02834
G1 X122.668 Y49.773 E.02834
G1 X122.172 Y50.528 E.02834
G1 X121.862 Y51.377 E.02834
G1 X121.758 Y52.275 E.02834
G1 X121.862 Y53.173 E.02834
G1 X122.172 Y54.022 E.02834
G1 X122.668 Y54.777 E.02834
G1 X123.326 Y55.397 E.02834
G1 X124.108 Y55.849 E.02834
G1 X124.974 Y56.108 E.02834
G1 X125.876 Y56.161 E.02834
G1 X126.766 Y56.004 E.02834
G1 X127.596 Y55.646 E.02834
G1 X128.323 Y55.104 E.02842
G1 X128.826 Y54.494 E.02479
G1 X128.824 Y129.504 E2.35186
G1 X128.323 Y128.896 E.0247
G1 X127.596 Y128.354 E.02842
G1 X126.764 Y127.995 E.02843
G1 X125.838 Y127.841 E.02942
G1 X124.974 Y127.892 E.02713
G1 X124.108 Y128.151 E.02834
G1 X123.326 Y128.603 E.02834
G1 X122.668 Y129.223 E.02834
G1 X122.172 Y129.978 E.02834
G1 X121.862 Y130.827 E.02834
G1 X121.758 Y131.725 E.02834
G1 X121.862 Y132.623 E.02834
G1 X122.172 Y133.472 E.02834
G1 X122.668 Y134.227 E.02834
G1 X123.326 Y134.847 E.02834
G1 X124.108 Y135.299 E.02834
G1 X124.974 Y135.558 E.02834
G1 X125.876 Y135.611 E.02834
G1 X126.766 Y135.454 E.02834
G1 X127.596 Y135.096 E.02834
G1 X128.323 Y134.555 E.02842
G1 X128.827 Y133.943 E.02485
