; generated by PrusaSlicer 2.6.0+MacOS-arm64 on 2023-07-03 at 13:10:59 UTC


;
;

;
;
; 

; external perimeters extrusion width = 0.45mm
; perimeters extrusion width = 0.45mm
; infill extrusion width = 0.45mm
; solid infill extrusion width = 0.45mm
; top infill extrusion width = 0.40mm
; first layer extrusion width = 0.42mm

M73 P0 R159
M201 X2500 Y2500 Z400 E5000 ; sets maximum accelerations, mm/sec^2
M203 X180 Y180 Z12 E80 ; sets maximum feedrates, mm / sec
M204 P1250 R1250 T2500 ; sets acceleration (P, T) and retract acceleration (R), mm/sec^2
M205 X8.00 Y8.00 Z2.00 E10.00 ; sets the jerk limits, mm/sec
M205 S0 T0 ; sets the minimum extruding and travel feed rate, mm/sec
;TYPE:Custom
M862.3 P "MINI" ; printer model check
G90 ; use absolute coordinates
M83 ; extruder relative mode
M104 S155 ; set extruder temp for bed leveling
M140 S80 ; set bed temp
M109 R155 ; wait for bed leveling temp
M190 S80 ; wait for bed temp
M204 T1250 ; set travel acceleration
G28 ; home all without mesh bed level
G29 ; mesh bed leveling 
M204 T2500 ; restore travel acceleration
M104 S218 ; set extruder temp
G92 E0
G1 Y-2 X179 F2400
G1 Z0.3 F720
M109 S218 ; wait for extruder temp

; intro line
G1 Z0.3 E2 F900
G1 Z2 E6 F500
G1 Z0.4 X85 E12 F900
G1 Z0.2 X30 E12 F900
M73 P0 R158
G1 Z0.1 X25 E0 F900
G92 E0

M221 S95 ; set flow
G21 ; set units to millimeters
G90 ; use absolute coordinates
M83 ; use relative distances for extrusion
M900 K0.2 ; Filament gcode LA 1.5
; ; Filament gcode LA 1.0
M107
;LAYER_CHANGE
;Z:0.2
;HEIGHT:0.2
;BEFORE_LAYER_CHANGE
G92 E0.0
;0.2


G1 E-3.2 F2400
G1 Z.2 F9000
;AFTER_LAYER_CHANGE
;0.2
; printing object pixel_pump_lower_bottom.stl id:0 copy 0
G1 Z.4
G1 X128.778 Y129.457
G1 Z.2
G1 E3.2 F1500
M204 P800
;TYPE:Perimeter
;WIDTH:0.419999
G1 F1200
G1 X128.268 Y128.855 E.02474
G1 X127.536 Y128.328 E.02828
G1 X126.695 Y127.984 E.02849
G1 X125.775 Y127.845 E.02917
G1 X124.911 Y127.911 E.02717
G1 X124.051 Y128.184 E.02829
G1 X123.278 Y128.648 E.02827
G1 X122.632 Y129.278 E.02829
G1 X122.208 Y129.923 E.0242
G1 X122.031 Y130.364 E.0149
G1 X121.855 Y130.893 E.01748
G1 X121.765 Y131.791 E.0283
G1 X121.885 Y132.685 E.02828
G1 X122.208 Y133.527 E.02828
G1 X122.716 Y134.272 E.02827
G1 X123.383 Y134.88 E.0283
G1 X124.172 Y135.318 E.02829
G1 X125.04 Y135.562 E.02827
G1 X125.941 Y135.599 E.02827
G1 X126.827 Y135.428 E.02829
G1 X127.65 Y135.056 E.02832
G1 X128.37 Y134.497 E.02858
G1 X128.773 Y133.999 E.02009
G1 X128.763 Y146.938 E.40569
G1 X51.237 Y146.938 E2.43077
G1 X51.227 Y133.986 E.4061
G1 X51.417 Y134.268 E.01066
G1 X52.083 Y134.88 E.02836
G1 X52.872 Y135.318 E.02829
G1 X53.74 Y135.562 E.02827
G1 X54.641 Y135.599 E.02827
G1 X55.527 Y135.428 E.02829
G1 X56.349 Y135.057 E.02828
G1 X57.064 Y134.506 E.0283
G1 X57.632 Y133.805 E.02829
G1 X58.023 Y132.992 E.02829
G1 X58.201 Y132.241 E.0242
G1 X58.216 Y131.752 E.01534
G1 X58.201 Y131.209 E.01703
G1 X58.023 Y130.458 E.0242
G1 X57.847 Y130.073 E.01327
G1 X57.56 Y129.535 E.01912
G1 X57.064 Y128.944 E.02419
G1 X56.709 Y128.661 E.01423
G1 X56.236 Y128.328 E.01814
G1 X55.395 Y127.984 E.02849
G1 X54.475 Y127.845 E.02917
G1 X53.611 Y127.911 E.02717
G1 X52.751 Y128.184 E.02829
G1 X51.976 Y128.65 E.02835
G1 X51.417 Y129.182 E.0242
G1 X51.223 Y129.475 E.01102
G1 X51.237 Y128.765 E.02227
G1 X51.227 Y54.536 E2.32739
G1 X51.417 Y54.818 E.01066
G1 X52.083 Y55.43 E.02836
G1 X52.872 Y55.868 E.02829
G1 X53.74 Y56.112 E.02827
G1 X54.641 Y56.149 E.02827
G1 X55.527 Y55.978 E.02829
G1 X56.349 Y55.606 E.02829
G1 X57.064 Y55.056 E.02828
G1 X57.632 Y54.355 E.02829
G1 X58.023 Y53.542 E.02829
G1 X58.216 Y52.661 E.02828
G1 X58.201 Y51.759 E.02829
G1 X57.978 Y50.885 E.02828
G1 X57.56 Y50.085 E.0283
G1 X56.968 Y49.404 E.02829
G1 X56.236 Y48.878 E.02826
G1 X55.395 Y48.534 E.02849
G1 X54.831 Y48.44 E.01793
G1 X54.403 Y48.399 E.01348
G1 X53.611 Y48.461 E.02491
G1 X52.751 Y48.734 E.02829
G1 X51.976 Y49.2 E.02835
G1 X51.417 Y49.732 E.0242
G1 X51.23 Y50.009 E.01048
G1 X51.237 Y34.787 E.47727
G1 X52.512 Y33.512 E.05654
G1 X127.488 Y33.512 E2.35082
G1 X128.763 Y34.787 E.05654
G1 X128.77 Y49.997 E.4769
G1 X128.268 Y49.405 E.02434
G1 X127.536 Y48.878 E.02828
G1 X126.695 Y48.534 E.02849
G1 X125.775 Y48.395 E.02917
G1 X124.911 Y48.461 E.02717
G1 X124.051 Y48.734 E.02829
G1 X123.383 Y49.12 E.02419
G1 X122.999 Y49.461 E.0161
G1 X122.632 Y49.828 E.01627
G1 X122.208 Y50.473 E.0242
G1 X122.057 Y50.844 E.01256
G1 X121.855 Y51.443 E.01982
G1 X121.765 Y52.209 E.02418
G1 X121.774 Y52.412 E.00637
G1 X121.885 Y53.235 E.02604
G1 X122.149 Y53.96 E.02419
G1 X122.388 Y54.351 E.01437
G1 X122.716 Y54.822 E.018
G1 X123.383 Y55.43 E.0283
G1 X124.172 Y55.868 E.02829
G1 X125.04 Y56.112 E.02827
G1 X125.941 Y56.149 E.02827
G1 X126.827 Y55.978 E.02829
G1 X127.65 Y55.606 E.02832
G1 X128.37 Y55.047 E.02858
G1 X128.773 Y54.549 E.02009
G1 X128.763 Y127.835 E2.29783
G1 X128.777 Y129.397 E.04898
M204 P1250
G1 E-2.24 F2400
;WIPE_START
G1 F7200
G1 X128.268 Y128.855 E-.23545
G1 X127.536 Y128.328 E-.28562
G1 X126.695 Y127.984 E-.28773
G1 X126.223 Y127.913 E-.1512
;WIPE_END
G1 Z.4 F9000
G1 X129.324 Y131.281
G1 Z.2
G1 E3.2 F1500
M204 P800
;TYPE:External perimeter
;WIDTH:0.421839
G1 F1200
G1 X129.325 Y131.364 E.00262
;WIDTH:0.422938
G1 X129.316 Y132.255 E.02816
G1 X129.201 Y133.237 E.03124
;WIDTH:0.421708
G1 X129.159 Y133.747 E.01612
;WIDTH:0.419999
G1 X129.143 Y134.253 E.01587
G1 X129.14 Y147.315 E.40955
G1 X50.86 Y147.315 E2.45441
G1 X50.857 Y134.247 E.40974
G1 X50.842 Y133.737 E.016
;WIDTH:0.446424
G1 X50.811 Y133.225 E.01721
G1 X50.711 Y132.488 E.02495
;WIDTH:0.418154
G1 X50.665 Y131.692 E.02488
;WIDTH:0.428887
G1 X50.725 Y130.774 E.02952
G1 X50.839 Y129.786 E.03192
;WIDTH:0.419999
G1 X50.86 Y128.765 E.03202
G1 X50.848 Y54.406 E2.33147
;WIDTH:0.44942
G1 X50.822 Y53.849 E.01885
G1 X50.696 Y52.899 E.03239
;WIDTH:0.420915
G1 X50.672 Y52.246 E.02054
;WIDTH:0.423525
G1 X50.711 Y51.436 E.02566
;WIDTH:0.429046
G1 X50.839 Y50.438 E.0323
G1 X50.856 Y49.93 E.01632
;WIDTH:0.419999
G1 X50.86 Y34.631 E.47969
G1 X52.356 Y33.135 E.06634
G1 X127.644 Y33.135 E2.3606
G1 X129.14 Y34.631 E.06634
G1 X129.145 Y49.938 E.47994
G1 X129.169 Y50.45 E.01607
;WIDTH:0.422099
G1 X129.328 Y51.946 E.04743
;WIDTH:0.423286
G1 X129.303 Y52.917 E.03072
G1 X129.187 Y53.906 E.03149
;WIDTH:0.419999
G1 X129.152 Y54.417 E.01606
G1 X129.14 Y55.415 E.03129
G1 X129.14 Y127.835 E2.27067
G1 X129.163 Y129.784 E.06111
;WIDTH:0.425899
G1 X129.317 Y131.222 E.04605
M204 P1250
G1 E-2.24 F2400
;WIPE_START
G1 F7200
G1 X129.325 Y131.364 E-.04504
G1 X129.316 Y132.255 E-.28216
G1 X129.201 Y133.237 E-.31309
G1 X129.159 Y133.747 E-.16205
G1 X129.143 Y134.245 E-.15766
;WIPE_END
G1 Z.4 F9000
G1 X128.562 Y129.789
G1 Z.2
G1 E3.2 F1500
M204 P800
;WIDTH:0.431314
G1 F1200
G1 X128.857 Y130.562 E.02672
G1 X128.946 Y131.303 E.0241
;WIDTH:0.421839
G1 X128.949 Y132.088 E.02473
;WIDTH:0.423492
G1 X128.863 Y132.845 E.02411
G1 X128.592 Y133.606 E.02556
;WIDTH:0.419999
G1 X128.319 Y133.961 E.01404
G1 X128.043 Y134.293 E.01354
G1 X127.424 Y134.754 E.0242
G1 X126.678 Y135.082 E.02555
G1 X125.876 Y135.228 E.02556
G1 X125.062 Y135.186 E.02556
G1 X124.28 Y134.957 E.02555
G1 X123.571 Y134.554 E.02557
G1 X122.975 Y133.998 E.02556
G1 X122.523 Y133.32 E.02555
G1 X122.239 Y132.556 E.02556
G1 X122.14 Y131.747 E.02555
G1 X122.229 Y130.937 E.02555
G1 X122.503 Y130.169 E.02557
G1 X122.947 Y129.485 E.02557
G1 X123.536 Y128.923 E.02553
G1 X124.24 Y128.511 E.02558
G1 X125.019 Y128.272 E.02555
G1 X125.797 Y128.222 E.02444
G1 X126.634 Y128.356 E.02658
G1 X127.386 Y128.674 E.0256
G1 X128.043 Y129.157 E.02557
G1 X128.524 Y129.743 E.02377
M204 P1250
G1 X128.962 Y129.793 F9000
G1 E-2.24 F2400
;WIPE_START
G1 F7200
G1 X128.857 Y130.562 E-.27997
G1 X128.946 Y131.303 E-.23634
G1 X128.949 Y132.088 E-.24859
G1 X128.879 Y132.7 E-.1951
;WIPE_END
G1 Z.4 F9000
G1 X118.517 Y129.04
G1 Z.2
G1 E3.2 F1500
M204 P800
;TYPE:Perimeter
G1 F1200
G1 X118.263 Y129.699 E.02214
G1 X117.974 Y130.121 E.01604
G1 X117.664 Y130.493 E.01518
G1 X117.131 Y130.902 E.02107
G1 X116.382 Y131.233 E.02568
G1 X115.574 Y131.359 E.02564
G1 X114.76 Y131.272 E.02567
G1 X113.997 Y130.976 E.02566
G1 X113.336 Y130.493 E.02567
G1 X112.823 Y129.856 E.02564
G1 X112.471 Y129.048 E.02763
G1 X112.366 Y128.299 E.02371
G1 X112.454 Y127.485 E.02567
G1 X112.749 Y126.722 E.02565
G1 X113.232 Y126.061 E.02567
G1 X113.869 Y125.548 E.02564
G1 X114.618 Y125.217 E.02568
G1 X115.426 Y125.091 E.02564
G1 X116.24 Y125.179 E.02567
G1 X117.003 Y125.474 E.02565
G1 X117.664 Y125.957 E.02567
G1 X118.177 Y126.594 E.02564
G1 X118.508 Y127.343 E.02568
G1 X118.634 Y128.151 E.02564
G1 X118.539 Y128.984 E.02629
M204 P1250
G1 X118.173 Y128.916 F9000
M204 P800
;TYPE:External perimeter
G1 F1200
G1 X117.915 Y129.554 E.02158
G1 X117.469 Y130.159 E.02357
G1 X116.901 Y130.603 E.0226
G1 X116.238 Y130.885 E.02259
G1 X115.525 Y130.985 E.02257
G1 X114.809 Y130.898 E.02261
G1 X114.141 Y130.628 E.02259
G1 X113.566 Y130.194 E.02259
G1 X113.122 Y129.627 E.02258
G1 X112.833 Y128.944 E.02325
G1 X112.74 Y128.25 E.02195
G1 X112.827 Y127.534 E.02261
G1 X113.097 Y126.866 E.02259
G1 X113.531 Y126.291 E.02259
G1 X114.099 Y125.847 E.0226
G1 X114.762 Y125.565 E.02259
G1 X115.475 Y125.465 E.02257
G1 X116.191 Y125.552 E.02261
G1 X116.859 Y125.822 E.02259
G1 X117.434 Y126.256 E.02259
G1 X117.878 Y126.824 E.0226
G1 X118.16 Y127.487 E.02259
G1 X118.26 Y128.2 E.02257
G1 X118.18 Y128.856 E.02072
M204 P1250
G1 X118.458 Y129.196 F9000
G1 E-2.24 F2400
;WIPE_START
G1 F7200
G1 X117.915 Y129.554 E-.23643
G1 X117.469 Y130.159 E-.23801
G1 X116.901 Y130.603 E-.2283
G1 X116.238 Y130.885 E-.22815
G1 X116.147 Y130.898 E-.02911
;WIPE_END
G1 Z.4 F9000
G1 X61.79 Y129.785
G1 Z.2
G1 E3.2 F1500
M204 P800
;TYPE:Perimeter
G1 F1200
G1 X61.575 Y129.31 E.01635
G1 X61.454 Y128.965 E.01146
G1 X61.366 Y128.299 E.02106
G1 X61.429 Y127.672 E.01976
G1 X61.492 Y127.343 E.0105
G1 X61.749 Y126.722 E.02107
G1 X62.232 Y126.061 E.02567
G1 X62.869 Y125.548 E.02564
G1 X63.618 Y125.217 E.02568
G1 X64.426 Y125.091 E.02564
G1 X65.24 Y125.179 E.02567
G1 X65.382 Y125.217 E.00461
G1 X66.003 Y125.474 E.02107
G1 X66.664 Y125.957 E.02567
G1 X67.177 Y126.594 E.02564
G1 X67.508 Y127.343 E.02568
G1 X67.634 Y128.151 E.02564
G1 X67.546 Y128.965 E.02567
G1 X67.251 Y129.728 E.02565
G1 X66.768 Y130.389 E.02567
G1 X66.131 Y130.902 E.02564
G1 X65.382 Y131.233 E.02568
G1 X64.574 Y131.359 E.02564
G1 X63.76 Y131.272 E.02567
G1 X62.997 Y130.976 E.02566
G1 X62.582 Y130.683 E.01593
G1 X62.232 Y130.389 E.01433
G1 X61.815 Y129.839 E.02164
M204 P1250
G1 X62.122 Y129.627 F9000
M204 P800
;TYPE:External perimeter
G1 F1200
G1 X61.827 Y128.916 E.02414
G1 X61.74 Y128.25 E.02106
G1 X61.84 Y127.487 E.02413
G1 X62.097 Y126.866 E.02107
G1 X62.531 Y126.291 E.02259
G1 X63.099 Y125.847 E.0226
G1 X63.762 Y125.565 E.02259
G1 X64.475 Y125.465 E.02257
G1 X65.191 Y125.552 E.02261
G1 X65.859 Y125.822 E.02259
G1 X66.434 Y126.256 E.02259
G1 X66.878 Y126.824 E.0226
G1 X67.16 Y127.487 E.02259
G1 X67.26 Y128.2 E.02257
G1 X67.173 Y128.916 E.02261
G1 X66.903 Y129.584 E.02259
G1 X66.469 Y130.159 E.02259
G1 X65.901 Y130.603 E.0226
G1 X65.238 Y130.885 E.02259
G1 X64.525 Y130.985 E.02257
G1 X63.809 Y130.898 E.02261
G1 X63.141 Y130.628 E.02259
G1 X62.566 Y130.194 E.02259
G1 X62.159 Y129.674 E.0207
M204 P1250
G1 X61.722 Y129.628 F9000
G1 E-2.24 F2400
;WIPE_START
G1 F7200
G1 X61.827 Y128.916 E-.26205
G1 X61.74 Y128.25 E-.21269
G1 X61.84 Y127.487 E-.24368
G1 X62.097 Y126.866 E-.21282
G1 X62.152 Y126.794 E-.02876
;WIPE_END
G1 Z.4 F9000
G1 X57.295 Y129.814
G1 Z.2
G1 E3.2 F1500
M204 P800
G1 F1200
G1 X57.641 Y130.504 E.0242
G1 X57.839 Y131.339 E.02691
G1 X57.839 Y132.111 E.02421
G1 X57.656 Y132.905 E.02555
G1 X57.295 Y133.636 E.02556
G1 X56.775 Y134.263 E.02554
G1 X56.124 Y134.754 E.02557
G1 X55.378 Y135.082 E.02555
G1 X54.576 Y135.228 E.02556
G1 X53.762 Y135.186 E.02556
G1 X52.98 Y134.957 E.02555
G1 X52.271 Y134.554 E.02557
G1 X51.677 Y133.995 E.02557
G1 X51.414 Y133.556 E.01605
;WIDTH:0.450732
G1 X51.222 Y133.234 E.01271
G1 X51.118 Y132.675 E.01928
;WIDTH:0.430537
G1 X51.039 Y131.745 E.03008
;WIDTH:0.419993
G1 X51.083 Y130.986 E.02384
;WIDTH:0.452703
G1 X51.212 Y130.246 E.02559
G1 X51.643 Y129.499 E.02939
;WIDTH:0.419999
G1 X52.236 Y128.923 E.02592
G1 X52.94 Y128.511 E.02558
G1 X53.762 Y128.264 E.02691
G1 X54.497 Y128.222 E.02308
G1 X55.334 Y128.356 E.02658
G1 X56.086 Y128.674 E.0256
G1 X56.743 Y129.157 E.02557
G1 X57.257 Y129.768 E.02503
M204 P1250
G1 X57.694 Y129.791 F9000
G1 E-2.24 F2400
;WIPE_START
G1 F7200
G1 X57.641 Y130.504 E-.26288
G1 X57.839 Y131.339 E-.27175
G1 X57.839 Y132.111 E-.24447
G1 X57.711 Y132.668 E-.1809
;WIPE_END
G1 Z.4 F9000
G1 X51.222 Y50.766
G1 Z.2
G1 E3.2 F1500
M204 P800
;WIDTH:0.452065
G1 F1200
G1 X51.584 Y50.15 E.02431
;WIDTH:0.419999
G1 X51.677 Y50.005 E.0054
G1 X52.236 Y49.473 E.0242
G1 X52.94 Y49.06 E.02559
G1 X53.719 Y48.822 E.02554
G1 X54.425 Y48.776 E.02218
G1 X55.334 Y48.906 E.02879
G1 X56.086 Y49.224 E.0256
G1 X56.743 Y49.707 E.02557
G1 X57.271 Y50.328 E.02556
G1 X57.641 Y51.054 E.02555
G1 X57.836 Y51.858 E.02594
G1 X57.839 Y52.661 E.02518
G1 X57.656 Y53.455 E.02555
G1 X57.295 Y54.186 E.02556
G1 X56.775 Y54.813 E.02554
G1 X56.124 Y55.304 E.02557
G1 X55.378 Y55.631 E.02554
G1 X54.576 Y55.778 E.02557
G1 X53.762 Y55.736 E.02556
G1 X52.98 Y55.507 E.02555
G1 X52.271 Y55.104 E.02557
G1 X51.677 Y54.545 E.02557
;WIDTH:0.443952
G1 X51.248 Y53.843 E.02743
G1 X51.087 Y53.04 E.02731
;WIDTH:0.420724
G1 X51.046 Y52.409 E.01986
G1 X51.082 Y51.536 E.02745
;WIDTH:0.452065
G1 X51.211 Y50.825 E.02458
M204 P1250
G1 E-2.24 F2400
;WIPE_START
G1 F7200
G1 X51.584 Y50.15 E-.24421
G1 X51.677 Y50.005 E-.05455
G1 X52.236 Y49.473 E-.24437
G1 X52.94 Y49.06 E-.25846
G1 X53.418 Y48.914 E-.15841
;WIPE_END
G1 Z.4 F9000
G1 X57.983 Y45.005
G1 Z.2
G1 E3.2 F1500
M204 P800
;TYPE:Perimeter
;WIDTH:0.419999
G1 F1200
G1 X57.869 Y44.952 E.00394
G1 X57.336 Y44.543 E.02107
G1 X56.823 Y43.906 E.02564
G1 X56.492 Y43.157 E.02568
G1 X56.366 Y42.349 E.02564
G1 X56.454 Y41.535 E.02567
M73 P0 R157
G1 X56.749 Y40.772 E.02565
G1 X57.232 Y40.111 E.02567
G1 X57.869 Y39.598 E.02564
G1 X58.618 Y39.267 E.02568
G1 X59.426 Y39.141 E.02564
G1 X59.574 Y39.141 E.00464
G1 X60.24 Y39.228 E.02106
G1 X61.003 Y39.524 E.02566
G1 X61.664 Y40.007 E.02567
G1 X62.177 Y40.644 E.02564
G1 X62.508 Y41.392 E.02565
G1 X62.634 Y42.201 E.02567
G1 X62.546 Y43.015 E.02567
G1 X62.251 Y43.778 E.02565
G1 X61.768 Y44.439 E.02567
G1 X61.131 Y44.952 E.02564
G1 X60.382 Y45.283 E.02568
G1 X59.574 Y45.409 E.02564
G1 X58.76 Y45.321 E.02567
G1 X58.279 Y45.143 E.01608
G1 X58.037 Y45.031 E.00836
M204 P1250
G1 X58.141 Y44.678 F9000
M204 P800
;TYPE:External perimeter
G1 F1200
G1 X57.566 Y44.244 E.02259
G1 X57.122 Y43.676 E.0226
G1 X56.84 Y43.013 E.02259
G1 X56.74 Y42.3 E.02257
G1 X56.827 Y41.584 E.02261
G1 X57.097 Y40.916 E.02259
G1 X57.531 Y40.341 E.02259
G1 X58.099 Y39.897 E.0226
G1 X58.762 Y39.615 E.02259
G1 X59.525 Y39.515 E.02413
G1 X60.191 Y39.602 E.02106
G1 X60.859 Y39.872 E.02259
G1 X61.434 Y40.306 E.02259
G1 X61.878 Y40.873 E.02258
G1 X62.16 Y41.537 E.02262
G1 X62.26 Y42.25 E.02257
G1 X62.173 Y42.966 E.02261
G1 X61.903 Y43.634 E.02259
G1 X61.469 Y44.209 E.02259
G1 X60.901 Y44.653 E.0226
G1 X60.238 Y44.935 E.02259
G1 X59.525 Y45.035 E.02257
G1 X58.809 Y44.948 E.02261
G1 X58.197 Y44.7 E.0207
M204 P1250
G1 X57.797 Y44.881 F9000
G1 E-2.24 F2400
;WIPE_START
G1 F7200
G1 X57.566 Y44.244 E-.24653
G1 X57.122 Y43.676 E-.2283
G1 X56.84 Y43.013 E-.22815
G1 X56.74 Y42.3 E-.22799
G1 X56.751 Y42.209 E-.02903
;WIPE_END
G1 Z.4 F9000
G1 X117.983 Y41.459
G1 Z.2
G1 E3.2 F1500
M204 P800
;TYPE:Perimeter
G1 F1200
G1 X118.249 Y40.772 E.0231
G1 X118.732 Y40.111 E.02567
G1 X119.369 Y39.598 E.02564
G1 X120.118 Y39.267 E.02568
G1 X120.926 Y39.141 E.02564
G1 X121.74 Y39.228 E.02567
G1 X122.503 Y39.524 E.02566
G1 X123.03 Y39.904 E.02037
G1 X123.268 Y40.111 E.00989
G1 X123.677 Y40.644 E.02107
G1 X124.008 Y41.392 E.02565
G1 X124.134 Y42.201 E.02567
G1 X124.046 Y43.015 E.02567
G1 X123.751 Y43.778 E.02565
G1 X123.268 Y44.439 E.02567
G1 X122.631 Y44.952 E.02564
G1 X121.882 Y45.283 E.02568
G1 X121.074 Y45.409 E.02564
