; generated by PrusaSlicer 2.5.0-alpha2+arm64 on 2022-06-30 at 13:23:53 UTC


;
;

;
;
; 

; external perimeters extrusion width = 0.45mm
; perimeters extrusion width = 0.45mm
; infill extrusion width = 0.45mm
; solid infill extrusion width = 0.45mm
; top infill extrusion width = 0.40mm
; first layer extrusion width = 0.42mm

M73 P0 R152
M201 X2500 Y2500 Z400 E5000 ; sets maximum accelerations, mm/sec^2
M203 X180 Y180 Z12 E80 ; sets maximum feedrates, mm / sec
M204 P1250 R1250 T2500 ; sets acceleration (P, T) and retract acceleration (R), mm/sec^2
M205 X8.00 Y8.00 Z2.00 E10.00 ; sets the jerk limits, mm/sec
M205 S0 T0 ; sets the minimum extruding and travel feed rate, mm/sec
M107
;TYPE:Custom
M862.3 P "MINI" ; printer model check
G90 ; use absolute coordinates
M83 ; extruder relative mode
M104 S155 ; set extruder temp for bed leveling
M140 S80 ; set bed temp
M109 R155 ; wait for bed leveling temp
M190 S80 ; wait for bed temp
M204 T1250 ; set travel acceleration
G28 ; home all without mesh bed level
G29 ; mesh bed leveling 
M204 T2500 ; restore travel acceleration
M104 S222 ; set extruder temp
G92 E0
G1 Y-2 X179 F2400
G1 Z0.3 F720
M109 S222 ; wait for extruder temp

; intro line
G1 Z0.3 E2 F900
G1 Z2 E6 F500
G1 Z0.4 X85 E12 F900
G1 Z0.2 X30 E12 F900
G1 Z0.1 X25 E0 F900
G92 E0

M221 S95 ; set flow
G21 ; set units to millimeters
G90 ; use absolute coordinates
M83 ; use relative distances for extrusion
M900 K0.2 ; Filament gcode LA 1.5
; ; Filament gcode LA 1.0
M107
;LAYER_CHANGE
;Z:0.2
;HEIGHT:0.2
;BEFORE_LAYER_CHANGE
G92 E0.0
;0.2


G1 E-3.2 F2400
G1 Z.2 F9000
;AFTER_LAYER_CHANGE
;0.2
G1 Z.4
G1 X48.394 Y32.625
G1 Z.2
G1 E3.2 F1500
M204 P800
;TYPE:Skirt/Brim
;WIDTH:0.42
G1 F1200
G1 X50.35 Y30.669 E.08674
G1 X52.031 Y29.973 E.05704
G1 X127.969 Y29.973 E2.38098
G1 X129.65 Y30.669 E.05704
G1 X131.606 Y32.625 E.08674
G1 X132.302 Y34.306 E.05704
G1 X132.302 Y147.725 E3.55618
G1 X131.91 Y149.032 E.04278
G1 X130.865 Y149.909 E.04278
G1 X129.925 Y150.102 E.03008
G1 X50.075 Y150.102 E2.50364
G1 X48.768 Y149.711 E.04278
G1 X47.892 Y148.665 E.04278
G1 X47.698 Y147.725 E.03008
G1 X47.698 Y34.306 E3.55618
G1 X48.371 Y32.681 E.05516
M204 P1250
; printing object pixel_pump_lower_bottom.stl id:0 copy 0
G1 E-2.24 F2400
;WIPE_START
G1 F7200
G1 X50.35 Y30.669 E-.89358
G1 X50.404 Y30.647 E-.01842
;WIPE_END
G1 E-.048 F2400
G1 Z.4 F9000
G1 X51.187 Y34.767
G1 Z.2
G1 E3.2 F1500
M204 P800
;TYPE:Perimeter
;WIDTH:0.419999
G1 F1200
G1 X51.839 Y34.114 E.02892
G1 X52.492 Y33.462 E.02893
G1 X74.334 Y33.462 E.68485
G1 X127.508 Y33.462 E1.66724
G1 X128.813 Y34.767 E.05785
G1 X128.816 Y49.337 E.45685
G1 X128.82 Y50.049 E.02231
G1 X128.732 Y49.942 E.00435
G1 X128.268 Y49.404 E.02226
G1 X127.536 Y48.878 E.02829
G1 X126.695 Y48.534 E.02846
G1 X125.775 Y48.395 E.02919
G1 X124.911 Y48.461 E.02717
G1 X124.051 Y48.734 E.02829
G1 X123.383 Y49.12 E.02419
G1 X122.999 Y49.461 E.0161
G1 X122.632 Y49.828 E.01629
G1 X122.208 Y50.473 E.02419
G1 X122.057 Y50.844 E.01256
G1 X121.855 Y51.443 E.01983
G1 X121.765 Y52.209 E.02419
G1 X121.774 Y52.412 E.00635
G1 X121.885 Y53.235 E.02605
G1 X122.208 Y54.077 E.02829
G1 X122.716 Y54.822 E.02829
G1 X123.383 Y55.43 E.02829
G1 X124.172 Y55.868 E.02829
G1 X125.04 Y56.112 E.02829
G1 X125.941 Y56.149 E.02829
G1 X126.827 Y55.978 E.02828
G1 X127.649 Y55.606 E.02829
G1 X128.367 Y55.051 E.02844
G1 X128.826 Y54.494 E.02263
G1 X128.814 Y54.901 E.01277
G1 X128.813 Y127.809 E2.28597
G1 X128.813 Y128.77 E.03011
G1 X128.824 Y129.504 E.02301
G1 X128.268 Y128.855 E.0268
G1 X127.536 Y128.328 E.02829
G1 X126.695 Y127.984 E.02846
G1 X125.775 Y127.845 E.02919
G1 X124.911 Y127.911 E.02717
G1 X124.051 Y128.184 E.02829
G1 X123.278 Y128.648 E.02828
G1 X122.632 Y129.278 E.02829
G1 X122.208 Y129.923 E.02419
G1 X122.031 Y130.364 E.01489
G1 X121.855 Y130.893 E.0175
G1 X121.765 Y131.791 E.02829
G1 X121.885 Y132.685 E.02829
G1 X122.208 Y133.527 E.02828
G1 X122.716 Y134.272 E.02829
G1 X123.383 Y134.88 E.02829
G1 X124.172 Y135.318 E.02828
G1 X125.04 Y135.562 E.02829
G1 X125.941 Y135.599 E.02829
G1 X126.827 Y135.428 E.02828
G1 X127.649 Y135.056 E.02829
G1 X128.367 Y134.502 E.02844
G1 X128.827 Y133.943 E.0227
G1 X128.815 Y134.25 E.00964
G1 X128.813 Y146.938 E.39782
G1 X103.612 Y146.938 E.79017
G1 X51.187 Y146.938 E1.64373
G1 X51.186 Y135.141 E.36988
G1 X51.172 Y133.906 E.03874
G1 X51.416 Y134.27 E.01377
G1 X52.083 Y134.88 E.02833
G1 X52.872 Y135.318 E.02829
G1 X53.74 Y135.562 E.02829
G1 X54.641 Y135.599 E.02829
G1 X55.527 Y135.428 E.02828
G1 X56.349 Y135.057 E.02829
G1 X57.064 Y134.506 E.02828
G1 X57.632 Y133.805 E.02829
G1 X58.023 Y132.992 E.02828
G1 X58.201 Y132.241 E.02419
G1 X58.216 Y131.752 E.01534
G1 X58.201 Y131.209 E.01704
G1 X58.023 Y130.458 E.02419
G1 X57.847 Y130.073 E.01327
G1 X57.56 Y129.535 E.01912
G1 X57.064 Y128.944 E.02419
G1 X56.709 Y128.661 E.01422
G1 X56.236 Y128.328 E.01816
G1 X55.395 Y127.984 E.02846
G1 X54.475 Y127.845 E.02919
G1 X53.611 Y127.911 E.02717
G1 X52.751 Y128.184 E.02829
G1 X51.977 Y128.649 E.02832
G1 X51.416 Y129.18 E.0242
G1 X51.177 Y129.536 E.01346
G1 X51.187 Y128.761 E.0243
G1 X51.187 Y126.878 E.05905
G1 X51.187 Y123.02 E.12097
G1 X51.187 Y119.787 E.10136
G1 X51.187 Y119.052 E.02303
G1 X51.187 Y100.078 E.59493
G1 X51.187 Y94.94 E.16107
G1 X51.187 Y75.781 E.60072
G1 X51.187 Y74.258 E.04775
G1 X51.187 Y71.974 E.07162
G1 X51.187 Y70.445 E.04794
G1 X51.187 Y69.687 E.02375
G1 X51.187 Y55.691 E.43886
G1 X51.173 Y54.458 E.03865
G1 X51.416 Y54.82 E.01367
G1 X52.083 Y55.43 E.02833
G1 X52.872 Y55.868 E.02829
G1 X53.74 Y56.112 E.02829
G1 X54.641 Y56.149 E.02829
G1 X55.527 Y55.978 E.02828
G1 X56.349 Y55.606 E.02829
G1 X57.064 Y55.056 E.02829
G1 X57.632 Y54.355 E.02829
G1 X58.023 Y53.542 E.02828
G1 X58.216 Y52.661 E.02829
G1 X58.201 Y51.759 E.02829
G1 X57.978 Y50.885 E.02829
G1 X57.56 Y50.085 E.02829
G1 X56.968 Y49.404 E.02829
G1 X56.236 Y48.878 E.02828
G1 X55.395 Y48.534 E.02846
G1 X54.831 Y48.44 E.01793
G1 X54.373 Y48.401 E.01443
G1 X53.611 Y48.461 E.02397
G1 X52.751 Y48.734 E.02829
G1 X51.977 Y49.199 E.02832
G1 X51.416 Y49.73 E.0242
G1 X51.179 Y50.082 E.0133
G1 X51.184 Y49.912 E.00533
G1 X51.187 Y34.827 E.47298
M204 P1250
G1 E-2.24 F2400
;WIPE_START
G1 F7200
G1 X51.839 Y34.114 E-.30583
;WIPE_END
G1 E-.65417 F2400
G1 Z.4 F9000
G1 X51.234 Y133.306
G1 Z.2
M73 P0 R151
G1 E3.2 F1500
M204 P800
;TYPE:External perimeter
;WIDTH:0.446185
G1 F1200
G1 X51.093 Y132.673 E.02175
;WIDTH:0.43194
G1 X51.014 Y131.743 E.03021
;WIDTH:0.419881
G1 X51.014 Y131.736 E.0002
;WIDTH:0.41951
G1 X51.058 Y130.98 E.02371
;WIDTH:0.450501
G1 X51.174 Y130.356 E.02153
G1 X51.234 Y130.144 E.00745
;WIDTH:0.446225
G1 X51.644 Y129.493 E.02582
;WIDTH:0.419999
G1 X52.236 Y128.923 E.02576
G1 X52.94 Y128.511 E.02557
G1 X53.719 Y128.272 E.02556
G1 X54.497 Y128.222 E.02444
G1 X55.334 Y128.356 E.02658
G1 X56.086 Y128.674 E.02562
G1 X56.743 Y129.157 E.02556
G1 X57.085 Y129.557 E.01652
G1 X57.295 Y129.814 E.0104
G1 X57.641 Y130.504 E.02419
G1 X57.768 Y131.019 E.01663
G1 X57.839 Y131.339 E.01029
G1 X57.839 Y132.111 E.02419
G1 X57.656 Y132.905 E.02556
G1 X57.295 Y133.636 E.02555
G1 X56.775 Y134.263 E.02556
G1 X56.124 Y134.754 E.02555
G1 X55.378 Y135.082 E.02556
G1 X54.576 Y135.228 E.02555
G1 X53.762 Y135.186 E.02556
G1 X52.98 Y134.957 E.02555
G1 X52.271 Y134.554 E.02556
G1 X51.676 Y133.997 E.02557
;WIDTH:0.446185
G1 X51.266 Y133.357 E.02548
M204 P1250
G1 E-2.24 F2400
;WIPE_START
G1 F7200
G1 X51.093 Y132.673 E-.2233
;WIPE_END
G1 E-.7367 F2400
G1 Z.4 F9000
G1 X50.64 Y131.692
G1 Z.2
G1 E3.2 F1500
M204 P800
;WIDTH:0.429835
G1 F1200
G1 X50.7 Y130.771 E.0297
;WIDTH:0.451746
G1 X50.775 Y130.276 E.01702
G1 X50.797 Y129.763 E.01745
;WIDTH:0.419999
G1 X50.81 Y128.761 E.0314
G1 X50.81 Y126.878 E.05905
G1 X50.81 Y123.02 E.12097
G1 X50.81 Y119.787 E.10136
G1 X50.81 Y119.052 E.02303
G1 X50.81 Y100.078 E.59493
G1 X50.81 Y94.94 E.16107
G1 X50.81 Y75.781 E.60072
G1 X50.81 Y74.258 E.04775
G1 X50.81 Y71.974 E.07162
G1 X50.81 Y70.445 E.04794
G1 X50.81 Y69.687 E.02375
G1 X50.81 Y55.691 E.43886
G1 X50.805 Y54.756 E.02932
;WIDTH:0.457623
G1 X50.795 Y53.862 E.03084
G1 X50.67 Y52.883 E.03401
;WIDTH:0.421039
G1 X50.646 Y52.245 E.02008
;WIDTH:0.42484
G1 X50.687 Y51.418 E.02629
;WIDTH:0.431434
G1 X50.798 Y50.418 E.03252
G1 X50.807 Y49.912 E.01635
;WIDTH:0.419999
G1 X50.81 Y34.61 E.47975
G1 X51.573 Y33.848 E.03382
G1 X52.336 Y33.085 E.03383
G1 X74.334 Y33.085 E.68975
G1 X127.664 Y33.085 E1.67213
G1 X129.19 Y34.61 E.06764
G1 X129.193 Y49.337 E.46174
G1 X129.193 Y49.918 E.0182
G1 X129.21 Y50.43 E.01606
;WIDTH:0.427758
G1 X129.271 Y51.104 E.02166
G1 X129.353 Y51.926 E.02645
;WIDTH:0.423563
G1 X129.331 Y52.9 E.03082
;WIDTH:0.4282
G1 X129.256 Y53.544 E.02076
G1 X129.21 Y54.289 E.02391
;WIDTH:0.419999
G1 X129.191 Y54.901 E.01921
G1 X129.19 Y127.809 E2.28597
G1 X129.19 Y128.779 E.0304
G1 X129.206 Y129.779 E.03135
;WIDTH:0.430671
G1 X129.275 Y130.553 E.02508
G1 X129.35 Y131.36 E.02613
;WIDTH:0.423108
G1 X129.342 Y132.252 E.02819
G1 X129.233 Y133.243 E.03151
;WIDTH:0.422292
G1 X129.213 Y133.743 E.0158
;WIDTH:0.419999
G1 X129.192 Y134.25 E.01591
G1 X129.19 Y147.315 E.40964
G1 X103.612 Y147.315 E.80199
G1 X50.81 Y147.315 E1.65555
G1 X50.809 Y135.141 E.3817
G1 X50.807 Y134.211 E.02918
;WIDTH:0.453603
G1 X50.782 Y133.225 E.03366
G1 X50.685 Y132.493 E.0252
;WIDTH:0.419881
G1 X50.637 Y131.755 E.02321
G1 X50.637 Y131.752 E.00008
M204 P1250
G1 E-2.24 F2400
;WIPE_START
G1 F7200
G1 X50.7 Y130.771 E-.31133
;WIPE_END
G1 E-.64867 F2400
G1 Z.4 F9000
G1 X61.42 Y128.711
G1 Z.2
G1 E3.2 F1500
M204 P800
;TYPE:Perimeter
;WIDTH:0.419999
G1 F1200
G1 X61.366 Y128.299 E.01305
G1 X61.429 Y127.672 E.01975
G1 X61.492 Y127.343 E.01052
G1 X61.749 Y126.722 E.02106
G1 X62.232 Y126.061 E.02566
G1 X62.869 Y125.548 E.02566
G1 X63.618 Y125.217 E.02566
G1 X64.426 Y125.091 E.02566
G1 X65.24 Y125.179 E.02566
G1 X66.003 Y125.474 E.02566
G1 X66.664 Y125.957 E.02566
G1 X67.177 Y126.594 E.02566
G1 X67.508 Y127.343 E.02566
G1 X67.634 Y128.151 E.02566
G1 X67.546 Y128.965 E.02566
G1 X67.251 Y129.728 E.02566
G1 X66.768 Y130.389 E.02566
G1 X66.131 Y130.902 E.02566
G1 X65.382 Y131.233 E.02566
G1 X64.574 Y131.359 E.02566
G1 X63.76 Y131.272 E.02566
G1 X62.997 Y130.976 E.02566
G1 X62.582 Y130.683 E.01593
G1 X62.232 Y130.389 E.01434
G1 X61.823 Y129.856 E.02106
G1 X61.575 Y129.31 E.01881
G1 X61.454 Y128.965 E.01146
G1 X61.428 Y128.771 E.00614
M204 P1250
G1 X61.827 Y128.916 F9000
M204 P800
;TYPE:External perimeter
G1 F1200
G1 X61.74 Y128.25 E.02106
G1 X61.803 Y127.721 E.01668
G1 X61.84 Y127.487 E.00744
G1 X62.097 Y126.866 E.02106
G1 X62.531 Y126.291 E.02259
G1 X63.099 Y125.847 E.02259
G1 X63.762 Y125.565 E.02259
G1 X64.475 Y125.465 E.02259
G1 X65.191 Y125.552 E.02259
G1 X65.859 Y125.822 E.02259
G1 X66.434 Y126.256 E.02259
G1 X66.878 Y126.824 E.0226
G1 X67.16 Y127.487 E.02259
G1 X67.26 Y128.2 E.02259
G1 X67.173 Y128.916 E.02259
G1 X66.903 Y129.584 E.02259
G1 X66.469 Y130.159 E.02259
G1 X65.901 Y130.603 E.02259
G1 X65.238 Y130.885 E.02259
G1 X64.525 Y130.985 E.02259
G1 X63.809 Y130.898 E.02259
G1 X63.141 Y130.628 E.02259
G1 X62.566 Y130.194 E.02259
G1 X62.122 Y129.627 E.02259
G1 X61.924 Y129.165 E.01574
G1 X61.849 Y128.972 E.00651
M204 P1250
G1 E-2.24 F2400
;WIPE_START
G1 F7200
G1 X61.74 Y128.25 E-.23124
;WIPE_END
G1 E-.72876 F2400
G1 Z.4 F9000
G1 X118.423 Y129.284
G1 Z.2
G1 E3.2 F1500
M204 P800
;TYPE:Perimeter
G1 F1200
G1 X118.263 Y129.699 E.01393
G1 X117.974 Y130.121 E.01606
G1 X117.664 Y130.493 E.01519
G1 X117.131 Y130.902 E.02106
G1 X116.382 Y131.233 E.02566
G1 X115.574 Y131.359 E.02566
G1 X114.76 Y131.272 E.02566
G1 X113.997 Y130.976 E.02566
G1 X113.336 Y130.493 E.02566
G1 X112.823 Y129.856 E.02566
G1 X112.492 Y129.108 E.02566
G1 X112.366 Y128.299 E.02566
G1 X112.454 Y127.485 E.02566
G1 X112.749 Y126.722 E.02566
G1 X113.232 Y126.061 E.02566
G1 X113.628 Y125.733 E.01614
G1 X113.997 Y125.474 E.01413
G1 X114.618 Y125.217 E.02106
G1 X115.426 Y125.091 E.02566
G1 X116.24 Y125.179 E.02566
G1 X117.003 Y125.474 E.02566
G1 X117.664 Y125.957 E.02566
G1 X118.177 Y126.594 E.02566
G1 X118.508 Y127.343 E.02566
G1 X118.634 Y128.151 E.02566
G1 X118.546 Y128.965 E.02566
G1 X118.445 Y129.228 E.00885
M204 P1250
G1 X118.173 Y128.916 F9000
M204 P800
;TYPE:External perimeter
G1 F1200
G1 X117.915 Y129.554 E.02159
G1 X117.469 Y130.159 E.02357
G1 X116.901 Y130.603 E.02259
G1 X116.238 Y130.885 E.02259
G1 X115.525 Y130.985 E.02259
G1 X114.809 Y130.898 E.02259
G1 X114.141 Y130.628 E.02259
G1 X113.566 Y130.194 E.02259
G1 X113.122 Y129.627 E.02259
G1 X112.84 Y128.963 E.02259
G1 X112.74 Y128.25 E.02259
G1 X112.827 Y127.534 E.02259
G1 X113.097 Y126.866 E.02259
G1 X113.531 Y126.291 E.02259
G1 X114.099 Y125.847 E.02259
G1 X114.762 Y125.565 E.02259
G1 X115.475 Y125.465 E.02259
G1 X116.191 Y125.552 E.02259
G1 X116.859 Y125.822 E.02259
G1 X117.434 Y126.256 E.02259
G1 X117.878 Y126.824 E.02259
G1 X118.16 Y127.487 E.02259
G1 X118.26 Y128.2 E.02259
G1 X118.18 Y128.856 E.02071
M204 P1250
G1 E-2.24 F2400
;WIPE_START
G1 F7200
G1 X117.915 Y129.554 E-.23648
;WIPE_END
G1 E-.72352 F2400
G1 Z.4 F9000
G1 X122.503 Y130.169
G1 Z.2
G1 E3.2 F1500
M204 P800
G1 F1200
G1 X122.947 Y129.485 E.02556
G1 X123.536 Y128.923 E.02555
G1 X124.24 Y128.511 E.02555
G1 X125.019 Y128.272 E.02556
G1 X125.797 Y128.222 E.02444
G1 X126.634 Y128.356 E.02658
G1 X127.386 Y128.674 E.02562
G1 X128.043 Y129.157 E.02556
G1 X128.566 Y129.784 E.0256
;WIDTH:0.437926
G1 X128.882 Y130.547 E.02714
G1 X128.971 Y131.298 E.02482
;WIDTH:0.422016
G1 X128.974 Y132.091 E.02499
;WIDTH:0.426417
G1 X128.888 Y132.855 E.02452
G1 X128.597 Y133.615 E.02596
;WIDTH:0.419999
G1 X128.076 Y134.262 E.02605
G1 X127.424 Y134.754 E.02561
G1 X126.678 Y135.082 E.02556
G1 X125.876 Y135.228 E.02555
G1 X125.062 Y135.186 E.02556
G1 X124.28 Y134.957 E.02556
G1 X123.571 Y134.554 E.02555
G1 X122.975 Y133.998 E.02556
G1 X122.523 Y133.32 E.02556
G1 X122.239 Y132.556 E.02555
G1 X122.14 Y131.747 E.02556
G1 X122.229 Y130.937 E.02556
G1 X122.483 Y130.226 E.02367
M204 P1250
G1 E-2.24 F2400
;WIPE_START
G1 F7200
G1 X122.947 Y129.485 E-.27662
;WIPE_END
G1 E-.68338 F2400
G1 Z.4 F9000
G1 X126.634 Y48.906
G1 Z.2
G1 E3.2 F1500
M204 P800
G1 F1200
G1 X127.386 Y49.224 E.02562
G1 X128.043 Y49.707 E.02556
G1 X128.441 Y50.182 E.01943
G1 X128.597 Y50.385 E.00804
;WIDTH:0.434992
G1 X128.88 Y51.098 E.025
G1 X128.974 Y51.887 E.0259
;WIDTH:0.418377
G1 X128.972 Y52.64 E.02353
;WIDTH:0.426036
G1 X128.888 Y53.404 E.02449
G1 X128.597 Y54.165 E.02593
;WIDTH:0.419999
G1 X128.273 Y54.572 E.01631
G1 X128.043 Y54.843 E.01115
G1 X127.424 Y55.304 E.02419
G1 X126.678 Y55.631 E.02556
G1 X125.876 Y55.778 E.02555
G1 X125.062 Y55.736 E.02556
G1 X124.28 Y55.507 E.02556
G1 X123.571 Y55.104 E.02555
G1 X122.975 Y54.548 E.02556
G1 X122.523 Y53.87 E.02556
G1 X122.239 Y53.106 E.02555
G1 X122.148 Y52.368 E.02332
G1 X122.14 Y52.297 E.00224
G1 X122.207 Y51.676 E.01959
G1 X122.239 Y51.444 E.00733
G1 X122.503 Y50.719 E.02419
G1 X122.947 Y50.035 E.02556
G1 X123.536 Y49.472 E.02556
G1 X124.24 Y49.06 E.02555
G1 X125.019 Y48.822 E.02556
G1 X125.797 Y48.771 E.02444
G1 X126.575 Y48.896 E.0247
M204 P1250
G1 E-2.24 F2400
;WIPE_START
G1 F7200
G1 X127.386 Y49.224 E-.27721
;WIPE_END
G1 E-.68279 F2400
G1 Z.4 F9000
G1 X122.315 Y45.092
G1 Z.2
G1 E3.2 F1500
M204 P800
;TYPE:Perimeter
G1 F1200
G1 X121.882 Y45.283 E.01484
G1 X121.074 Y45.409 E.02566
G1 X120.26 Y45.321 E.02566
G1 X119.746 Y45.129 E.0172
G1 X119.369 Y44.952 E.01306
G1 X118.836 Y44.543 E.02106
G1 X118.366 Y43.963 E.02342
G1 X118.249 Y43.778 E.00686
G1 X117.992 Y43.157 E.02106
G1 X117.866 Y42.349 E.02566
G1 X117.954 Y41.535 E.02566
G1 X118.249 Y40.772 E.02566
G1 X118.732 Y40.111 E.02566
G1 X119.369 Y39.598 E.02566
G1 X120.118 Y39.267 E.02566
G1 X120.926 Y39.141 E.02566
G1 X121.74 Y39.228 E.02566
G1 X122.503 Y39.524 E.02566
G1 X123.033 Y39.906 E.02048
G1 X123.268 Y40.111 E.00979
G1 X123.677 Y40.644 E.02106
G1 X124.008 Y41.392 E.02566
G1 X124.134 Y42.201 E.02566
G1 X124.046 Y43.015 E.02566
G1 X123.751 Y43.778 E.02566
G1 X123.268 Y44.439 E.02566
G1 X122.631 Y44.952 E.02566
G1 X122.37 Y45.068 E.00894
M204 P1250
G1 X122.401 Y44.653 F9000
M204 P800
;TYPE:External perimeter
