; generated by PrusaSlicer 2.6.0+MacOS-arm64 on 2023-07-03 at 13:09:22 UTC


;
;

;
;
; 

; external perimeters extrusion width = 0.45mm
; perimeters extrusion width = 0.45mm
; infill extrusion width = 0.45mm
; solid infill extrusion width = 0.45mm
; top infill extrusion width = 0.40mm
; first layer extrusion width = 0.42mm

; external perimeters extrusion width = 0.45mm
; perimeters extrusion width = 0.45mm
; infill extrusion width = 0.45mm
; solid infill extrusion width = 0.45mm
; top infill extrusion width = 0.40mm
; first layer extrusion width = 0.42mm

M73 P0 R70
M201 X2500 Y2500 Z400 E5000 ; sets maximum accelerations, mm/sec^2
M203 X180 Y180 Z12 E80 ; sets maximum feedrates, mm / sec
M204 P1250 R1250 T2500 ; sets acceleration (P, T) and retract acceleration (R), mm/sec^2
M205 X8.00 Y8.00 Z2.00 E10.00 ; sets the jerk limits, mm/sec
M205 S0 T0 ; sets the minimum extruding and travel feed rate, mm/sec
;TYPE:Custom
M862.3 P "MINI" ; printer model check
G90 ; use absolute coordinates
M83 ; extruder relative mode
M104 S155 ; set extruder temp for bed leveling
M140 S80 ; set bed temp
M109 R155 ; wait for bed leveling temp
M190 S80 ; wait for bed temp
M204 T1250 ; set travel acceleration
G28 ; home all without mesh bed level
G29 ; mesh bed leveling 
M204 T2500 ; restore travel acceleration
M104 S218 ; set extruder temp
G92 E0
G1 Y-2 X179 F2400
G1 Z0.3 F720
M109 S218 ; wait for extruder temp

; intro line
G1 Z0.3 E2 F900
G1 Z2 E6 F500
G1 Z0.4 X85 E12 F900
G1 Z0.2 X30 E12 F900
G1 Z0.1 X25 E0 F900
G92 E0

M221 S95 ; set flow
G21 ; set units to millimeters
G90 ; use absolute coordinates
M83 ; use relative distances for extrusion
M900 K0.2 ; Filament gcode LA 1.5
; ; Filament gcode LA 1.0
M107
;LAYER_CHANGE
;Z:0.2
;HEIGHT:0.2
;BEFORE_LAYER_CHANGE
G92 E0.0
;0.2


G1 E-3.2 F2400
G1 Z.2 F9000
;AFTER_LAYER_CHANGE
;0.2
; printing object pixel_pump_ui_lid.stl id:0 copy 0
G1 Z.4
G1 X88.839 Y63.265
G1 Z.2
G1 E3.2 F1500
M204 P800
;TYPE:Perimeter
;WIDTH:0.56861
G1 F1200
G1 X88.684 Y63.001 E.01338
G1 X88.275 Y62.523 E.0275
G1 X87.864 Y62.189 E.02315
G1 X88.839 Y62.194 E.04262
G1 X88.839 Y63.205 E.04419
M204 P1250
G1 E-2.24 F2400
;WIPE_START
G1 F7200
G1 X88.684 Y63.001 E-.08113
G1 X88.275 Y62.523 E-.19921
G1 X87.864 Y62.189 E-.16771
G1 X88.839 Y62.194 E-.30875
G1 X88.839 Y62.836 E-.2032
;WIPE_END
G1 Z.4 F9000
G1 X88.913 Y66.111
G1 Z.2
G1 E3.2 F1500
M204 P800
;WIDTH:0.419999
G1 F1200
G1 X88.913 Y112.389 E1.45101
G1 X88.626 Y111.876 E.01843
G1 X88.228 Y111.408 E.01926
G1 X87.746 Y111.026 E.01928
G1 X87.198 Y110.746 E.0193
G1 X86.598 Y110.577 E.01954
G1 X85.952 Y110.533 E.0203
G1 X85.384 Y110.599 E.01793
G1 X84.799 Y110.788 E.01928
G1 X84.262 Y111.088 E.01929
G1 X83.793 Y111.486 E.01929
G1 X83.412 Y111.968 E.01926
G1 X83.132 Y112.515 E.01927
G1 X82.962 Y113.123 E.01979
G1 X82.914 Y113.719 E.01875
G1 X82.985 Y114.33 E.01929
G1 X83.174 Y114.915 E.01928
G1 X83.474 Y115.452 E.01929
G1 X83.872 Y115.92 E.01926
G1 X84.354 Y116.302 E.01928
G1 X84.901 Y116.582 E.01927
G1 X85.492 Y116.75 E.01926
G1 X86.105 Y116.799 E.01928
G1 X86.716 Y116.728 E.01929
G1 X87.301 Y116.539 E.01928
G1 X87.838 Y116.24 E.01927
G1 X88.306 Y115.842 E.01926
G1 X88.626 Y115.452 E.01582
G1 X88.913 Y114.939 E.01843
G1 X88.913 Y117.877 E.09212
G1 X50.583 Y117.876 E1.20181
G1 X50.57 Y115.715 E.06776
G1 X50.72 Y115.901 E.00749
G1 X51.203 Y116.299 E.01962
G1 X51.751 Y116.581 E.01932
G1 X52.342 Y116.75 E.01927
G1 X52.955 Y116.799 E.01928
G1 X53.566 Y116.728 E.01929
G1 X54.151 Y116.539 E.01928
G1 X54.688 Y116.24 E.01927
G1 X55.156 Y115.841 E.01928
G1 X55.538 Y115.359 E.01928
G1 X55.818 Y114.812 E.01927
G1 X55.986 Y114.221 E.01926
G1 X56.035 Y113.608 E.01928
G1 X55.964 Y112.998 E.01926
G1 X55.775 Y112.413 E.01928
G1 X55.476 Y111.876 E.01927
G1 X55.156 Y111.486 E.01582
G1 X54.982 Y111.329 E.00735
G1 X54.539 Y110.995 E.0174
G1 X54.029 Y110.74 E.01788
G1 X53.381 Y110.571 E.021
G1 X52.802 Y110.532 E.0182
G1 X52.234 Y110.599 E.01793
G1 X51.647 Y110.789 E.01935
G1 X51.103 Y111.097 E.0196
G1 X50.72 Y111.426 E.01583
G1 X50.569 Y111.613 E.00754
G1 X50.587 Y110.688 E.02901
G1 X50.587 Y67.806 E1.34453
G1 X50.569 Y66.887 E.02882
M73 P0 R69
G1 X50.721 Y67.074 E.00756
G1 X51.203 Y67.472 E.0196
G1 X51.751 Y67.754 E.01932
G1 X52.343 Y67.922 E.01929
G1 X52.991 Y67.968 E.02037
G1 X53.566 Y67.901 E.01815
G1 X54.166 Y67.704 E.0198
G1 X54.688 Y67.412 E.01875
G1 X55.156 Y67.014 E.01926
G1 X55.538 Y66.532 E.01928
G1 X55.818 Y65.985 E.01927
G1 X55.986 Y65.394 E.01926
G1 X56.035 Y64.781 E.01928
G1 X55.964 Y64.17 E.01929
G1 X55.776 Y63.585 E.01927
G1 X55.476 Y63.048 E.01929
G1 X55.078 Y62.58 E.01926
G1 X54.688 Y62.26 E.01582
G1 X54.437 Y62.114 E.0091
G1 X84.501 Y62.121 E.94263
G1 X84.262 Y62.26 E.00867
G1 X83.794 Y62.659 E.01928
G1 X83.412 Y63.141 E.01928
G1 X83.132 Y63.688 E.01927
G1 X82.964 Y64.279 E.01926
G1 X82.915 Y64.892 E.01928
G1 X82.986 Y65.502 E.01926
G1 X83.175 Y66.088 E.01931
G1 X83.474 Y66.624 E.01924
G1 X83.872 Y67.093 E.01929
G1 X84.354 Y67.474 E.01926
G1 X84.901 Y67.754 E.01927
G1 X85.493 Y67.922 E.01929
G1 X86.105 Y67.972 E.01925
G1 X86.716 Y67.901 E.01929
G1 X87.301 Y67.712 E.01928
G1 X87.838 Y67.413 E.01927
G1 X88.306 Y67.014 E.01928
G1 X88.626 Y66.624 E.01582
G1 X88.884 Y66.164 E.01654
M204 P1250
G1 E-2.24 F2400
;WIPE_START
G1 F7200
G1 X88.886 Y69.196 E-.96
;WIPE_END
G1 Z.4 F9000
G1 X88.688 Y64.017
G1 Z.2
G1 E3.2 F1500
M204 P800
;TYPE:External perimeter
;WIDTH:0.479415
G1 F1200
G1 X88.782 Y64.271 E.00983
G1 X88.836 Y64.815 E.01984
;WIDTH:0.496732
G1 X88.799 Y65.361 E.02065
G1 X88.703 Y65.618 E.01035
;WIDTH:0.458366
G1 X88.607 Y65.876 E.00951
;WIDTH:0.419999
G1 X88.355 Y66.355 E.01697
G1 X88.015 Y66.775 E.01694
G1 X87.599 Y67.121 E.01697
G1 X87.123 Y67.379 E.01698
G1 X86.607 Y67.54 E.01695
G1 X86.032 Y67.597 E.01812
G1 X85.53 Y67.547 E.01582
G1 X85.011 Y67.394 E.01697
G1 X84.532 Y67.142 E.01697
G1 X84.111 Y66.801 E.01699
G1 X83.765 Y66.385 E.01697
G1 X83.507 Y65.91 E.01695
G1 X83.347 Y65.393 E.01697
G1 X83.29 Y64.855 E.01696
G1 X83.339 Y64.316 E.01697
G1 X83.493 Y63.797 E.01697
G1 X83.745 Y63.318 E.01697
G1 X84.085 Y62.898 E.01694
G1 X84.501 Y62.552 E.01697
G1 X84.978 Y62.294 E.017
;WIDTH:0.432227
G1 X85.496 Y62.134 E.01755
G1 X85.997 Y62.103 E.01625
;WIDTH:0.433144
G1 X86.561 Y62.126 E.01832
G1 X87.086 Y62.28 E.01775
;WIDTH:0.419999
G1 X87.568 Y62.531 E.01704
G1 X87.989 Y62.872 E.01699
G1 X88.335 Y63.288 E.01697
G1 X88.593 Y63.763 E.01695
;WIDTH:0.449707
G1 X88.667 Y63.961 E.00715
M204 P1250
G1 E-2.24 F2400
;WIPE_START
G1 F7200
G1 X88.782 Y64.271 E-.1047
G1 X88.836 Y64.815 E-.17311
G1 X88.799 Y65.361 E-.1733
G1 X88.703 Y65.618 E-.08688
G1 X88.607 Y65.876 E-.08717
G1 X88.355 Y66.355 E-.17139
G1 X88.03 Y66.756 E-.16345
;WIPE_END
G1 Z.4 F9000
G1 X85.072 Y72.693
G1 Z.2
G1 E3.2 F1500
M204 P800
;TYPE:Perimeter
;WIDTH:0.419999
G1 F1200
G1 X85.241 Y73.155 E.01542
G1 X85.312 Y73.739 E.01845
G1 X85.312 Y79.761 E.18882
G1 X85.26 Y80.267 E.01595
G1 X85.109 Y80.748 E.01581
G1 X84.849 Y81.222 E.01695
G1 X84.495 Y81.63 E.01694
G1 X83.857 Y82.07 E.0243
G1 X83.32 Y82.266 E.01792
G1 X82.736 Y82.337 E.01845
G1 X73.214 Y82.337 E.29856
G1 X72.63 Y82.266 E.01845
G1 X72.119 Y82.086 E.01699
G1 X71.687 Y81.828 E.01578
G1 X71.296 Y81.443 E.01721
G1 X71.101 Y81.221 E.00926
G1 X70.84 Y80.747 E.01697
G1 X70.684 Y80.229 E.01696
G1 X70.638 Y79.761 E.01474
G1 X70.638 Y74.212 E.17398
G1 X70.709 Y73.155 E.03322
G1 X70.889 Y72.644 E.01699
G1 X71.145 Y72.214 E.01569
G1 X71.637 Y71.716 E.02195
G1 X72.119 Y71.414 E.01783
G1 X72.63 Y71.234 E.01699
G1 X73.214 Y71.163 E.01845
G1 X82.736 Y71.163 E.29856
G1 X83.315 Y71.233 E.01829
G1 X83.802 Y71.399 E.01613
G1 X84.293 Y71.697 E.01801
G1 X84.698 Y72.089 E.01767
G1 X85.052 Y72.636 E.02043
M204 P1250
G1 X84.73 Y72.825 F9000
M204 P800
;TYPE:External perimeter
G1 F1200
G1 X84.891 Y73.311 E.01605
G1 X84.935 Y73.739 E.01349
G1 X84.935 Y79.761 E.18882
G1 X84.882 Y80.228 E.01474
G1 X84.735 Y80.667 E.01452
G1 X84.444 Y81.125 E.01701
G1 X84.179 Y81.408 E.01216
G1 X83.65 Y81.755 E.01984
G1 X83.164 Y81.916 E.01605
G1 X82.736 Y81.96 E.01349
G1 X73.214 Y81.96 E.29856
G1 X72.747 Y81.907 E.01474
G1 X72.308 Y81.76 E.01452
G1 X71.904 Y81.518 E.01477
G1 X71.457 Y81.071 E.01982
G1 X71.199 Y80.63 E.01602
G1 X71.059 Y80.189 E.01451
G1 X71.015 Y79.761 E.01349
G1 X71.015 Y74.212 E.17398
G1 X71.042 Y73.646 E.01777
G1 X71.068 Y73.272 E.01175
G1 X71.268 Y72.743 E.01773
G1 X71.457 Y72.43 E.01146
G1 X71.904 Y71.982 E.01984
G1 X72.345 Y71.724 E.01602
G1 X72.786 Y71.584 E.01451
G1 X73.214 Y71.54 E.01349
G1 X82.736 Y71.54 E.29856
G1 X83.203 Y71.593 E.01474
G1 X83.661 Y71.752 E.0152
G1 X84.075 Y72.009 E.01528
G1 X84.383 Y72.296 E.0132
G1 X84.697 Y72.775 E.01796
M204 P1250
G1 X85.128 Y72.859 F9000
G1 E-2.24 F2400
;WIPE_START
G1 F7200
G1 X84.891 Y73.311 E-.18051
G1 X84.935 Y73.739 E-.13625
G1 X84.935 Y75.77 E-.64324
;WIPE_END
G1 Z.4 F9000
G1 X67.946 Y81.67
G1 Z.2
G1 E3.2 F1500
M204 P800
;TYPE:Perimeter
G1 F1200
G1 X67.357 Y82.07 E.02232
G1 X66.82 Y82.266 E.01792
G1 X66.236 Y82.337 E.01845
G1 X56.714 Y82.337 E.29856
G1 X56.13 Y82.266 E.01845
G1 X55.619 Y82.086 E.01699
G1 X55.183 Y81.825 E.01593
G1 X54.69 Y81.337 E.02175
G1 X54.389 Y80.856 E.01779
G1 X54.209 Y80.345 E.01699
G1 X54.141 Y79.82 E.0166
G1 X54.138 Y73.739 E.19067
G1 X54.184 Y73.271 E.01474
G1 X54.34 Y72.753 E.01696
G1 X54.601 Y72.278 E.01699
G1 X54.931 Y71.896 E.01583
G1 X55.593 Y71.43 E.02538
G1 X56.13 Y71.234 E.01792
G1 X56.655 Y71.166 E.0166
G1 X66.236 Y71.163 E.30041
G1 X66.82 Y71.234 E.01845
G1 X67.321 Y71.409 E.01664
G1 X67.793 Y71.696 E.01732
G1 X68.198 Y72.089 E.01769
G1 X68.545 Y72.618 E.01984
G1 X68.741 Y73.155 E.01792
G1 X68.809 Y73.68 E.0166
G1 X68.812 Y79.761 E.19067
G1 X68.741 Y80.345 E.01845
G1 X68.561 Y80.856 E.01699
G1 X68.279 Y81.318 E.01697
G1 X67.987 Y81.626 E.01331
M204 P1250
G1 X67.679 Y81.408 F9000
M204 P800
;TYPE:External perimeter
G1 F1200
G1 X67.15 Y81.755 E.01984
G1 X66.664 Y81.916 E.01605
G1 X66.236 Y81.96 E.01349
G1 X56.714 Y81.96 E.29856
G1 X56.247 Y81.907 E.01474
G1 X55.732 Y81.715 E.01723
G1 X55.404 Y81.518 E.012
G1 X54.955 Y81.069 E.01991
G1 X54.699 Y80.63 E.01593
G1 X54.559 Y80.189 E.01451
G1 X54.515 Y79.761 E.01349
G1 X54.515 Y73.739 E.18882
G1 X54.559 Y73.31 E.01352
G1 X54.715 Y72.833 E.01574
G1 X54.951 Y72.436 E.01448
G1 X55.271 Y72.092 E.01473
G1 X55.8 Y71.745 E.01984
G1 X56.286 Y71.584 E.01605
G1 X57.118 Y71.54 E.02612
G1 X66.236 Y71.54 E.28589
G1 X66.703 Y71.592 E.01473
G1 X67.142 Y71.74 E.01453
G1 X67.539 Y71.976 E.01448
G1 X67.883 Y72.296 E.01473
G1 X68.23 Y72.825 E.01984
G1 X68.391 Y73.311 E.01605
G1 X68.435 Y74.139 E.026
G1 X68.435 Y79.761 E.17627
G1 X68.382 Y80.228 E.01474
G1 X68.235 Y80.667 E.01452
G1 X67.915 Y81.157 E.01835
G1 X67.72 Y81.364 E.00892
M204 P1250
G1 X67.748 Y81.802 F9000
G1 E-2.24 F2400
;WIPE_START
G1 F7200
G1 X67.15 Y81.755 E-.21889
G1 X66.664 Y81.916 E-.16212
G1 X66.236 Y81.96 E-.13625
G1 X64.838 Y81.96 E-.44274
;WIPE_END
G1 Z.4 F9000
G1 X67.737 Y84.157
G1 Z.2
G1 E3.2 F1500
M204 P800
;TYPE:Perimeter
G1 F1200
G1 X68.158 Y84.534 E.01772
G1 X68.545 Y85.118 E.02197
G1 X68.741 Y85.655 E.01792
G1 X68.812 Y86.239 E.01845
G1 X68.812 Y92.261 E.18882
G1 X68.741 Y92.845 E.01845
G1 X68.561 Y93.356 E.01699
G1 X68.278 Y93.817 E.01696
G1 X67.913 Y94.204 E.01668
G1 X67.357 Y94.57 E.02087
G1 X66.82 Y94.766 E.01792
G1 X66.295 Y94.834 E.0166
G1 X56.714 Y94.837 E.30041
G1 X56.13 Y94.766 E.01845
G1 X55.619 Y94.586 E.01699
G1 X55.183 Y94.325 E.01593
G1 X54.69 Y93.837 E.02175
G1 X54.389 Y93.356 E.01779
G1 X54.209 Y92.845 E.01699
G1 X54.141 Y92.32 E.0166
G1 X54.138 Y86.239 E.19067
G1 X54.209 Y85.655 E.01845
G1 X54.389 Y85.144 E.01699
G1 X54.671 Y84.682 E.01697
G1 X55.014 Y84.313 E.0158
G1 X55.593 Y83.93 E.02177
G1 X56.13 Y83.734 E.01792
G1 X56.714 Y83.663 E.01845
G1 X66.236 Y83.663 E.29856
G1 X66.82 Y83.734 E.01845
G1 X67.331 Y83.914 E.01699
G1 X67.685 Y84.126 E.01294
M204 P1250
G1 X67.539 Y84.476 F9000
M204 P800
;TYPE:External perimeter
M73 P1 R69
G1 F1200
G1 X67.883 Y84.796 E.01473
G1 X68.23 Y85.325 E.01984
G1 X68.391 Y85.811 E.01605
G1 X68.435 Y86.239 E.01349
G1 X68.435 Y92.261 E.18882
G1 X68.382 Y92.728 E.01474
G1 X68.235 Y93.167 E.01452
G1 X67.915 Y93.657 E.01835
G1 X67.679 Y93.908 E.0108
G1 X67.15 Y94.255 E.01984
G1 X66.664 Y94.416 E.01605
G1 X66.236 Y94.46 E.01349
G1 X56.714 Y94.46 E.29856
G1 X56.247 Y94.407 E.01474
G1 X55.732 Y94.215 E.01723
G1 X55.404 Y94.018 E.012
G1 X54.955 Y93.569 E.01991
G1 X54.699 Y93.13 E.01593
G1 X54.559 Y92.689 E.01451
G1 X54.515 Y92.261 E.01349
G1 X54.515 Y86.239 E.18882
G1 X54.567 Y85.772 E.01473
G1 X54.715 Y85.333 E.01453
G1 X54.951 Y84.936 E.01448
G1 X55.27 Y84.592 E.01471
G1 X55.8 Y84.245 E.01986
G1 X56.285 Y84.084 E.01602
G1 X56.714 Y84.04 E.01352
G1 X66.236 Y84.04 E.29856
G1 X66.703 Y84.093 E.01474
G1 X67.218 Y84.285 E.01723
G1 X67.488 Y84.445 E.00984
M204 P1250
G1 X67.907 Y84.318 F9000
G1 E-2.24 F2400
;WIPE_START
G1 F7200
G1 X67.883 Y84.796 E-.16733
G1 X68.23 Y85.325 E-.20034
G1 X68.391 Y85.811 E-.16212
G1 X68.435 Y86.239 E-.13625
G1 X68.435 Y87.167 E-.29396
;WIPE_END
G1 Z.4 F9000
G1 X55.058 Y96.784
G1 Z.2
G1 E3.2 F1500
M204 P800
;TYPE:Perimeter
G1 F1200
G1 X55.593 Y96.43 E.02011
G1 X56.13 Y96.234 E.01792
G1 X56.714 Y96.163 E.01845
G1 X66.236 Y96.163 E.29856
G1 X66.82 Y96.234 E.01845
G1 X67.222 Y96.365 E.01326
G1 X67.696 Y96.626 E.01697
G1 X68.105 Y96.98 E.01696
G1 X68.545 Y97.618 E.0243
G1 X68.741 Y98.155 E.01792
G1 X68.809 Y98.68 E.0166
G1 X68.812 Y104.761 E.19067
G1 X68.741 Y105.345 E.01845
G1 X68.561 Y105.856 E.01699
G1 X68.278 Y106.318 E.01699
G1 X67.916 Y106.702 E.01655
G1 X67.481 Y106.989 E.01634
G1 X67.222 Y107.135 E.00932
G1 X66.742 Y107.285 E.01577
G1 X66.236 Y107.337 E.01595
G1 X56.714 Y107.337 E.29856
G1 X56.195 Y107.283 E.01636
G1 X55.672 Y107.113 E.01724
G1 X55.191 Y106.832 E.01747
G1 X54.799 Y106.446 E.01725
G1 X54.601 Y106.221 E.0094
G1 X54.34 Y105.747 E.01697
G1 X54.189 Y105.267 E.01578
G1 X54.138 Y104.761 E.01595
G1 X54.138 Y98.739 E.18882
G1 X54.209 Y98.155 E.01845
G1 X54.389 Y97.644 E.01699
G1 X54.671 Y97.182 E.01697
G1 X55.009 Y96.819 E.01555
M204 P1250
G1 X55.27 Y97.092 F9000
M204 P800
;TYPE:External perimeter
G1 F1200
G1 X55.8 Y96.745 E.01986
G1 X56.285 Y96.584 E.01602
G1 X56.714 Y96.54 E.01352
G1 X66.236 Y96.54 E.29856
G1 X66.703 Y96.593 E.01474
G1 X67.105 Y96.724 E.01326
G1 X67.539 Y96.976 E.01574
G1 X67.883 Y97.296 E.01473
G1 X68.23 Y97.825 E.01984
G1 X68.391 Y98.311 E.01605
G1 X68.435 Y98.739 E.01349
G1 X68.435 Y104.761 E.18882
G1 X68.382 Y105.228 E.01474
G1 X68.235 Y105.667 E.01452
G1 X67.915 Y106.157 E.01835
G1 X67.679 Y106.408 E.0108
G1 X67.15 Y106.755 E.01984
G1 X66.664 Y106.916 E.01605
G1 X66.236 Y106.96 E.01349
G1 X56.714 Y106.96 E.29856
G1 X56.247 Y106.907 E.01474
G1 X55.808 Y106.76 E.01452
G1 X55.404 Y106.518 E.01477
G1 X54.957 Y106.071 E.01982
G1 X54.699 Y105.63 E.01602
G1 X54.559 Y105.189 E.01451
G1 X54.515 Y104.761 E.01349
G1 X54.515 Y98.739 E.18882
G1 X54.567 Y98.272 E.01473
G1 X54.715 Y97.833 E.01453
G1 X55.023 Y97.356 E.0178
G1 X55.229 Y97.136 E.00945
M204 P1250
G1 X55.202 Y96.698 F9000
G1 E-2.24 F2400
;WIPE_START
G1 F7200
G1 X55.8 Y96.745 E-.21915
G1 X56.285 Y96.584 E-.16182
G1 X56.714 Y96.54 E-.13656
G1 X58.111 Y96.54 E-.44247
;WIPE_END
G1 Z.4 F9000
G1 X71.646 Y94.289
G1 Z.2
G1 E3.2 F1500
M204 P800
;TYPE:Perimeter
G1 F1200
G1 X71.289 Y93.936 E.01574
G1 X71.101 Y93.721 E.00895
G1 X70.84 Y93.247 E.01697
G1 X70.684 Y92.729 E.01696
G1 X70.638 Y92.261 E.01474
G1 X70.638 Y86.239 E.18882
G1 X70.709 Y85.655 E.01845
G1 X70.889 Y85.144 E.01699
G1 X71.145 Y84.714 E.01569
G1 X71.637 Y84.216 E.02195
G1 X72.119 Y83.914 E.01783
G1 X72.63 Y83.734 E.01699
G1 X73.214 Y83.663 E.01845
G1 X82.736 Y83.663 E.29856
G1 X83.32 Y83.734 E.01845
G1 X83.831 Y83.914 E.01699
G1 X84.267 Y84.175 E.01593
G1 X84.659 Y84.537 E.01673
G1 X85.045 Y85.118 E.02187
G1 X85.241 Y85.655 E.01792
G1 X85.309 Y86.18 E.0166
G1 X85.312 Y92.261 E.19067
G1 X85.26 Y92.767 E.01595
G1 X85.109 Y93.248 E.01581
G1 X84.849 Y93.722 E.01695
G1 X84.495 Y94.13 E.01694
G1 X83.857 Y94.57 E.0243
G1 X83.32 Y94.766 E.01792
G1 X82.736 Y94.837 E.01845
G1 X73.214 Y94.837 E.29856
