; generated by PrusaSlicer 2.4.2+arm64 on 2022-06-27 at 16:49:16 UTC


;
;

;
;
; 

; external perimeters extrusion width = 0.45mm
; perimeters extrusion width = 0.45mm
; infill extrusion width = 0.45mm
; solid infill extrusion width = 0.45mm
; top infill extrusion width = 0.40mm
; first layer extrusion width = 0.42mm

; external perimeters extrusion width = 0.45mm
; perimeters extrusion width = 0.45mm
; infill extrusion width = 0.45mm
; solid infill extrusion width = 0.45mm
; top infill extrusion width = 0.40mm
; first layer extrusion width = 0.42mm

M73 P0 R79
M201 X2500 Y2500 Z400 E5000 ; sets maximum accelerations, mm/sec^2
M203 X180 Y180 Z12 E80 ; sets maximum feedrates, mm / sec
M204 P1250 R1250 T2500 ; sets acceleration (P, T) and retract acceleration (R), mm/sec^2
M205 X8.00 Y8.00 Z2.00 E10.00 ; sets the jerk limits, mm/sec
M205 S0 T0 ; sets the minimum extruding and travel feed rate, mm/sec
M107
;TYPE:Custom
M862.3 P "MINI" ; printer model check
G90 ; use absolute coordinates
M83 ; extruder relative mode
M104 S170 ; set extruder temp for bed leveling
M140 S80 ; set bed temp
M109 R170 ; wait for bed leveling temp
M190 S80 ; wait for bed temp
M204 T1250 ; set travel acceleration
G28 ; home all without mesh bed level
G29 ; mesh bed leveling 
M204 T2500 ; restore travel acceleration
M104 S222 ; set extruder temp
G92 E0
G1 Y-2 X179 F2400
G1 Z3 F720
M109 S222 ; wait for extruder temp

; intro line
G1 X170 F1000
G1 Z0.2 F720
G1 X110 E8 F900
G1 X40 E10 F700
G92 E0

M221 S95 ; set flow
G21 ; set units to millimeters
G90 ; use absolute coordinates
M83 ; use relative distances for extrusion
M900 K0.2 ; Filament gcode LA 1.5
; ; Filament gcode LA 1.0
M107
;LAYER_CHANGE
;Z:0.2
;HEIGHT:0.2
;BEFORE_LAYER_CHANGE
G92 E0.0
;0.2


G1 E-3.2 F2400
G1 Z.2 F9000
;AFTER_LAYER_CHANGE
;0.2
G1 Z.4
G1 X48.535 Y59.153
G1 Z.2
G1 E3.2 F1500
M204 P800
;TYPE:Skirt/Brim
;WIDTH:0.42
G1 F1200
G1 X49.8 Y58.959 E.04012
G1 X90.012 Y58.98 E1.26081
G1 X124.213 Y63.507 E1.0817
G1 X125.62 Y63.845 E.04538
G1 X126.636 Y64.345 E.03552
G1 X132.086 Y67.924 E.20443
G1 X132.707 Y68.43 E.0251
G1 X133.516 Y69.377 E.03906
G1 X133.948 Y70.138 E.02742
G1 X134.255 Y70.956 E.02742
G1 X134.431 Y71.813 E.02742
G1 X134.477 Y107.5 E1.11895
G1 X134.43 Y108.187 E.02159
G1 X134.255 Y109.044 E.02742
G1 X133.947 Y109.863 E.02742
G1 X133.515 Y110.623 E.02742
G1 X132.97 Y111.307 E.02742
G1 X132.324 Y111.896 E.02742
G1 X127.209 Y115.605 E.19809
G1 X126.451 Y116.018 E.02709
G1 X125.29 Y116.398 E.03829
G1 X90.007 Y121.021 E1.11573
G1 X49.475 Y121.041 E1.27087
G1 X48.168 Y120.649 E.04278
G1 X47.291 Y119.603 E.04278
G1 X47.098 Y118.664 E.03008
G1 X47.098 Y61.336 E1.79746
G1 X47.49 Y60.029 E.04278
G1 X48.489 Y59.191 E.0409
M204 P1250
; printing object pixel_pump_ui_pcb_spacer.stl id:1 copy 0
G1 E-2.24 F2400
;WIPE_START
G1 F7200
G1 X49.8 Y58.959 E-.42153
G1 X51.349 Y58.96 E-.49047
;WIPE_END
G1 E-.048 F2400
G1 Z.4 F9000
G1 X114.503 Y86.179
G1 Z.2
G1 E3.2 F1500
M204 P800
;TYPE:Perimeter
G1 F1200
G1 X114.402 Y86.402 E.00767
G1 X114.319 Y86.944 E.01719
G1 X114.313 Y87.459 E.01615
G1 X114.318 Y93.053 E.17542
G1 X114.401 Y93.598 E.01728
G1 X114.503 Y93.82 E.00765
G1 X114.211 Y93.711 E.00977
G1 X113.589 Y93.712 E.01951
G1 X113.297 Y93.82 E.00976
G1 X113.399 Y93.598 E.00767
G1 X113.482 Y93.053 E.01728
G1 X113.482 Y86.947 E.19146
G1 X113.399 Y86.402 E.01728
G1 X113.297 Y86.179 E.00767
G1 X113.589 Y86.288 E.00977
G1 X114.211 Y86.288 E.01949
G1 X114.447 Y86.2 E.00789
M204 P1250
G1 E-2.24 F2400
;WIPE_START
G1 F7200
G1 X114.402 Y86.402 E-.06542
G1 X114.319 Y86.944 E-.17359
G1 X114.313 Y87.459 E-.16307
G1 X114.315 Y89.069 E-.50993
;WIPE_END
G1 E-.048 F2400
G1 Z.4 F9000
G1 X111.438 Y96.663
G1 Z.2
G1 E3.2 F1500
M204 P800
G1 F1200
G1 X111.356 Y96.25 E.01322
G1 X111.438 Y95.836 E.01322
G1 X110.978 Y96.02 E.01553
G1 X110.444 Y96.085 E.01686
G1 X100.866 Y96.087 E.30033
G1 X100.363 Y96.043 E.01581
G1 X99.843 Y95.903 E.01689
G1 X99.355 Y95.676 E.01689
G1 X98.914 Y95.367 E.01689
G1 X98.533 Y94.986 E.01689
G1 X98.224 Y94.545 E.01689
G1 X97.996 Y94.056 E.01689
G1 X97.857 Y93.536 E.01689
G1 X97.813 Y93.034 E.01581
G1 X97.813 Y86.965 E.19028
G1 X97.857 Y86.463 E.01581
G1 X97.996 Y85.943 E.01689
G1 X98.224 Y85.455 E.01689
G1 X98.533 Y85.013 E.01689
G1 X98.914 Y84.632 E.01689
G1 X99.355 Y84.324 E.01689
G1 X99.843 Y84.096 E.01689
G1 X100.364 Y83.957 E.01689
G1 X100.843 Y83.915 E.0151
G1 X110.444 Y83.915 E.30103
G1 X110.978 Y83.98 E.01686
G1 X111.438 Y84.163 E.01553
G1 X111.356 Y83.75 E.01322
G1 X111.438 Y83.336 E.01322
G1 X110.978 Y83.52 E.01553
G1 X110.444 Y83.585 E.01686
G1 X100.866 Y83.587 E.30033
G1 X100.364 Y83.543 E.01581
G1 X99.843 Y83.403 E.01689
G1 X99.355 Y83.176 E.01689
G1 X98.914 Y82.867 E.01689
G1 X98.533 Y82.486 E.01689
G1 X98.224 Y82.045 E.01689
G1 X97.996 Y81.556 E.01689
G1 X97.857 Y81.036 E.01689
G1 X97.813 Y80.534 E.01581
G1 X97.813 Y74.465 E.19028
G1 X97.857 Y73.963 E.01581
G1 X97.997 Y73.443 E.01689
G1 X98.224 Y72.955 E.01689
G1 X98.533 Y72.513 E.01689
G1 X98.914 Y72.132 E.01689
G1 X99.355 Y71.824 E.01689
G1 X99.847 Y71.594 E.01701
G1 X100.401 Y71.453 E.01794
G1 X100.866 Y71.413 E.01462
G1 X103.389 Y71.413 E.0791
G1 X102.95 Y71.314 E.01409
G1 X102.455 Y71.059 E.01747
G1 X102.086 Y70.756 E.01496
G1 X101.771 Y70.342 E.01633
G1 X101.559 Y69.866 E.01632
G1 X101.463 Y69.354 E.01632
G1 X101.488 Y68.834 E.01632
G1 X101.632 Y68.334 E.01632
G1 X101.887 Y67.88 E.01633
G1 X102.24 Y67.498 E.01633
G1 X102.677 Y67.203 E.01652
G1 X103.203 Y67.018 E.01747
G1 X103.676 Y66.957 E.01497
G1 X104.194 Y67.012 E.01633
G1 X104.685 Y67.185 E.01633
G1 X105.123 Y67.466 E.01633
G1 X105.484 Y67.841 E.01632
G1 X105.75 Y68.289 E.01632
G1 X105.904 Y68.786 E.01633
G1 X105.94 Y69.306 E.01632
G1 X105.855 Y69.82 E.01633
G1 X105.654 Y70.3 E.01632
G1 X105.348 Y70.721 E.01633
G1 X104.953 Y71.06 E.01632
G1 X104.49 Y71.298 E.01633
G1 X104.031 Y71.413 E.01484
G1 X110.435 Y71.413 E.20079
G1 X110.937 Y71.457 E.01581
G1 X111.457 Y71.596 E.01689
G1 X111.945 Y71.824 E.01689
G1 X112.387 Y72.133 E.01689
G1 X112.767 Y72.514 E.01689
G1 X113.076 Y72.955 E.01689
G1 X113.304 Y73.443 E.01689
G1 X113.443 Y73.963 E.01689
G1 X113.487 Y74.466 E.01581
G1 X113.482 Y80.553 E.19087
G1 X113.399 Y81.098 E.01728
G1 X113.297 Y81.32 E.00767
G1 X113.589 Y81.212 E.00976
G1 X114.211 Y81.211 E.01951
G1 X114.503 Y81.32 E.00977
G1 X114.402 Y81.098 E.00765
G1 X114.318 Y80.553 E.01728
G1 X114.313 Y74.466 E.19087
G1 X114.357 Y73.963 E.01581
G1 X114.497 Y73.443 E.01689
G1 X114.724 Y72.955 E.01689
G1 X115.033 Y72.514 E.01689
G1 X115.414 Y72.133 E.01689
G1 X115.855 Y71.824 E.01689
G1 X116.343 Y71.596 E.01689
G1 X116.864 Y71.457 E.01689
G1 X117.344 Y71.415 E.0151
G1 X123.292 Y71.414 E.1865
G1 X122.85 Y71.314 E.01419
G1 X122.355 Y71.059 E.01747
G1 X121.986 Y70.756 E.01496
G1 X121.671 Y70.342 E.01633
G1 X121.459 Y69.866 E.01633
G1 X121.362 Y69.349 E.01652
G1 X121.4 Y68.793 E.01747
G1 X121.532 Y68.334 E.01496
G1 X121.787 Y67.88 E.01632
G1 X122.14 Y67.498 E.01633
G1 X122.577 Y67.204 E.01652
G1 X123.103 Y67.018 E.01747
G1 X123.576 Y66.958 E.01496
G1 X124.094 Y67.012 E.01633
G1 X124.585 Y67.185 E.01633
G1 X125.023 Y67.467 E.01632
G1 X125.384 Y67.841 E.01633
G1 X125.65 Y68.29 E.01632
G1 X125.804 Y68.787 E.01633
G1 X125.84 Y69.306 E.01632
G1 X125.755 Y69.82 E.01633
G1 X125.554 Y70.3 E.01632
G1 X125.248 Y70.721 E.01633
G1 X124.853 Y71.06 E.01632
G1 X124.39 Y71.299 E.01632
G1 X123.928 Y71.414 E.01492
G1 X126.935 Y71.413 E.09426
G1 X127.437 Y71.457 E.01581
G1 X127.957 Y71.596 E.01689
G1 X128.445 Y71.824 E.01689
G1 X128.887 Y72.133 E.01689
G1 X129.267 Y72.514 E.01689
G1 X129.576 Y72.955 E.01689
G1 X129.804 Y73.443 E.01689
G1 X129.943 Y73.963 E.01689
G1 X129.987 Y74.466 E.01581
G1 X129.987 Y80.534 E.19028
G1 X129.943 Y81.037 E.01581
G1 X129.804 Y81.557 E.01689
G1 X129.576 Y82.045 E.01689
G1 X129.267 Y82.486 E.01689
G1 X128.886 Y82.867 E.01689
G1 X128.445 Y83.176 E.01689
G1 X127.957 Y83.404 E.01689
G1 X127.437 Y83.543 E.01689
G1 X126.934 Y83.587 E.01581
G1 X117.356 Y83.585 E.30033
G1 X116.822 Y83.52 E.01686
G1 X116.362 Y83.336 E.01553
G1 X116.445 Y83.75 E.01322
G1 X116.362 Y84.163 E.01322
G1 X116.822 Y83.98 E.01553
G1 X117.355 Y83.915 E.01682
G1 X126.934 Y83.913 E.30037
G1 X127.437 Y83.957 E.01581
G1 X127.957 Y84.096 E.01689
G1 X128.445 Y84.324 E.01689
G1 X128.886 Y84.633 E.01689
G1 X129.267 Y85.014 E.01689
G1 X129.576 Y85.455 E.01689
G1 X129.804 Y85.943 E.01689
G1 X129.943 Y86.463 E.01689
G1 X129.987 Y86.966 E.01581
G1 X129.987 Y93.034 E.19028
G1 X129.943 Y93.537 E.01581
G1 X129.804 Y94.057 E.01689
G1 X129.576 Y94.545 E.01689
G1 X129.267 Y94.986 E.01689
G1 X128.886 Y95.367 E.01689
G1 X128.445 Y95.676 E.01689
G1 X127.957 Y95.904 E.01689
G1 X127.437 Y96.043 E.01689
G1 X126.934 Y96.087 E.01581
G1 X117.356 Y96.085 E.30033
G1 X116.822 Y96.02 E.01686
M73 P0 R78
G1 X116.362 Y95.836 E.01553
G1 X116.444 Y96.25 E.01322
G1 X116.362 Y96.663 E.01322
G1 X116.822 Y96.48 E.01553
G1 X117.354 Y96.415 E.01682
G1 X126.934 Y96.413 E.30037
G1 X127.437 Y96.457 E.01581
G1 X127.957 Y96.596 E.01689
G1 X128.445 Y96.824 E.01689
G1 X128.886 Y97.133 E.01689
G1 X129.267 Y97.514 E.01689
G1 X129.576 Y97.955 E.01689
G1 X129.804 Y98.443 E.01689
G1 X129.943 Y98.963 E.01689
G1 X129.987 Y99.466 E.01581
G1 X129.987 Y105.534 E.19028
G1 X129.943 Y106.037 E.01581
G1 X129.804 Y106.557 E.01689
G1 X129.576 Y107.045 E.01689
G1 X129.267 Y107.486 E.01689
G1 X128.886 Y107.867 E.01689
G1 X128.445 Y108.176 E.01689
G1 X127.957 Y108.404 E.01689
G1 X127.436 Y108.543 E.01689
G1 X126.934 Y108.587 E.01581
G1 X124.412 Y108.587 E.0791
G1 X124.844 Y108.685 E.0139
G1 X125.312 Y108.913 E.01633
G1 X125.714 Y109.244 E.01633
G1 X126.03 Y109.658 E.01632
G1 X126.241 Y110.134 E.01632
G1 X126.337 Y110.645 E.01633
G1 X126.312 Y111.165 E.01633
G1 X126.167 Y111.672 E.01652
G1 X125.883 Y112.152 E.01747
G1 X125.56 Y112.502 E.01496
G1 X125.128 Y112.793 E.01632
G1 X124.64 Y112.976 E.01633
G1 X124.124 Y113.042 E.01632
G1 X123.606 Y112.987 E.01633
G1 X123.109 Y112.813 E.01652
G1 X122.647 Y112.502 E.01747
G1 X122.316 Y112.158 E.01496
G1 X122.05 Y111.71 E.01633
G1 X121.896 Y111.213 E.01633
G1 X121.86 Y110.694 E.01632
G1 X121.945 Y110.18 E.01633
G1 X122.146 Y109.7 E.01632
G1 X122.452 Y109.279 E.01632
G1 X122.847 Y108.94 E.01633
G1 X123.315 Y108.698 E.01652
G1 X123.807 Y108.587 E.01579
G1 X117.365 Y108.587 E.20196
G1 X116.863 Y108.543 E.01581
G1 X116.343 Y108.404 E.01689
G1 X115.855 Y108.176 E.01689
G1 X115.414 Y107.867 E.01689
G1 X115.033 Y107.486 E.01689
G1 X114.724 Y107.045 E.01689
G1 X114.496 Y106.557 E.01689
G1 X114.357 Y106.036 E.01689
G1 X114.313 Y105.534 E.01581
G1 X114.318 Y99.444 E.19096
G1 X114.401 Y98.902 E.01719
G1 X114.503 Y98.679 E.00767
G1 X114.211 Y98.788 E.00977
G1 X113.589 Y98.788 E.0195
G1 X113.297 Y98.679 E.00977
G1 X113.398 Y98.902 E.00767
G1 X113.482 Y99.446 E.01728
G1 X113.487 Y105.534 E.19087
G1 X113.443 Y106.036 E.01582
G1 X113.304 Y106.557 E.01689
G1 X113.076 Y107.045 E.01689
G1 X112.767 Y107.486 E.01689
G1 X112.386 Y107.867 E.01689
G1 X111.945 Y108.176 E.01689
G1 X111.457 Y108.404 E.01689
G1 X110.936 Y108.543 E.01689
G1 X110.434 Y108.587 E.01581
G1 X103.51 Y108.586 E.21711
G1 X103.944 Y108.684 E.01395
G1 X104.412 Y108.913 E.01632
G1 X104.814 Y109.243 E.01632
G1 X105.13 Y109.658 E.01633
G1 X105.341 Y110.133 E.01633
G1 X105.437 Y110.645 E.01632
G1 X105.412 Y111.165 E.01632
G1 X105.268 Y111.666 E.01632
G1 X105.013 Y112.119 E.01632
G1 X104.66 Y112.502 E.01633
G1 X104.228 Y112.793 E.01633
G1 X103.74 Y112.976 E.01633
G1 X103.224 Y113.042 E.01632
G1 X102.706 Y112.987 E.01632
G1 X102.215 Y112.814 E.01633
G1 X101.777 Y112.533 E.01633
G1 X101.416 Y112.158 E.01632
G1 X101.15 Y111.71 E.01632
G1 X100.996 Y111.213 E.01633
G1 X100.96 Y110.694 E.01632
G1 X101.045 Y110.18 E.01633
G1 X101.246 Y109.7 E.01633
G1 X101.552 Y109.279 E.01632
G1 X101.947 Y108.94 E.01632
G1 X102.415 Y108.698 E.01652
G1 X102.908 Y108.586 E.01585
G1 X100.854 Y108.586 E.06442
G1 X100.35 Y108.54 E.01587
G1 X99.837 Y108.401 E.01665
G1 X99.35 Y108.173 E.01687
G1 X98.91 Y107.864 E.01686
G1 X98.53 Y107.483 E.01686
G1 X98.222 Y107.042 E.01686
G1 X97.996 Y106.555 E.01686
G1 X97.857 Y106.036 E.01684
G1 X97.813 Y105.534 E.01579
G1 X97.813 Y99.465 E.19028
G1 X97.857 Y98.963 E.01581
M73 P1 R78
G1 X97.996 Y98.443 E.01689
G1 X98.224 Y97.955 E.01689
G1 X98.533 Y97.513 E.01689
G1 X98.914 Y97.132 E.01689
G1 X99.355 Y96.824 E.01689
G1 X99.843 Y96.596 E.01689
G1 X100.363 Y96.457 E.01689
G1 X100.843 Y96.415 E.0151
G1 X110.444 Y96.415 E.30103
G1 X110.978 Y96.48 E.01686
G1 X111.382 Y96.641 E.01365
M204 P1250
G1 X111.74 Y96.25 F9000
M204 P800
;TYPE:External perimeter
G1 F1200
G1 X111.835 Y95.775 E.01519
G1 X112.275 Y95.065 E.02618
G1 X112.553 Y94.757 E.013
G1 X113.21 Y94.255 E.02592
G1 X113.657 Y94.089 E.01496
G1 X114.143 Y94.088 E.01524
G1 X114.59 Y94.255 E.01498
G1 X115.247 Y94.757 E.02592
G1 X115.525 Y95.065 E.013
G1 X115.965 Y95.775 E.02618
G1 X116.06 Y96.25 E.01519
G1 X115.965 Y96.725 E.01519
G1 X115.525 Y97.434 E.02618
G1 X115.247 Y97.743 E.013
G1 X114.59 Y98.244 E.02593
G1 X114.143 Y98.411 E.01497
G1 X113.657 Y98.411 E.01523
G1 X113.21 Y98.244 E.01497
G1 X112.553 Y97.743 E.02593
G1 X112.275 Y97.434 E.013
G1 X111.835 Y96.725 E.02618
G1 X111.752 Y96.309 E.01331
M204 P1250
G1 X111.392 Y96.053 F9000
G1 E-2.24 F2400
;WIPE_START
G1 F7200
G1 X111.835 Y95.775 E-.17113
G1 X112.275 Y95.065 E-.26441
G1 X112.553 Y94.757 E-.13127
G1 X113.21 Y94.255 E-.26183
G1 X113.456 Y94.163 E-.08336
;WIPE_END
G1 E-.048 F2400
G1 Z.4 F9000
G1 X114.766 Y99.011
G1 Z.2
G1 E3.2 F1500
M204 P800
G1 F1200
G1 X114.966 Y98.573 E.01509
G1 X115.479 Y97.884 E.02692
G1 X115.781 Y97.582 E.01339
G1 X116.46 Y97.03 E.02744
G1 X116.916 Y96.848 E.01539
G1 X117.378 Y96.792 E.01459
G1 X126.918 Y96.79 E.29911
G1 X127.371 Y96.83 E.01426
G1 X127.827 Y96.952 E.01482
G1 X128.256 Y97.152 E.01482
G1 X128.643 Y97.423 E.01482
G1 X128.977 Y97.757 E.01482
G1 X129.248 Y98.144 E.01482
G1 X129.448 Y98.573 E.01482
G1 X129.57 Y99.029 E.01482
G1 X129.61 Y99.482 E.01426
G1 X129.61 Y105.518 E.18925
G1 X129.57 Y105.971 E.01426
G1 X129.448 Y106.427 E.01482
G1 X129.248 Y106.856 E.01482
G1 X128.977 Y107.243 E.01482
G1 X128.643 Y107.577 E.01482
G1 X128.256 Y107.848 E.01482
G1 X127.827 Y108.048 E.01482
G1 X127.371 Y108.17 E.01482
G1 X126.918 Y108.21 E.01426
G1 X117.382 Y108.21 E.29899
G1 X116.929 Y108.17 E.01426
G1 X116.472 Y108.048 E.01482
G1 X116.044 Y107.848 E.01482
G1 X115.657 Y107.577 E.01482
G1 X115.323 Y107.243 E.01482
G1 X115.052 Y106.856 E.01482
G1 X114.852 Y106.427 E.01482
G1 X114.729 Y105.971 E.01482
G1 X114.69 Y105.518 E.01426
G1 X114.69 Y99.96 E.17425
G1 X114.695 Y99.474 E.01524
G1 X114.757 Y99.07 E.01282
M204 P1250
G1 X114.498 Y98.714 F9000
G1 E-2.24 F2400
;WIPE_START
G1 F7200
G1 X114.966 Y98.573 E-.1708
G1 X115.479 Y97.884 E-.27192
G1 X115.781 Y97.582 E-.13526
G1 X116.46 Y97.03 E-.27715
G1 X116.627 Y96.964 E-.05687
;WIPE_END
G1 E-.048 F2400
G1 Z.4 F9000
G1 X116.46 Y95.47
G1 Z.2
G1 E3.2 F1500
M204 P800
G1 F1200
G1 X115.781 Y94.918 E.02744
G1 X115.479 Y94.616 E.01339
G1 X114.966 Y93.927 E.02692
G1 X114.766 Y93.489 E.01509
G1 X114.695 Y93.024 E.01474
G1 X114.695 Y86.974 E.1897
G1 X114.766 Y86.511 E.01471
G1 X114.966 Y86.073 E.01509
G1 X115.479 Y85.384 E.02692
G1 X115.781 Y85.082 E.01339
G1 X116.46 Y84.53 E.02744
G1 X116.916 Y84.348 E.01539
G1 X117.378 Y84.292 E.01459
G1 X126.918 Y84.29 E.29911
G1 X127.371 Y84.33 E.01426
G1 X127.828 Y84.452 E.01482
G1 X128.256 Y84.652 E.01482
G1 X128.643 Y84.923 E.01482
G1 X128.977 Y85.257 E.01482
G1 X129.248 Y85.644 E.01482
G1 X129.448 Y86.073 E.01482
G1 X129.57 Y86.529 E.01482
G1 X129.61 Y86.982 E.01426
G1 X129.61 Y93.018 E.18925
G1 X129.57 Y93.471 E.01426
G1 X129.448 Y93.927 E.01482
G1 X129.248 Y94.356 E.01482
G1 X128.977 Y94.743 E.01482
G1 X128.643 Y95.077 E.01482
G1 X128.256 Y95.348 E.01482
G1 X127.827 Y95.548 E.01482
G1 X127.371 Y95.67 E.01482
G1 X126.918 Y95.71 E.01426
G1 X117.379 Y95.708 E.2991
G1 X116.916 Y95.651 E.01461
G1 X116.516 Y95.492 E.01351
M204 P1250
G1 X116.111 Y95.664 F9000
G1 E-2.24 F2400
;WIPE_START
G1 F7200
G1 X115.781 Y94.918 E-.29534
G1 X115.479 Y94.616 E-.13526
