; generated by PrusaSlicer 2.5.0-alpha2+arm64 on 2022-06-30 at 13:25:31 UTC


;
;

;
;
; 

; external perimeters extrusion width = 0.45mm
; perimeters extrusion width = 0.45mm
; infill extrusion width = 0.45mm
; solid infill extrusion width = 0.45mm
; top infill extrusion width = 0.40mm
; first layer extrusion width = 0.42mm

; external perimeters extrusion width = 0.45mm
; perimeters extrusion width = 0.45mm
; infill extrusion width = 0.45mm
; solid infill extrusion width = 0.45mm
; top infill extrusion width = 0.40mm
; first layer extrusion width = 0.42mm

M73 P0 R75
M201 X2500 Y2500 Z400 E5000 ; sets maximum accelerations, mm/sec^2
M203 X180 Y180 Z12 E80 ; sets maximum feedrates, mm / sec
M204 P1250 R1250 T2500 ; sets acceleration (P, T) and retract acceleration (R), mm/sec^2
M205 X8.00 Y8.00 Z2.00 E10.00 ; sets the jerk limits, mm/sec
M205 S0 T0 ; sets the minimum extruding and travel feed rate, mm/sec
M107
;TYPE:Custom
M862.3 P "MINI" ; printer model check
G90 ; use absolute coordinates
M83 ; extruder relative mode
M104 S155 ; set extruder temp for bed leveling
M140 S80 ; set bed temp
M109 R155 ; wait for bed leveling temp
M190 S80 ; wait for bed temp
M204 T1250 ; set travel acceleration
G28 ; home all without mesh bed level
G29 ; mesh bed leveling 
M204 T2500 ; restore travel acceleration
M104 S222 ; set extruder temp
G92 E0
G1 Y-2 X179 F2400
G1 Z0.3 F720
M109 S222 ; wait for extruder temp

; intro line
G1 Z0.3 E2 F900
G1 Z2 E6 F500
G1 Z0.4 X85 E12 F900
G1 Z0.2 X30 E12 F900
G1 Z0.1 X25 E0 F900
G92 E0

M221 S95 ; set flow
G21 ; set units to millimeters
G90 ; use absolute coordinates
M83 ; use relative distances for extrusion
M900 K0.2 ; Filament gcode LA 1.5
; ; Filament gcode LA 1.0
M107
;LAYER_CHANGE
;Z:0.2
;HEIGHT:0.2
;BEFORE_LAYER_CHANGE
G92 E0.0
;0.2


G1 E-3.2 F2400
G1 Z.2 F9000
;AFTER_LAYER_CHANGE
;0.2
G1 Z.4
G1 X48.535 Y59.153
G1 Z.2
G1 E3.2 F1500
M204 P800
;TYPE:Skirt/Brim
;WIDTH:0.42
G1 F1200
G1 X49.8 Y58.959 E.04012
G1 X90.012 Y58.98 E1.26081
G1 X124.213 Y63.507 E1.0817
G1 X125.62 Y63.845 E.04538
G1 X126.636 Y64.345 E.03552
G1 X132.086 Y67.924 E.20443
G1 X132.707 Y68.43 E.0251
G1 X133.516 Y69.377 E.03906
G1 X133.948 Y70.138 E.02742
G1 X134.255 Y70.956 E.02742
G1 X134.431 Y71.813 E.02742
G1 X134.477 Y107.5 E1.11895
G1 X134.43 Y108.187 E.02159
G1 X134.255 Y109.044 E.02742
G1 X133.947 Y109.863 E.02742
G1 X133.515 Y110.623 E.02742
G1 X132.97 Y111.307 E.02742
G1 X132.324 Y111.896 E.02742
G1 X127.209 Y115.605 E.19809
G1 X126.451 Y116.018 E.02709
G1 X125.29 Y116.398 E.03829
G1 X90.007 Y121.021 E1.11573
G1 X49.475 Y121.041 E1.27087
G1 X48.168 Y120.649 E.04278
G1 X47.291 Y119.603 E.04278
G1 X47.098 Y118.664 E.03008
G1 X47.098 Y61.336 E1.79746
G1 X47.49 Y60.029 E.04278
G1 X48.489 Y59.191 E.0409
M204 P1250
; printing object pixel_pump_ui_lid.stl id:0 copy 0
G1 E-2.24 F2400
;WIPE_START
G1 F7200
G1 X49.8 Y58.959 E-.42153
G1 X51.349 Y58.96 E-.49047
;WIPE_END
G1 E-.048 F2400
G1 Z.4 F9000
G1 X54.448 Y62.12
G1 Z.2
G1 E3.2 F1500
M204 P800
;TYPE:Perimeter
;WIDTH:0.419999
G1 F1200
G1 X54.775 Y62.123 E.01026
G1 X57.94 Y62.123 E.09923
G1 X59.594 Y62.123 E.05187
G1 X60.338 Y62.123 E.02333
G1 X68.693 Y62.123 E.26197
G1 X72.678 Y62.123 E.12492
G1 X78.612 Y62.123 E.18606
G1 X79.356 Y62.123 E.02332
G1 X84.496 Y62.123 E.16119
G1 X84.262 Y62.26 E.00851
G1 X83.794 Y62.659 E.01928
G1 X83.412 Y63.141 E.01928
G1 X83.132 Y63.688 E.01927
G1 X82.964 Y64.279 E.01927
G1 X82.915 Y64.892 E.01928
G1 X82.986 Y65.502 E.01927
G1 X83.175 Y66.088 E.01928
G1 X83.474 Y66.624 E.01927
G1 X83.872 Y67.093 E.01927
G1 X84.354 Y67.474 E.01928
G1 X84.901 Y67.754 E.01927
G1 X85.493 Y67.922 E.01928
G1 X86.105 Y67.972 E.01927
G1 X86.716 Y67.901 E.01927
G1 X87.301 Y67.712 E.01927
G1 X87.838 Y67.413 E.01927
G1 X88.306 Y67.014 E.01928
G1 X88.626 Y66.624 E.01581
G1 X88.913 Y66.111 E.01844
G1 X88.913 Y112.389 E1.45101
G1 X88.626 Y111.876 E.01844
G1 X88.228 Y111.408 E.01927
G1 X87.746 Y111.026 E.01928
G1 X87.198 Y110.746 E.01927
G1 X86.598 Y110.577 E.01955
G1 X85.952 Y110.533 E.02032
G1 X85.362 Y110.606 E.01864
G1 X84.799 Y110.788 E.01855
G1 X84.262 Y111.088 E.01927
G1 X83.793 Y111.486 E.01928
G1 X83.412 Y111.968 E.01928
G1 X83.132 Y112.515 E.01927
G1 X82.962 Y113.123 E.0198
G1 X82.914 Y113.719 E.01874
G1 X82.985 Y114.33 E.01927
G1 X83.174 Y114.915 E.01927
G1 X83.474 Y115.452 E.01927
G1 X83.872 Y115.92 E.01927
G1 X84.354 Y116.302 E.01928
G1 X84.901 Y116.582 E.01927
G1 X85.492 Y116.75 E.01927
G1 X86.105 Y116.799 E.01927
G1 X86.716 Y116.728 E.01928
G1 X87.301 Y116.539 E.01927
G1 X87.838 Y116.24 E.01927
G1 X88.306 Y115.842 E.01927
G1 X88.626 Y115.452 E.01581
G1 X88.913 Y114.939 E.01844
G1 X88.913 Y117.877 E.09213
G1 X86.662 Y117.877 E.07055
G1 X85.941 Y117.877 E.02261
G1 X85.437 Y117.877 E.01581
G1 X70.941 Y117.877 E.4545
G1 X55.778 Y117.877 E.47544
G1 X50.583 Y117.876 E.16287
G1 X50.57 Y115.715 E.06776
G1 X50.72 Y115.901 E.00751
G1 X51.203 Y116.299 E.0196
G1 X51.751 Y116.581 E.01933
G1 X52.342 Y116.75 E.01928
G1 X52.955 Y116.799 E.01927
G1 X53.566 Y116.728 E.01928
G1 X54.151 Y116.539 E.01927
G1 X54.688 Y116.24 E.01928
G1 X55.156 Y115.841 E.01927
G1 X55.538 Y115.359 E.01928
G1 X55.818 Y114.812 E.01927
G1 X55.986 Y114.221 E.01928
G1 X56.035 Y113.608 E.01927
G1 X55.964 Y112.998 E.01927
G1 X55.775 Y112.413 E.01927
G1 X55.476 Y111.876 E.01927
G1 X55.156 Y111.486 E.01581
G1 X54.982 Y111.329 E.00733
G1 X54.539 Y110.995 E.01741
G1 X54.029 Y110.74 E.01787
G1 X53.381 Y110.571 E.021
G1 X52.802 Y110.532 E.01821
G1 X52.234 Y110.599 E.01793
G1 X51.647 Y110.789 E.01933
G1 X51.203 Y111.028 E.01581
G1 X50.854 Y111.311 E.01407
G1 X50.57 Y111.611 E.01296
G1 X50.584 Y111.186 E.01331
G1 X50.585 Y93.421 E.55701
G1 X50.586 Y83 E.32676
G1 X50.586 Y82.302 E.02187
G1 X50.587 Y73.739 E.26849
G1 X50.587 Y72.155 E.04966
G1 X50.587 Y71.62 E.01677
G1 X50.587 Y68.344 E.10272
G1 X50.587 Y67.806 E.01688
G1 X50.569 Y66.887 E.0288
G1 X50.721 Y67.074 E.00754
G1 X51.203 Y67.472 E.0196
G1 X51.751 Y67.754 E.01933
G1 X52.343 Y67.922 E.01928
G1 X52.955 Y67.972 E.01927
G1 X53.625 Y67.883 E.02118
G1 X54.166 Y67.704 E.01785
G1 X54.688 Y67.412 E.01876
G1 X55.156 Y67.014 E.01927
G1 X55.538 Y66.532 E.01928
G1 X55.818 Y65.985 E.01927
G1 X55.986 Y65.394 E.01928
G1 X56.035 Y64.781 E.01927
G1 X55.964 Y64.17 E.01927
G1 X55.776 Y63.585 E.01927
G1 X55.476 Y63.048 E.01927
G1 X55.156 Y62.658 E.01581
G1 X54.718 Y62.284 E.01808
G1 X54.499 Y62.151 E.00802
M204 P1250
G1 E-2.24 F2400
;WIPE_START
G1 F7200
G1 X54.775 Y62.123 E-.08785
;WIPE_END
G1 E-.87215 F2400
G1 Z.4 F9000
G1 X50.65 Y115.167
G1 Z.2
G1 E3.2 F1500
M204 P800
;TYPE:External perimeter
;WIDTH:0.42613
G1 F1200
G1 X50.465 Y114.655 E.01735
G1 X50.394 Y114.125 E.01703
;WIDTH:0.425754
G1 X50.352 Y113.686 E.01405
;WIDTH:0.422464
G1 X50.458 Y112.71 E.03099
G1 X50.626 Y112.206 E.01675
;WIDTH:0.419999
G1 X50.934 Y111.748 E.01732
G1 X51.348 Y111.383 E.0173
G1 X51.826 Y111.121 E.01708
G1 X52.343 Y110.96 E.01698
G1 X52.867 Y110.907 E.01651
G1 X53.417 Y110.953 E.0173
G1 X53.92 Y111.101 E.01644
G1 X54.418 Y111.358 E.01758
G1 X54.838 Y111.699 E.01697
G1 X55.184 Y112.115 E.01697
G1 X55.443 Y112.59 E.01697
G1 X55.603 Y113.107 E.01697
G1 X55.66 Y113.645 E.01697
G1 X55.61 Y114.184 E.01697
G1 X55.457 Y114.703 E.01697
G1 X55.205 Y115.182 E.01697
G1 X54.865 Y115.602 E.01697
G1 X54.449 Y115.948 E.01697
G1 X53.973 Y116.207 E.01697
G1 X53.456 Y116.367 E.01697
G1 X52.918 Y116.424 E.01697
G1 X52.379 Y116.374 E.01697
G1 X51.861 Y116.221 E.01697
G1 X51.382 Y115.967 E.01699
G1 X50.966 Y115.616 E.01707
G1 X50.684 Y115.216 E.01533
M204 P1250
G1 E-2.24 F2400
;WIPE_START
G1 F7200
G1 X50.465 Y114.655 E-.19079
;WIPE_END
G1 E-.76921 F2400
G1 Z.4 F9000
G1 X54.499 Y106.036
G1 Z.2
G1 E3.2 F1500
M204 P800
;TYPE:Perimeter
G1 F1200
G1 X54.34 Y105.747 E.01034
G1 X54.189 Y105.267 E.01578
G1 X54.141 Y104.82 E.01409
G1 X54.138 Y104.761 E.00187
G1 X54.138 Y98.739 E.18881
G1 X54.209 Y98.155 E.01845
G1 X54.389 Y97.644 E.01697
G1 X54.671 Y97.182 E.01697
G1 X55.014 Y96.813 E.01581
G1 X55.593 Y96.43 E.02176
G1 X56.13 Y96.234 E.01791
G1 X56.654 Y96.166 E.01659
G1 X56.714 Y96.163 E.00187
G1 X66.236 Y96.163 E.29855
G1 X66.82 Y96.234 E.01844
G1 X67.331 Y96.414 E.01699
G1 X67.767 Y96.675 E.01592
G1 X68.175 Y97.056 E.01751
G1 X68.545 Y97.618 E.02111
G1 X68.741 Y98.155 E.01791
G1 X68.809 Y98.68 E.01659
G1 X68.812 Y98.739 E.00187
G1 X68.812 Y104.761 E.18881
G1 X68.741 Y105.345 E.01844
G1 X68.561 Y105.856 E.01699
G1 X68.303 Y106.288 E.01577
G1 X67.812 Y106.784 E.0219
G1 X67.331 Y107.086 E.01782
G1 X66.82 Y107.266 E.01699
G1 X66.295 Y107.334 E.01659
G1 X66.236 Y107.337 E.00187
G1 X56.714 Y107.337 E.29855
G1 X56.195 Y107.283 E.01635
M73 P1 R75
G1 X55.672 Y107.113 E.01724
G1 X55.191 Y106.832 E.01746
G1 X54.799 Y106.446 E.01727
G1 X54.601 Y106.221 E.00937
G1 X54.528 Y106.089 E.00475
M204 P1250
G1 X54.957 Y106.071 F9000
M204 P800
;TYPE:External perimeter
G1 F1200
G1 X54.699 Y105.63 E.01601
G1 X54.559 Y105.189 E.0145
G1 X54.516 Y104.781 E.01288
G1 X54.515 Y104.761 E.00062
G1 X54.515 Y98.739 E.18881
G1 X54.567 Y98.272 E.01474
G1 X54.715 Y97.833 E.0145
G1 X55.023 Y97.356 E.01781
G1 X55.27 Y97.092 E.01135
G1 X55.8 Y96.745 E.01984
G1 X56.285 Y96.584 E.01604
G1 X56.714 Y96.54 E.01351
G1 X66.236 Y96.54 E.29855
G1 X66.703 Y96.593 E.01474
G1 X67.218 Y96.785 E.01724
G1 X67.539 Y96.976 E.01172
G1 X67.883 Y97.296 E.01472
G1 X68.23 Y97.825 E.01984
G1 X68.391 Y98.311 E.01605
G1 X68.435 Y98.739 E.01351
G1 X68.435 Y104.761 E.18881
G1 X68.382 Y105.228 E.01473
G1 X68.235 Y105.667 E.01452
G1 X67.993 Y106.071 E.01477
G1 X67.546 Y106.518 E.01982
G1 X67.105 Y106.776 E.01601
G1 X66.664 Y106.916 E.0145
G1 X66.236 Y106.96 E.0135
G1 X56.714 Y106.96 E.29855
G1 X56.247 Y106.907 E.01473
G1 X55.808 Y106.76 E.01452
G1 X55.404 Y106.518 E.01477
G1 X54.999 Y106.113 E.01794
M204 P1250
G1 E-2.24 F2400
;WIPE_START
G1 F7200
G1 X54.699 Y105.63 E-.18016
;WIPE_END
G1 E-.77984 F2400
G1 Z.4 F9000
G1 X54.51 Y93.549
G1 Z.2
G1 E3.2 F1500
M204 P800
;TYPE:Perimeter
G1 F1200
G1 X54.389 Y93.356 E.00716
G1 X54.209 Y92.845 E.01698
G1 X54.141 Y92.32 E.01658
G1 X54.138 Y92.261 E.00187
G1 X54.138 Y86.239 E.18881
G1 X54.209 Y85.655 E.01845
G1 X54.389 Y85.144 E.01697
G1 X54.685 Y84.668 E.01759
G1 X55.137 Y84.215 E.02005
G1 X55.619 Y83.914 E.01782
G1 X56.13 Y83.734 E.01698
G1 X56.654 Y83.666 E.01659
G1 X56.714 Y83.663 E.00187
G1 X66.236 Y83.663 E.29855
G1 X66.82 Y83.734 E.01844
G1 X67.331 Y83.914 E.01699
G1 X67.792 Y84.196 E.01697
G1 X68.198 Y84.589 E.01771
G1 X68.545 Y85.118 E.01984
G1 X68.741 Y85.655 E.01791
G1 X68.809 Y86.18 E.01659
G1 X68.812 Y86.239 E.00187
G1 X68.812 Y92.261 E.18881
G1 X68.741 Y92.845 E.01844
G1 X68.561 Y93.356 E.01699
G1 X68.278 Y93.817 E.01697
G1 X67.913 Y94.204 E.01667
G1 X67.357 Y94.57 E.02089
G1 X66.82 Y94.766 E.01791
G1 X66.295 Y94.834 E.01659
G1 X66.236 Y94.837 E.00187
G1 X56.714 Y94.837 E.29855
G1 X56.13 Y94.766 E.01845
G1 X55.619 Y94.586 E.01699
G1 X55.183 Y94.325 E.01592
G1 X54.69 Y93.837 E.02175
G1 X54.542 Y93.6 E.00877
M204 P1250
G1 X54.957 Y93.571 F9000
M204 P800
;TYPE:External perimeter
G1 F1200
G1 X54.699 Y93.13 E.01601
G1 X54.559 Y92.689 E.0145
G1 X54.516 Y92.281 E.01288
G1 X54.515 Y92.261 E.00062
G1 X54.515 Y86.239 E.18881
G1 X54.567 Y85.772 E.01474
G1 X54.715 Y85.333 E.0145
G1 X54.957 Y84.929 E.01478
G1 X55.404 Y84.482 E.01982
G1 X55.845 Y84.224 E.01601
G1 X56.286 Y84.084 E.01451
G1 X56.714 Y84.04 E.0135
G1 X66.236 Y84.04 E.29855
G1 X66.703 Y84.093 E.01474
G1 X67.142 Y84.24 E.01451
G1 X67.62 Y84.549 E.01787
G1 X67.883 Y84.796 E.01128
G1 X68.23 Y85.325 E.01984
G1 X68.391 Y85.811 E.01605
G1 X68.435 Y86.239 E.01351
G1 X68.435 Y92.261 E.18881
G1 X68.382 Y92.728 E.01473
G1 X68.235 Y93.167 E.01452
G1 X67.915 Y93.657 E.01836
G1 X67.679 Y93.908 E.01079
G1 X67.15 Y94.255 E.01984
G1 X66.664 Y94.416 E.01605
G1 X66.236 Y94.46 E.0135
G1 X56.714 Y94.46 E.29855
G1 X56.247 Y94.407 E.01474
G1 X55.732 Y94.215 E.01724
G1 X55.404 Y94.018 E.012
G1 X54.999 Y93.613 E.01794
M204 P1250
G1 E-2.24 F2400
;WIPE_START
G1 F7200
G1 X54.699 Y93.13 E-.18016
;WIPE_END
G1 E-.77984 F2400
G1 Z.4 F9000
G1 X54.957 Y81.601
G1 Z.2
G1 E3.2 F1500
M204 P800
;TYPE:Perimeter
G1 F1200
G1 X54.69 Y81.337 E.01178
G1 X54.389 Y80.856 E.01782
G1 X54.209 Y80.345 E.01698
G1 X54.141 Y79.82 E.01658
G1 X54.138 Y79.761 E.00187
G1 X54.138 Y73.739 E.18881
G1 X54.209 Y73.155 E.01845
G1 X54.389 Y72.644 E.01697
G1 X54.69 Y72.163 E.0178
G1 X55.137 Y71.715 E.01984
G1 X55.619 Y71.414 E.01782
G1 X56.13 Y71.234 E.01697
G1 X56.655 Y71.166 E.01659
G1 X57.623 Y71.163 E.03036
G1 X66.236 Y71.163 E.27006
G1 X66.82 Y71.234 E.01844
G1 X67.321 Y71.409 E.01665
G1 X67.771 Y71.677 E.01641
G1 X68.175 Y72.056 E.01736
G1 X68.545 Y72.618 E.02112
G1 X68.741 Y73.155 E.01791
G1 X68.809 Y73.68 E.01659
G1 X68.812 Y73.739 E.00187
G1 X68.812 Y79.761 E.18881
G1 X68.741 Y80.345 E.01844
G1 X68.561 Y80.856 E.01699
G1 X68.304 Y81.288 E.01577
G1 X67.813 Y81.784 E.0219
G1 X67.331 Y82.086 E.01782
G1 X66.82 Y82.266 E.01698
G1 X66.295 Y82.334 E.01659
G1 X66.236 Y82.337 E.00187
G1 X56.714 Y82.337 E.29855
G1 X56.13 Y82.266 E.01844
G1 X55.619 Y82.086 E.01699
G1 X55.187 Y81.828 E.01578
G1 X55 Y81.644 E.00823
M204 P1250
G1 X54.957 Y81.071 F9000
M204 P800
;TYPE:External perimeter
G1 F1200
G1 X54.699 Y80.63 E.01601
G1 X54.559 Y80.189 E.0145
G1 X54.516 Y79.781 E.01288
G1 X54.515 Y79.761 E.00062
G1 X54.515 Y73.739 E.18881
G1 X54.567 Y73.272 E.01474
G1 X54.715 Y72.833 E.0145
G1 X55.001 Y72.385 E.01667
G1 X55.404 Y71.982 E.01788
G1 X55.844 Y71.724 E.01598
G1 X56.315 Y71.581 E.01545
G1 X57.118 Y71.54 E.02522
G1 X66.236 Y71.54 E.28587
G1 X66.703 Y71.592 E.01473
G1 X67.142 Y71.74 E.01452
G1 X67.539 Y71.976 E.01449
G1 X67.883 Y72.296 E.01472
G1 X68.23 Y72.825 E.01984
G1 X68.391 Y73.311 E.01605
G1 X68.435 Y73.739 E.01351
G1 X68.435 Y79.761 E.18881
G1 X68.382 Y80.228 E.01473
G1 X68.235 Y80.667 E.01452
G1 X67.993 Y81.071 E.01477
G1 X67.546 Y81.518 E.01982
G1 X67.105 Y81.776 E.01601
G1 X66.664 Y81.916 E.01451
G1 X66.236 Y81.96 E.0135
G1 X56.714 Y81.96 E.29855
M73 P1 R74
G1 X56.247 Y81.907 E.01474
G1 X55.808 Y81.76 E.01451
G1 X55.404 Y81.518 E.01478
G1 X54.999 Y81.113 E.01794
M204 P1250
G1 E-2.24 F2400
;WIPE_START
G1 F7200
G1 X54.699 Y80.63 E-.18015
;WIPE_END
G1 E-.77985 F2400
G1 Z.4 F9000
G1 X70.999 Y81.036
G1 Z.2
G1 E3.2 F1500
M204 P800
;TYPE:Perimeter
G1 F1200
G1 X70.84 Y80.747 E.01033
G1 X70.684 Y80.229 E.01698
G1 X70.641 Y79.82 E.01288
G1 X70.638 Y79.761 E.00187
G1 X70.638 Y73.739 E.18881
G1 X70.709 Y73.155 E.01845
G1 X70.889 Y72.644 E.01698
G1 X71.145 Y72.214 E.01571
G1 X71.52 Y71.809 E.0173
G1 X71.969 Y71.511 E.01689
G1 X72.228 Y71.365 E.00931
G1 X72.708 Y71.215 E.01578
G1 X73.214 Y71.163 E.01596
G1 X78.612 Y71.163 E.16923
G1 X82.736 Y71.163 E.12932
G1 X83.315 Y71.233 E.01829
G1 X83.802 Y71.399 E.01613
G1 X84.293 Y71.697 E.01799
G1 X84.698 Y72.089 E.01771
G1 X85.045 Y72.618 E.01984
G1 X85.241 Y73.155 E.01791
G1 X85.309 Y73.68 E.01659
G1 X85.312 Y73.739 E.00187
G1 X85.312 Y79.761 E.18881
G1 X85.26 Y80.267 E.01595
G1 X85.109 Y80.748 E.01579
G1 X84.849 Y81.221 E.01695
G1 X84.313 Y81.784 E.02438
G1 X83.831 Y82.086 E.01782
G1 X83.32 Y82.266 E.01698
G1 X82.795 Y82.334 E.01659
G1 X82.736 Y82.337 E.00187
G1 X73.214 Y82.337 E.29855
G1 X72.63 Y82.266 E.01844
G1 X72.119 Y82.086 E.01699
G1 X71.687 Y81.828 E.01578
G1 X71.296 Y81.443 E.0172
G1 X71.101 Y81.221 E.00927
G1 X71.028 Y81.089 E.00474
M204 P1250
G1 X71.457 Y81.071 F9000
M204 P800
;TYPE:External perimeter
G1 F1200
G1 X71.199 Y80.63 E.01601
G1 X71.059 Y80.189 E.01451
G1 X71.016 Y79.781 E.01288
G1 X71.015 Y79.761 E.00062
G1 X71.015 Y73.739 E.18881
G1 X71.068 Y73.272 E.01474
G1 X71.268 Y72.743 E.01772
G1 X71.451 Y72.436 E.01122
G1 X71.771 Y72.092 E.01472
G1 X72.3 Y71.745 E.01984
G1 X72.786 Y71.584 E.01604
G1 X73.214 Y71.54 E.01351
G1 X82.736 Y71.54 E.29855
G1 X83.203 Y71.593 E.01473
G1 X83.661 Y71.752 E.01522
G1 X84.075 Y72.009 E.01528
G1 X84.383 Y72.296 E.01319
G1 X84.73 Y72.825 E.01984
G1 X84.891 Y73.311 E.01605
G1 X84.935 Y73.739 E.0135
G1 X84.935 Y79.761 E.18881
G1 X84.882 Y80.228 E.01473
G1 X84.735 Y80.667 E.01452
G1 X84.493 Y81.071 E.01475
G1 X84.046 Y81.518 E.01983
