; generated by PrusaSlicer 2.4.1-beta1+arm64 on 2022-02-18 at 14:38:15 UTC


;
;

;
;
; 

; external perimeters extrusion width = 0.45mm
; perimeters extrusion width = 0.45mm
; infill extrusion width = 0.45mm
; solid infill extrusion width = 0.45mm
; top infill extrusion width = 0.40mm
; first layer extrusion width = 0.42mm

; external perimeters extrusion width = 0.45mm
; perimeters extrusion width = 0.45mm
; infill extrusion width = 0.45mm
; solid infill extrusion width = 0.45mm
; top infill extrusion width = 0.40mm
; first layer extrusion width = 0.42mm

M73 P0 R79
M107
;TYPE:Custom
G90 ; use absolute coordinates
M83 ; extruder relative mode
M104 S170 ; set extruder temp for bed leveling
M140 S80 ; set bed temp
M109 R170 ; wait for bed leveling temp
M190 S80 ; wait for bed temp
G28 ; home all without mesh bed level
G29 ; mesh bed leveling 
M104 S222 ; set extruder temp
G92 E0.0
G1 Y-2.0 X179 F2400
G1 Z3 F720
M109 S222 ; wait for extruder temp

; intro line
G1 X170 F1000
G1 Z0.2 F720
G1 X110.0 E8.0 F900
G1 X40.0 E10.0 F700
G92 E0.0

M221 S95 ; set flow
G21 ; set units to millimeters
G90 ; use absolute coordinates
M83 ; use relative distances for extrusion
M900 K0.2 ; Filament gcode LA 1.5
; ; Filament gcode LA 1.0
M107
;LAYER_CHANGE
;Z:0.2
;HEIGHT:0.2
;BEFORE_LAYER_CHANGE
G92 E0.0
;0.2


G1 E-3.2 F2400
G1 Z.2 F9000
;AFTER_LAYER_CHANGE
;0.2
G1 Z.4
G1 X48.535 Y59.153
G1 Z.2
G1 E3.2 F1500
M204 S800
;TYPE:Skirt/Brim
;WIDTH:0.42
G1 F1200
G1 X49.8 Y58.959 E.04012
G1 X90.012 Y58.98 E1.26081
G1 X124.213 Y63.507 E1.0817
G1 X125.62 Y63.845 E.04538
G1 X126.636 Y64.345 E.03552
G1 X132.086 Y67.924 E.20443
G1 X132.707 Y68.43 E.0251
G1 X133.516 Y69.377 E.03906
G1 X133.948 Y70.138 E.02742
G1 X134.255 Y70.956 E.02742
G1 X134.431 Y71.813 E.02742
G1 X134.477 Y107.5 E1.11894
G1 X134.43 Y108.187 E.02159
G1 X134.255 Y109.044 E.02742
G1 X133.947 Y109.863 E.02742
G1 X133.515 Y110.623 E.02742
G1 X132.97 Y111.307 E.02742
G1 X132.324 Y111.897 E.02742
G1 X127.209 Y115.605 E.19809
G1 X126.451 Y116.018 E.02708
G1 X125.29 Y116.398 E.03829
G1 X90.007 Y121.021 E1.11573
G1 X49.475 Y121.041 E1.27087
G1 X48.168 Y120.649 E.04278
G1 X47.291 Y119.603 E.04278
G1 X47.098 Y118.664 E.03008
G1 X47.098 Y61.336 E1.79746
G1 X47.49 Y60.029 E.04278
M73 P0 R78
G1 X48.489 Y59.191 E.0409
M204 S1250
; printing object pixel_pump_ui_pcb_spacer.stl id:1 copy 0
G1 E-2.24 F2400
;WIPE_START
G1 F7200
G1 X49.8 Y58.959 E-.42153
G1 X51.349 Y58.96 E-.49047
;WIPE_END
G1 E-.048 F2400
G1 Z.4 F9000
G1 X114.546 Y85.865
G1 Z.2
G1 E3.2 F1500
M204 S800
;TYPE:Perimeter
G1 F1200
G1 X114.515 Y85.923 E.00208
G1 X114.36 Y86.456 E.0174
G1 X114.313 Y86.964 E.016
G1 X114.313 Y93.035 E.19035
G1 X114.359 Y93.544 E.016
G1 X114.515 Y94.076 E.0174
G1 X114.548 Y94.138 E.00219
G1 X114.279 Y94.048 E.00891
G1 X113.74 Y94.019 E.01691
G1 X113.261 Y94.122 E.01535
G1 X113.441 Y93.543 E.01901
G1 X113.487 Y93.035 E.01599
G1 X113.487 Y86.965 E.19034
G1 X113.441 Y86.457 E.01599
G1 X113.262 Y85.878 E.01899
G1 X113.785 Y85.984 E.01675
G1 X114.323 Y85.943 E.01691
G1 X114.49 Y85.885 E.00554
M204 S1250
G1 E-2.24 F2400
;WIPE_START
G1 F7200
G1 X114.515 Y85.923 E-.01455
G1 X114.36 Y86.456 E-.17568
G1 X114.313 Y86.964 E-.16163
G1 X114.313 Y88.733 E-.56014
;WIPE_END
G1 E-.048 F2400
G1 Z.4 F9000
G1 X105.906 Y68.792
G1 Z.2
G1 E3.2 F1500
M204 S800
G1 F1200
G1 X105.933 Y69.35 E.01749
G1 X105.855 Y69.82 E.01493
G1 X105.654 Y70.3 E.01633
G1 X105.348 Y70.721 E.01633
G1 X104.953 Y71.06 E.01632
G1 X104.49 Y71.298 E.01633
G1 X104.031 Y71.413 E.01484
G1 X110.435 Y71.413 E.20079
G1 X110.937 Y71.457 E.01581
G1 X111.457 Y71.596 E.01689
G1 X111.945 Y71.824 E.01689
G1 X112.387 Y72.133 E.01689
G1 X112.767 Y72.514 E.01689
G1 X113.076 Y72.955 E.01689
G1 X113.304 Y73.443 E.01689
G1 X113.443 Y73.963 E.01689
G1 X113.487 Y74.466 E.01581
G1 X113.487 Y80.535 E.19031
G1 X113.441 Y81.043 E.01599
G1 X113.261 Y81.622 E.01901
G1 X113.74 Y81.519 E.01535
G1 X114.279 Y81.548 E.01691
G1 X114.548 Y81.638 E.00891
G1 X114.515 Y81.576 E.00219
G1 X114.36 Y81.044 E.0174
G1 X114.313 Y80.535 E.016
G1 X114.313 Y74.465 E.19032
G1 X114.357 Y73.963 E.01581
G1 X114.497 Y73.443 E.01689
G1 X114.724 Y72.955 E.01689
G1 X115.033 Y72.514 E.01689
G1 X115.414 Y72.133 E.01689
G1 X115.855 Y71.824 E.01689
G1 X116.343 Y71.596 E.01689
G1 X116.864 Y71.457 E.01689
G1 X117.343 Y71.415 E.01508
G1 X123.292 Y71.414 E.18653
G1 X122.856 Y71.315 E.01401
G1 X122.388 Y71.087 E.01633
G1 X121.986 Y70.756 E.01632
G1 X121.671 Y70.342 E.01633
G1 X121.459 Y69.866 E.01632
G1 X121.362 Y69.348 E.01652
G1 X121.4 Y68.792 E.01749
G1 X121.532 Y68.334 E.01493
G1 X121.787 Y67.88 E.01633
G1 X122.14 Y67.498 E.01632
G1 X122.577 Y67.204 E.01652
G1 X123.104 Y67.018 E.01749
G1 X123.576 Y66.958 E.01494
G1 X124.094 Y67.013 E.01633
G1 X124.585 Y67.185 E.01632
G1 X125.023 Y67.467 E.01633
G1 X125.384 Y67.842 E.01632
G1 X125.65 Y68.29 E.01632
G1 X125.806 Y68.793 E.01652
G1 X125.833 Y69.35 E.01749
G1 X125.755 Y69.82 E.01493
G1 X125.554 Y70.3 E.01633
G1 X125.248 Y70.721 E.01632
G1 X124.853 Y71.06 E.01632
G1 X124.39 Y71.299 E.01632
G1 X123.928 Y71.414 E.01492
G1 X126.935 Y71.413 E.09427
G1 X127.437 Y71.457 E.01581
G1 X127.957 Y71.596 E.01689
G1 X128.445 Y71.824 E.01689
G1 X128.887 Y72.133 E.01689
G1 X129.267 Y72.514 E.01689
G1 X129.576 Y72.955 E.01689
G1 X129.804 Y73.443 E.01689
G1 X129.943 Y73.964 E.01689
G1 X129.987 Y74.466 E.01581
G1 X129.987 Y80.534 E.19028
G1 X129.943 Y81.037 E.01581
G1 X129.804 Y81.557 E.01689
G1 X129.576 Y82.045 E.01689
G1 X129.267 Y82.486 E.01689
G1 X128.886 Y82.867 E.01689
G1 X128.445 Y83.176 E.01689
G1 X127.957 Y83.404 E.01689
G1 X127.437 Y83.543 E.01689
G1 X126.934 Y83.587 E.01581
G1 X117.366 Y83.587 E.30003
G1 X116.861 Y83.543 E.01588
G1 X116.33 Y83.396 E.01726
G1 X116.062 Y83.257 E.00948
G1 X116.133 Y83.729 E.01497
G1 X116.062 Y84.243 E.01626
G1 X116.33 Y84.104 E.00947
G1 X116.861 Y83.957 E.01726
G1 X117.343 Y83.915 E.01515
G1 X126.934 Y83.913 E.30075
G1 X127.437 Y83.957 E.01581
G1 X127.957 Y84.096 E.01689
G1 X128.445 Y84.324 E.01689
G1 X128.886 Y84.633 E.01689
G1 X129.267 Y85.014 E.01689
G1 X129.576 Y85.455 E.01689
G1 X129.804 Y85.943 E.01689
G1 X129.943 Y86.463 E.01689
G1 X129.987 Y86.966 E.01581
G1 X129.987 Y93.034 E.19028
G1 X129.943 Y93.537 E.01581
G1 X129.804 Y94.057 E.01689
G1 X129.576 Y94.545 E.01689
G1 X129.267 Y94.986 E.01689
G1 X128.886 Y95.367 E.01689
G1 X128.445 Y95.676 E.01689
G1 X127.957 Y95.904 E.01689
G1 X127.437 Y96.043 E.01689
G1 X126.934 Y96.087 E.01581
G1 X117.365 Y96.087 E.30003
G1 X116.861 Y96.043 E.01588
G1 X116.33 Y95.896 E.01726
G1 X116.062 Y95.757 E.00948
G1 X116.133 Y96.229 E.01497
G1 X116.062 Y96.743 E.01626
G1 X116.33 Y96.604 E.00947
G1 X116.861 Y96.457 E.01726
G1 X117.342 Y96.415 E.01515
G1 X126.934 Y96.413 E.30075
G1 X127.437 Y96.457 E.01581
G1 X127.957 Y96.596 E.01689
G1 X128.445 Y96.824 E.01689
G1 X128.886 Y97.133 E.01689
G1 X129.267 Y97.514 E.01689
G1 X129.576 Y97.955 E.01689
G1 X129.804 Y98.443 E.01689
G1 X129.943 Y98.964 E.01689
G1 X129.987 Y99.466 E.01581
G1 X129.987 Y105.534 E.19028
G1 X129.943 Y106.037 E.01581
G1 X129.804 Y106.557 E.01689
G1 X129.576 Y107.045 E.01689
G1 X129.267 Y107.486 E.01689
G1 X128.886 Y107.867 E.01689
G1 X128.445 Y108.176 E.01689
G1 X127.957 Y108.404 E.01689
G1 X127.436 Y108.543 E.01689
G1 X126.934 Y108.587 E.01581
G1 X124.411 Y108.587 E.0791
G1 X124.844 Y108.685 E.0139
G1 X125.312 Y108.913 E.01633
G1 X125.714 Y109.244 E.01633
G1 X126.03 Y109.658 E.01632
G1 X126.241 Y110.134 E.01633
G1 X126.337 Y110.645 E.01633
G1 X126.312 Y111.165 E.01632
G1 X126.168 Y111.666 E.01633
G1 X125.913 Y112.12 E.01632
G1 X125.56 Y112.502 E.01632
G1 X125.128 Y112.793 E.01633
G1 X124.64 Y112.976 E.01633
G1 X124.124 Y113.042 E.01633
G1 X123.606 Y112.987 E.01632
G1 X123.115 Y112.815 E.01633
G1 X122.677 Y112.533 E.01633
G1 X122.316 Y112.158 E.01632
G1 X122.05 Y111.71 E.01632
G1 X121.896 Y111.213 E.01633
G1 X121.86 Y110.694 E.01632
G1 X121.945 Y110.18 E.01633
G1 X122.146 Y109.7 E.01632
G1 X122.452 Y109.279 E.01633
G1 X122.847 Y108.94 E.01632
G1 X123.316 Y108.698 E.01652
G1 X123.807 Y108.587 E.0158
G1 X117.365 Y108.587 E.20198
G1 X116.863 Y108.543 E.01581
G1 X116.343 Y108.404 E.01689
G1 X115.855 Y108.176 E.01689
G1 X115.414 Y107.867 E.01689
G1 X115.033 Y107.486 E.01689
G1 X114.724 Y107.045 E.01689
G1 X114.496 Y106.557 E.01689
G1 X114.357 Y106.036 E.01689
G1 X114.313 Y105.534 E.01581
G1 X114.313 Y99.464 E.19032
G1 X114.359 Y98.956 E.016
G1 X114.515 Y98.423 E.0174
G1 X114.546 Y98.365 E.00208
G1 X114.323 Y98.443 E.00742
G1 X113.785 Y98.484 E.01691
G1 X113.261 Y98.378 E.01675
G1 X113.441 Y98.957 E.01899
G1 X113.487 Y99.465 E.01599
G1 X113.487 Y105.534 E.19031
G1 X113.443 Y106.036 E.01581
G1 X113.304 Y106.557 E.01689
G1 X113.076 Y107.045 E.01689
G1 X112.767 Y107.486 E.01689
G1 X112.386 Y107.867 E.01689
G1 X111.945 Y108.176 E.01689
G1 X111.457 Y108.404 E.01689
G1 X110.936 Y108.543 E.01689
G1 X110.434 Y108.587 E.01581
G1 X103.511 Y108.587 E.21706
G1 X103.944 Y108.684 E.0139
G1 X104.412 Y108.913 E.01633
G1 X104.814 Y109.243 E.01632
G1 X105.13 Y109.658 E.01632
G1 X105.341 Y110.133 E.01633
G1 X105.437 Y110.645 E.01632
G1 X105.412 Y111.165 E.01632
G1 X105.268 Y111.666 E.01633
G1 X105.013 Y112.119 E.01632
G1 X104.66 Y112.502 E.01632
G1 X104.228 Y112.793 E.01633
G1 X103.74 Y112.976 E.01633
G1 X103.224 Y113.042 E.01633
G1 X102.706 Y112.987 E.01632
G1 X102.215 Y112.814 E.01633
G1 X101.777 Y112.533 E.01633
G1 X101.416 Y112.158 E.01632
G1 X101.15 Y111.71 E.01632
G1 X100.996 Y111.213 E.01633
G1 X100.96 Y110.694 E.01632
G1 X101.045 Y110.18 E.01632
G1 X101.246 Y109.7 E.01633
G1 X101.552 Y109.279 E.01633
G1 X101.947 Y108.94 E.01632
G1 X102.416 Y108.698 E.01652
G1 X102.907 Y108.587 E.0158
G1 X100.865 Y108.587 E.06402
G1 X100.363 Y108.543 E.01581
G1 X99.843 Y108.403 E.01689
G1 X99.355 Y108.176 E.01689
G1 X98.914 Y107.867 E.01689
G1 X98.533 Y107.486 E.01689
G1 X98.224 Y107.045 E.01689
G1 X97.996 Y106.557 E.01689
G1 X97.857 Y106.036 E.01689
G1 X97.813 Y105.534 E.01581
G1 X97.813 Y99.465 E.19028
G1 X97.857 Y98.963 E.01581
G1 X97.996 Y98.443 E.01689
G1 X98.224 Y97.955 E.01689
G1 X98.533 Y97.513 E.01689
G1 X98.914 Y97.133 E.01689
G1 X99.355 Y96.824 E.01689
G1 X99.843 Y96.596 E.01689
G1 X100.363 Y96.457 E.01689
G1 X100.843 Y96.415 E.01508
G1 X110.434 Y96.413 E.30075
G1 X110.939 Y96.457 E.01588
G1 X111.47 Y96.604 E.01727
G1 X111.75 Y96.749 E.00991
G1 X111.681 Y96.5 E.00811
G1 X111.687 Y95.958 E.01701
G1 X111.745 Y95.753 E.00667
G1 X111.47 Y95.896 E.00972
G1 X110.939 Y96.043 E.01727
G1 X110.434 Y96.087 E.01588
G1 X100.866 Y96.087 E.30003
G1 X100.363 Y96.043 E.01581
G1 X99.843 Y95.903 E.01689
G1 X99.355 Y95.676 E.01689
G1 X98.914 Y95.367 E.01689
G1 X98.533 Y94.986 E.01689
G1 X98.224 Y94.545 E.01689
G1 X97.996 Y94.057 E.01689
G1 X97.857 Y93.536 E.01689
G1 X97.813 Y93.034 E.01581
G1 X97.813 Y86.965 E.19028
G1 X97.857 Y86.463 E.01581
G1 X97.996 Y85.943 E.01689
G1 X98.224 Y85.455 E.01689
G1 X98.533 Y85.013 E.01689
G1 X98.914 Y84.633 E.01689
G1 X99.355 Y84.324 E.01689
G1 X99.843 Y84.096 E.01689
G1 X100.364 Y83.957 E.01689
G1 X100.843 Y83.915 E.01508
G1 X110.435 Y83.913 E.30075
G1 X110.939 Y83.957 E.01588
G1 X111.47 Y84.104 E.01727
G1 X111.751 Y84.249 E.00991
G1 X111.681 Y84 E.00811
G1 X111.687 Y83.458 E.01701
G1 X111.745 Y83.253 E.00667
G1 X111.47 Y83.396 E.00972
G1 X110.939 Y83.543 E.01727
G1 X110.435 Y83.587 E.01588
G1 X100.866 Y83.587 E.30003
G1 X100.364 Y83.543 E.01581
M73 P1 R78
G1 X99.843 Y83.403 E.01689
G1 X99.355 Y83.176 E.01689
G1 X98.914 Y82.867 E.01689
G1 X98.533 Y82.486 E.01689
G1 X98.224 Y82.045 E.01689
G1 X97.996 Y81.557 E.01689
G1 X97.857 Y81.036 E.01689
G1 X97.813 Y80.534 E.01581
G1 X97.813 Y74.465 E.19028
G1 X97.857 Y73.963 E.01581
G1 X97.997 Y73.443 E.01689
G1 X98.224 Y72.955 E.01689
G1 X98.533 Y72.513 E.01689
G1 X98.914 Y72.133 E.01689
G1 X99.355 Y71.824 E.01689
G1 X99.843 Y71.596 E.01689
G1 X100.364 Y71.457 E.01689
G1 X100.866 Y71.413 E.01581
G1 X103.389 Y71.413 E.0791
G1 X102.956 Y71.315 E.0139
G1 X102.488 Y71.086 E.01633
G1 X102.086 Y70.756 E.01632
G1 X101.771 Y70.342 E.01633
G1 X101.559 Y69.866 E.01632
G1 X101.463 Y69.354 E.01633
G1 X101.488 Y68.834 E.01632
G1 X101.632 Y68.334 E.01633
G1 X101.887 Y67.88 E.01632
G1 X102.24 Y67.498 E.01632
G1 X102.677 Y67.203 E.01652
G1 X103.204 Y67.018 E.01749
G1 X103.676 Y66.957 E.01494
G1 X104.194 Y67.012 E.01632
G1 X104.685 Y67.185 E.01633
G1 X105.123 Y67.466 E.01632
G1 X105.484 Y67.841 E.01633
G1 X105.75 Y68.289 E.01632
G1 X105.888 Y68.735 E.01464
M204 S1250
G1 E-2.24 F2400
;WIPE_START
G1 F7200
G1 X105.933 Y69.35 E-.19511
G1 X105.855 Y69.82 E-.15084
G1 X105.654 Y70.3 E-.16488
G1 X105.348 Y70.721 E-.16488
G1 X104.953 Y71.06 E-.16488
G1 X104.752 Y71.163 E-.07143
;WIPE_END
G1 E-.048 F2400
G1 Z.4 F9000
G1 X113.343 Y94.49
G1 Z.2
G1 E3.2 F1500
M204 S800
;TYPE:External perimeter
G1 F1200
G1 X113.77 Y94.399 E.01369
G1 X114.208 Y94.422 E.01373
G1 X114.627 Y94.562 E.01385
G1 X114.993 Y94.83 E.01424
G1 X115.251 Y95.092 E.01153
G1 X115.523 Y95.433 E.01366
G1 X115.687 Y95.798 E.01255
G1 X115.752 Y96.231 E.01375
G1 X115.687 Y96.701 E.01485
G1 X115.523 Y97.067 E.0126
G1 X115.251 Y97.408 E.01366
G1 X114.993 Y97.67 E.01153
G1 X114.628 Y97.937 E.0142
G1 X114.245 Y98.071 E.0127
G1 X113.809 Y98.104 E.01373
G1 X113.344 Y98.01 E.01485
G1 X112.959 Y97.808 E.01365
G1 X112.664 Y97.528 E.01275
G1 X112.403 Y97.237 E.01225
G1 X112.186 Y96.909 E.01234
G1 X112.058 Y96.451 E.0149
G1 X112.064 Y96.012 E.01375
G1 X112.174 Y95.622 E.01271
G1 X112.421 Y95.238 E.01433
G1 X112.956 Y94.694 E.02391
G1 X113.29 Y94.518 E.01184
M204 S1250
G1 X113.405 Y94.095 F9000
G1 E-2.24 F2400
;WIPE_START
G1 F7200
G1 X113.77 Y94.399 E-.15669
G1 X114.208 Y94.422 E-.1387
G1 X114.627 Y94.562 E-.13988
G1 X114.993 Y94.83 E-.14385
G1 X115.251 Y95.092 E-.11646
G1 X115.523 Y95.433 E-.13798
G1 X115.624 Y95.659 E-.07845
;WIPE_END
G1 E-.048 F2400
G1 Z.4 F9000
G1 X116.042 Y97.178
G1 Z.2
G1 E3.2 F1500
M204 S800
G1 F1200
G1 X116.469 Y96.957 E.01508
G1 X116.928 Y96.83 E.01495
G1 X117.359 Y96.792 E.01356
G1 X126.918 Y96.79 E.29971
G1 X127.371 Y96.83 E.01426
G1 X127.827 Y96.952 E.01482
G1 X128.256 Y97.152 E.01482
G1 X128.643 Y97.423 E.01482
G1 X128.977 Y97.757 E.01482
G1 X129.248 Y98.144 E.01482
G1 X129.448 Y98.573 E.01482
G1 X129.57 Y99.029 E.01482
G1 X129.61 Y99.482 E.01426
G1 X129.61 Y105.518 E.18925
G1 X129.57 Y105.971 E.01426
G1 X129.448 Y106.427 E.01482
G1 X129.248 Y106.856 E.01482
G1 X128.977 Y107.243 E.01482
G1 X128.643 Y107.577 E.01482
G1 X128.256 Y107.848 E.01482
G1 X127.827 Y108.048 E.01482
G1 X127.371 Y108.17 E.01482
G1 X126.918 Y108.21 E.01426
G1 X117.382 Y108.21 E.29899
G1 X116.929 Y108.17 E.01426
G1 X116.472 Y108.048 E.01482
G1 X116.044 Y107.848 E.01482
G1 X115.657 Y107.577 E.01482
G1 X115.323 Y107.243 E.01482
G1 X115.052 Y106.856 E.01482
G1 X114.852 Y106.427 E.01482
G1 X114.729 Y105.971 E.01482
G1 X114.69 Y105.518 E.01426
G1 X114.69 Y99.482 E.18926
G1 X114.732 Y99.027 E.01432
G1 X114.865 Y98.568 E.01498
G1 X115.094 Y98.147 E.01504
G1 X115.687 Y97.484 E.02787
G1 X115.996 Y97.217 E.01281
M204 S1250
G1 X116.018 Y96.779 F9000
G1 E-2.24 F2400
;WIPE_START
G1 F7200
G1 X116.469 Y96.957 E-.17079
G1 X116.928 Y96.83 E-.15096
G1 X117.359 Y96.792 E-.13693
G1 X118.791 Y96.792 E-.45332
;WIPE_END
G1 E-.048 F2400
G1 Z.4 F9000
G1 X116.042 Y95.322
G1 Z.2
G1 E3.2 F1500
M204 S800
G1 F1200
G1 X115.687 Y95.015 E.0147
G1 X115.094 Y94.353 E.02787
G1 X114.865 Y93.932 E.01504
G1 X114.732 Y93.473 E.01498
G1 X114.69 Y93.018 E.01432
G1 X114.69 Y92.077 E.02952
G1 X114.69 Y86.982 E.15976
G1 X114.732 Y86.527 E.01432
G1 X114.865 Y86.068 E.01498
G1 X115.094 Y85.647 E.01504
G1 X115.687 Y84.984 E.02787
G1 X116.042 Y84.678 E.0147
G1 X116.469 Y84.457 E.01508
G1 X116.928 Y84.33 E.01495
G1 X117.359 Y84.292 E.01356
G1 X126.918 Y84.29 E.29971
G1 X127.371 Y84.33 E.01426
G1 X127.828 Y84.452 E.01482
G1 X128.256 Y84.652 E.01482
G1 X128.643 Y84.923 E.01482
G1 X128.977 Y85.257 E.01482
G1 X129.248 Y85.644 E.01482
G1 X129.448 Y86.073 E.01482
G1 X129.57 Y86.529 E.01482
G1 X129.61 Y86.982 E.01426
G1 X129.61 Y93.018 E.18925
G1 X129.57 Y93.471 E.01426
G1 X129.448 Y93.927 E.01482
G1 X129.248 Y94.356 E.01482
