; generated by PrusaSlicer 2.6.0+MacOS-arm64 on 2023-07-11 at 10:21:37 UTC


;
;

;
;
; 

; external perimeters extrusion width = 0.45mm
; perimeters extrusion width = 0.45mm
; infill extrusion width = 0.45mm
; solid infill extrusion width = 0.45mm
; top infill extrusion width = 0.40mm
; first layer extrusion width = 0.42mm

; external perimeters extrusion width = 0.45mm
; perimeters extrusion width = 0.45mm
; infill extrusion width = 0.45mm
; solid infill extrusion width = 0.45mm
; top infill extrusion width = 0.40mm
; first layer extrusion width = 0.42mm

M73 P0 R70
M201 X2500 Y2500 Z400 E5000 ; sets maximum accelerations, mm/sec^2
M203 X180 Y180 Z12 E80 ; sets maximum feedrates, mm / sec
M204 P1250 R1250 T2500 ; sets acceleration (P, T) and retract acceleration (R), mm/sec^2
M205 X8.00 Y8.00 Z2.00 E10.00 ; sets the jerk limits, mm/sec
M205 S0 T0 ; sets the minimum extruding and travel feed rate, mm/sec
;TYPE:Custom
M862.3 P "MINI" ; printer model check
G90 ; use absolute coordinates
M83 ; extruder relative mode
M104 S155 ; set extruder temp for bed leveling
M140 S80 ; set bed temp
M109 R155 ; wait for bed leveling temp
M190 S80 ; wait for bed temp
M204 T1250 ; set travel acceleration
G28 ; home all without mesh bed level
G29 ; mesh bed leveling 
M204 T2500 ; restore travel acceleration
M104 S218 ; set extruder temp
G92 E0
G1 Y-2 X179 F2400
G1 Z0.3 F720
M109 S218 ; wait for extruder temp

; intro line
G1 Z0.3 E2 F900
G1 Z2 E6 F500
G1 Z0.4 X85 E12 F900
G1 Z0.2 X30 E12 F900
G1 Z0.1 X25 E0 F900
G92 E0

M221 S95 ; set flow
G21 ; set units to millimeters
G90 ; use absolute coordinates
M83 ; use relative distances for extrusion
M900 K0.2 ; Filament gcode LA 1.5
; ; Filament gcode LA 1.0
M107
;LAYER_CHANGE
;Z:0.2
;HEIGHT:0.2
;BEFORE_LAYER_CHANGE
G92 E0.0
;0.2


G1 E-3.2 F2400
G1 Z.2 F9000
;AFTER_LAYER_CHANGE
;0.2
; printing object pixel_pump_ui_lid.stl id:0 copy 0
G1 Z.4
G1 X88.837 Y63.263
G1 Z.2
G1 E3.2 F1500
M204 P800
;TYPE:Perimeter
;WIDTH:0.571851
G1 F1200
G1 X88.514 Y62.779 E.02559
G1 X88.107 Y62.372 E.02531
G1 X87.861 Y62.199 E.01323
G1 X88.837 Y62.199 E.04293
G1 X88.837 Y63.203 E.04416
M204 P1250
G1 E-2.24 F2400
;WIPE_START
G1 F7200
G1 X88.514 Y62.779 E-.16879
G1 X88.107 Y62.372 E-.18227
G1 X87.861 Y62.199 E-.09523
G1 X88.837 Y62.199 E-.30907
G1 X88.837 Y62.845 E-.20464
;WIPE_END
G1 Z.4 F9000
G1 X88.913 Y66.105
G1 Z.2
G1 E3.2 F1500
M204 P800
;WIDTH:0.419999
G1 F1200
G1 X88.913 Y112.359 E1.45026
G1 X88.46 Y111.66 E.02612
G1 X87.954 Y111.174 E.022
G1 X87.352 Y110.813 E.02201
G1 X86.682 Y110.594 E.0221
G1 X85.961 Y110.531 E.02269
G1 X85.413 Y110.595 E.0173
G1 X85.067 Y110.701 E.01135
G1 X84.596 Y110.891 E.01592
G1 X84.046 Y111.253 E.02064
G1 X83.56 Y111.759 E.022
G1 X83.199 Y112.361 E.02201
G1 X83.009 Y112.905 E.01807
G1 X82.961 Y113.197 E.00928
G1 X82.916 Y113.727 E.01668
G1 X83.009 Y114.423 E.02202
G1 X83.254 Y115.081 E.02201
G1 X83.642 Y115.67 E.02211
G1 X84.166 Y116.168 E.02267
G1 X84.747 Y116.515 E.02122
G1 X85.414 Y116.733 E.022
G1 X86.113 Y116.798 E.02201
G1 X86.809 Y116.705 E.02202
G1 X87.467 Y116.46 E.02201
G1 X88.053 Y116.074 E.022
G1 X88.539 Y115.568 E.022
G1 X88.913 Y114.932 E.02313
G1 X88.913 Y117.877 E.09234
G1 X50.586 Y117.876 E1.20171
G1 X50.584 Y116.375 E.04706
G1 X50.555 Y115.699 E.02121
G1 X50.994 Y116.149 E.01971
G1 X51.597 Y116.514 E.0221
G1 X52.264 Y116.733 E.02201
G1 X52.963 Y116.797 E.02201
G1 X53.659 Y116.705 E.02201
G1 X54.317 Y116.46 E.02201
G1 X54.903 Y116.074 E.022
G1 X55.389 Y115.568 E.022
G1 X55.751 Y114.966 E.02203
G1 X55.969 Y114.299 E.022
G1 X56.034 Y113.6 E.02201
G1 X55.941 Y112.905 E.02199
G1 X55.696 Y112.247 E.02201
G1 X55.31 Y111.66 E.02203
G1 X54.804 Y111.174 E.022
G1 X54.202 Y110.813 E.02201
G1 X53.532 Y110.594 E.0221
G1 X52.811 Y110.531 E.02269
G1 X52.141 Y110.622 E.0212
G1 X51.481 Y110.869 E.0221
G1 X50.995 Y111.178 E.01806
G1 X50.568 Y111.614 E.01913
G1 X50.587 Y110.688 E.02904
G1 X50.587 Y67.805 E1.34456
G1 X50.568 Y66.886 E.02882
G1 X50.995 Y67.322 E.01913
G1 X51.597 Y67.687 E.02207
G1 X52.264 Y67.906 E.02201
G1 X52.963 Y67.97 E.02201
G1 X53.702 Y67.862 E.02342
G1 X54.317 Y67.632 E.02059
G1 X54.95 Y67.201 E.02401
G1 X55.39 Y66.741 E.01996
G1 X55.751 Y66.139 E.02201
G1 X55.969 Y65.472 E.022
G1 X56.034 Y64.773 E.02201
G1 X55.941 Y64.077 E.02202
G1 X55.696 Y63.419 E.02201
G1 X55.311 Y62.833 E.02198
G1 X54.903 Y62.426 E.01807
G1 X54.448 Y62.123 E.01714
G1 X84.507 Y62.121 E.94248
G1 X84.047 Y62.426 E.01731
G1 X83.56 Y62.932 E.02202
G1 X83.199 Y63.534 E.02201
G1 X82.981 Y64.201 E.022
G1 X82.916 Y64.9 E.02201
G1 X83.009 Y65.596 E.02202
G1 X83.254 Y66.253 E.02199
G1 X83.639 Y66.84 E.02201
G1 X84.146 Y67.326 E.02202
G1 X84.747 Y67.687 E.02198
G1 X85.414 Y67.906 E.02201
G1 X85.987 Y67.97 E.01808
G1 X86.195 Y67.961 E.00653
G1 X86.809 Y67.878 E.01943
G1 X87.467 Y67.632 E.02203
G1 X88.053 Y67.247 E.02198
G1 X88.54 Y66.741 E.02202
G1 X88.883 Y66.157 E.02124
M204 P1250
G1 E-2.24 F2400
;WIPE_START
G1 F7200
G1 X88.885 Y69.189 E-.96
;WIPE_END
G1 Z.4 F9000
G1 X88.646 Y63.906
G1 Z.2
G1 E3.2 F1500
M204 P800
;TYPE:External perimeter
;WIDTH:0.482574
G1 F1200
G1 X88.765 Y64.192 E.01132
G1 X88.835 Y64.812 E.02281
;WIDTH:0.504977
G1 X88.787 Y65.435 E.02401
G1 X88.666 Y65.725 E.01207
;WIDTH:0.462488
G1 X88.545 Y66.015 E.01096
;WIDTH:0.419999
G1 X88.22 Y66.54 E.01936
G1 X87.787 Y66.98 E.01936
G1 X87.266 Y67.313 E.01939
G1 X86.685 Y67.522 E.01936
G1 X86.153 Y67.586 E.0168
G1 X85.559 Y67.543 E.01867
G1 X84.872 Y67.331 E.02254
G1 X84.346 Y67.007 E.01937
G1 X83.906 Y66.573 E.01938
G1 X83.573 Y66.053 E.01936
G1 X83.365 Y65.471 E.01938
G1 X83.291 Y64.858 E.01936
G1 X83.355 Y64.243 E.01939
G1 X83.555 Y63.658 E.01938
G1 X83.88 Y63.133 E.01936
G1 X84.313 Y62.692 E.01938
G1 X84.834 Y62.36 E.01937
;WIDTH:0.438072
G1 X85.416 Y62.148 E.02035
G1 X86.011 Y62.102 E.01961
G1 X86.636 Y62.139 E.02057
G1 X87.115 Y62.304 E.01665
;WIDTH:0.419999
G1 X87.266 Y62.36 E.00505
G1 X87.754 Y62.666 E.01806
G1 X88.194 Y63.1 E.01938
G1 X88.527 Y63.62 E.01936
;WIDTH:0.451287
G1 X88.623 Y63.851 E.00849
M204 P1250
G1 E-2.24 F2400
;WIPE_START
G1 F7200
G1 X88.765 Y64.192 E-.11697
G1 X88.835 Y64.812 E-.19758
G1 X88.787 Y65.435 E-.19787
G1 X88.666 Y65.725 E-.09951
G1 X88.545 Y66.015 E-.09951
G1 X88.22 Y66.54 E-.19553
G1 X88.103 Y66.659 E-.05303
;WIPE_END
G1 Z.4 F9000
G1 X83.963 Y71.499
G1 Z.2
G1 E3.2 F1500
M204 P800
;TYPE:Perimeter
;WIDTH:0.419999
G1 F1200
G1 X84.419 Y71.822 E.01752
G1 X84.667 Y72.05 E.01056
G1 X85.02 Y72.572 E.01976
G1 X85.214 Y73.053 E.01626
G1 X85.312 Y73.744 E.02188
G1 X85.305 Y79.88 E.19239
G1 X85.209 Y80.46 E.01843
G1 X85.022 Y80.932 E.01592
G1 X84.602 Y81.509 E.02238
G1 X84.425 Y81.692 E.00798
G1 X83.903 Y82.045 E.01976
G1 X83.422 Y82.24 E.01627
G1 X82.731 Y82.337 E.02188
G1 X73.218 Y82.337 E.29827
G1 X72.709 Y82.282 E.01605
G1 X72.193 Y82.117 E.01699
G1 X71.647 Y81.792 E.01992
G1 X71.281 Y81.451 E.01568
G1 X70.986 Y81.042 E.01581
G1 X70.764 Y80.542 E.01715
G1 X70.638 Y79.757 E.02493
G1 X70.638 Y73.743 E.18856
G1 X70.718 Y73.211 E.01687
G1 X70.785 Y72.903 E.00988
G1 X71.006 Y72.43 E.01637
G1 X71.396 Y71.929 E.01991
G1 X71.796 Y71.597 E.0163
G1 X72.497 Y71.273 E.02421
G1 X73.096 Y71.17 E.01906
G1 X82.732 Y71.163 E.30213
G1 X83.214 Y71.212 E.01519
G1 X83.914 Y71.464 E.02333
M204 P1250
G1 X83.762 Y71.801 F9000
M204 P800
;TYPE:External perimeter
G1 F1200
G1 X84.355 Y72.262 E.02355
G1 X84.708 Y72.783 E.01973
G1 X84.87 Y73.224 E.01473
G1 X84.935 Y73.743 E.0164
G1 X84.928 Y79.879 E.19239
G1 X84.859 Y80.321 E.01403
G1 X84.672 Y80.793 E.01592
G1 X84.213 Y81.38 E.02336
G1 X83.692 Y81.733 E.01973
G1 X83.251 Y81.895 E.01473
G1 X82.751 Y81.959 E.01581
G1 X73.218 Y81.96 E.2989
G1 X72.794 Y81.914 E.01337
G1 X72.386 Y81.792 E.01335
G1 X71.84 Y81.468 E.01991
G1 X71.513 Y81.145 E.01441
G1 X71.261 Y80.753 E.01461
G1 X71.119 Y80.406 E.01176
G1 X71.015 Y79.757 E.02061
G1 X71.015 Y73.743 E.18856
G1 X71.119 Y73.094 E.02061
G1 X71.304 Y72.662 E.01473
G1 X71.694 Y72.16 E.01993
G1 X72.066 Y71.872 E.01475
G1 X72.648 Y71.619 E.0199
G1 X73.096 Y71.547 E.01423
G1 X82.732 Y71.54 E.30213
G1 X83.141 Y71.582 E.01289
G1 X83.705 Y71.781 E.01875
M204 P1250
G1 X84.108 Y71.601 F9000
G1 E-2.24 F2400
;WIPE_START
G1 F7200
G1 X84.355 Y72.262 E-.25606
G1 X84.708 Y72.783 E-.19929
G1 X84.87 Y73.224 E-.14877
G1 X84.935 Y73.743 E-.16563
G1 X84.934 Y74.344 E-.19025
;WIPE_END
G1 Z.4 F9000
G1 X83.921 Y83.973
G1 Z.2
G1 E3.2 F1500
M204 P800
;TYPE:Perimeter
G1 F1200
G1 X84.045 Y84.032 E.00431
G1 X84.546 Y84.421 E.01989
G1 X85.02 Y85.072 E.02525
G1 X85.214 Y85.553 E.01626
G1 X85.312 Y86.244 E.02188
G1 X85.305 Y92.38 E.19239
G1 X85.209 Y92.96 E.01843
G1 X85.022 Y93.432 E.01592
G1 X84.602 Y94.009 E.02238
G1 X84.425 Y94.192 E.00798
G1 X83.903 Y94.545 E.01976
G1 X83.422 Y94.74 E.01627
G1 X82.731 Y94.837 E.02188
G1 X73.218 Y94.837 E.29827
G1 X72.709 Y94.782 E.01605
G1 X72.193 Y94.617 E.01699
G1 X71.647 Y94.292 E.01992
G1 X71.281 Y93.951 E.01568
G1 X70.986 Y93.542 E.01581
G1 X70.764 Y93.042 E.01715
G1 X70.638 Y92.257 E.02493
G1 X70.638 Y86.243 E.18856
G1 X70.717 Y85.711 E.01686
G1 X70.785 Y85.403 E.00989
G1 X71.006 Y84.93 E.01637
G1 X71.396 Y84.429 E.01991
G1 X71.789 Y84.103 E.01601
G1 X72.438 Y83.799 E.02247
G1 X72.818 Y83.705 E.01227
G1 X73.218 Y83.67 E.01259
G1 X82.732 Y83.663 E.2983
G1 X83.23 Y83.716 E.0157
G1 X83.867 Y83.947 E.02125
M204 P1250
G1 X83.761 Y84.301 F9000
M204 P800
;TYPE:External perimeter
G1 F1200
G1 X84.314 Y84.719 E.02173
G1 X84.708 Y85.283 E.02157
G1 X84.87 Y85.724 E.01473
G1 X84.935 Y86.243 E.0164
G1 X84.928 Y92.379 E.19239
G1 X84.859 Y92.821 E.01403
G1 X84.672 Y93.293 E.01592
G1 X84.213 Y93.88 E.02336
G1 X83.692 Y94.233 E.01973
G1 X83.251 Y94.395 E.01473
G1 X82.751 Y94.459 E.01581
G1 X73.218 Y94.46 E.2989
G1 X72.794 Y94.414 E.01337
G1 X72.386 Y94.292 E.01335
G1 X71.84 Y93.968 E.01991
G1 X71.513 Y93.645 E.01441
G1 X71.261 Y93.253 E.01461
G1 X71.119 Y92.906 E.01176
G1 X71.015 Y92.257 E.02061
G1 X71.015 Y86.243 E.18856
G1 X71.119 Y85.594 E.02061
G1 X71.304 Y85.162 E.01473
G1 X71.693 Y84.66 E.01991
G1 X72.066 Y84.372 E.01478
G1 X72.648 Y84.119 E.0199
G1 X73.219 Y84.047 E.01805
G1 X82.732 Y84.04 E.29827
G1 X83.168 Y84.09 E.01376
G1 X83.705 Y84.281 E.01787
M204 P1250
G1 X84.106 Y84.098 F9000
G1 E-2.24 F2400
;WIPE_START
G1 F7200
G1 X84.314 Y84.719 E-.23755
G1 X84.708 Y85.283 E-.21786
G1 X84.87 Y85.724 E-.14877
G1 X84.935 Y86.243 E-.16563
G1 X84.934 Y86.844 E-.19019
;WIPE_END
G1 Z.4 F9000
G1 X68.099 Y84.491
G1 Z.2
G1 E3.2 F1500
M204 P800
;TYPE:Perimeter
G1 F1200
G1 X68.366 Y84.844 E.01388
G1 X68.583 Y85.194 E.01291
G1 X68.744 Y85.676 E.01593
G1 X68.812 Y86.243 E.01791
G1 X68.805 Y92.38 E.19242
G1 X68.733 Y92.887 E.01606
G1 X68.522 Y93.432 E.01832
G1 X68.041 Y94.087 E.02548
G1 X67.615 Y94.402 E.01661
G1 X67.281 Y94.608 E.0123
G1 X66.799 Y94.769 E.01593
G1 X66.231 Y94.837 E.01794
G1 X56.718 Y94.837 E.29827
G1 X56.209 Y94.782 E.01605
G1 X55.693 Y94.616 E.017
G1 X55.147 Y94.292 E.01991
G1 X54.769 Y93.939 E.01622
G1 X54.433 Y93.445 E.01873
G1 X54.248 Y92.973 E.0159
G1 X54.145 Y92.348 E.01986
G1 X54.138 Y86.243 E.19142
G1 X54.247 Y85.533 E.02252
G1 X54.433 Y85.055 E.01608
G1 X54.858 Y84.477 E.02249
G1 X55.289 Y84.103 E.01789
G1 X55.938 Y83.799 E.02247
G1 X56.318 Y83.705 E.01227
G1 X56.718 Y83.67 E.01259
G1 X66.232 Y83.663 E.2983
G1 X66.73 Y83.716 E.0157
M73 P0 R69
G1 X67.289 Y83.91 E.01855
G1 X67.545 Y84.032 E.00889
G1 X68.063 Y84.443 E.02073
M204 P1250
G1 X67.815 Y84.719 F9000
M204 P800
;TYPE:External perimeter
G1 F1200
G1 X68.208 Y85.283 E.02155
G1 X68.37 Y85.724 E.01473
G1 X68.435 Y86.243 E.0164
G1 X68.428 Y92.379 E.19239
G1 X68.359 Y92.821 E.01403
M73 P1 R69
G1 X68.172 Y93.293 E.01592
G1 X67.752 Y93.845 E.02175
G1 X67.192 Y94.233 E.02136
G1 X66.751 Y94.395 E.01473
G1 X66.251 Y94.459 E.01581
G1 X56.718 Y94.46 E.2989
G1 X56.294 Y94.414 E.01337
G1 X55.886 Y94.292 E.01335
G1 X55.34 Y93.968 E.01991
G1 X55.013 Y93.645 E.01441
G1 X54.78 Y93.297 E.01313
G1 X54.619 Y92.906 E.01326
G1 X54.515 Y92.257 E.02061
G1 X54.515 Y86.243 E.18856
G1 X54.619 Y85.594 E.02061
G1 X54.804 Y85.162 E.01473
G1 X55.193 Y84.66 E.01991
G1 X55.566 Y84.372 E.01478
G1 X56.148 Y84.118 E.01991
G1 X56.719 Y84.047 E.01804
G1 X66.232 Y84.04 E.29827
G1 X66.668 Y84.09 E.01376
G1 X67.261 Y84.301 E.01974
G1 X67.767 Y84.682 E.01986
M204 P1250
G1 X68.203 Y84.624 F9000
G1 E-2.24 F2400
;WIPE_START
G1 F7200
G1 X68.208 Y85.283 E-.23606
G1 X68.37 Y85.724 E-.14877
G1 X68.435 Y86.243 E-.16563
G1 X68.434 Y87.536 E-.40954
;WIPE_END
G1 Z.4 F9000
G1 X72.56 Y96.269
G1 Z.2
G1 E3.2 F1500
M204 P800
;TYPE:Perimeter
G1 F1200
G1 X72.818 Y96.205 E.00833
G1 X73.218 Y96.17 E.01259
G1 X82.732 Y96.163 E.2983
G1 X83.23 Y96.216 E.0157
G1 X83.709 Y96.358 E.01566
G1 X84.045 Y96.532 E.01186
G1 X84.546 Y96.921 E.01989
G1 X85.02 Y97.572 E.02525
G1 X85.214 Y98.053 E.01626
G1 X85.312 Y98.744 E.02188
G1 X85.305 Y104.88 E.19239
G1 X85.209 Y105.46 E.01843
G1 X85.022 Y105.932 E.01592
G1 X84.554 Y106.571 E.02483
G1 X84.058 Y106.94 E.01938
G1 X83.781 Y107.108 E.01016
G1 X83.299 Y107.269 E.01593
G1 X82.796 Y107.333 E.0159
G1 X73.218 Y107.337 E.30031
G1 X72.691 Y107.277 E.01663
G1 X72.214 Y107.128 E.01567
G1 X71.647 Y106.792 E.02066
G1 X71.269 Y106.439 E.01622
G1 X70.958 Y105.997 E.01695
G1 X70.747 Y105.467 E.01789
G1 X70.64 Y104.804 E.02106
G1 X70.638 Y98.743 E.19004
G1 X70.717 Y98.211 E.01686
G1 X70.785 Y97.903 E.00989
G1 X71.006 Y97.43 E.01637
G1 X71.396 Y96.929 E.01991
G1 X71.789 Y96.603 E.01601
G1 X72.502 Y96.283 E.0245
M204 P1250
G1 X72.648 Y96.619 F9000
M204 P800
;TYPE:External perimeter
G1 F1200
G1 X73.218 Y96.547 E.01801
G1 X82.732 Y96.54 E.2983
G1 X83.156 Y96.586 E.01337
G1 X83.548 Y96.699 E.01279
G1 X83.814 Y96.83 E.0093
G1 X84.314 Y97.219 E.01986
G1 X84.708 Y97.783 E.02157
G1 X84.87 Y98.224 E.01473
G1 X84.935 Y98.743 E.0164
G1 X84.927 Y104.879 E.19239
G1 X84.859 Y105.321 E.01402
G1 X84.672 Y105.793 E.01592
G1 X84.256 Y106.34 E.02155
G1 X83.651 Y106.754 E.02299
G1 X83.251 Y106.895 E.0133
G1 X82.753 Y106.959 E.01574
G1 X73.218 Y106.96 E.29896
G1 X72.794 Y106.914 E.01337
G1 X72.385 Y106.792 E.01338
G1 X71.84 Y106.468 E.01988
G1 X71.513 Y106.145 E.01441
G1 X71.261 Y105.753 E.01461
G1 X71.119 Y105.406 E.01176
G1 X71.015 Y104.757 E.02061
G1 X71.015 Y98.743 E.18856
G1 X71.119 Y98.094 E.02061
G1 X71.304 Y97.662 E.01473
G1 X71.693 Y97.16 E.01991
G1 X72.066 Y96.872 E.01478
G1 X72.593 Y96.643 E.01802
M204 P1250
G1 X72.754 Y96.233 F9000
G1 E-2.24 F2400
;WIPE_START
G1 F7200
G1 X73.218 Y96.547 E-.20024
G1 X75.617 Y96.545 E-.75976
;WIPE_END
G1 Z.4 F9000
G1 X86.642 Y110.969
G1 Z.2
G1 E3.2 F1500
M204 P800
G1 F1200
G1 X87.228 Y111.169 E.01941
G1 X87.754 Y111.493 E.01937
G1 X88.194 Y111.927 E.01938
G1 X88.527 Y112.448 E.01939
;WIDTH:0.451287
G1 X88.646 Y112.733 E.01049
;WIDTH:0.482574
G1 X88.765 Y113.019 E.01132
G1 X88.835 Y113.64 E.02285
;WIDTH:0.504979
G1 X88.787 Y114.262 E.02397
G1 X88.666 Y114.552 E.01207
;WIDTH:0.462489
G1 X88.545 Y114.842 E.01096
;WIDTH:0.419999
G1 X88.22 Y115.368 E.01939
G1 X87.787 Y115.808 E.01936
G1 X87.266 Y116.141 E.01939
G1 X86.684 Y116.349 E.01938
G1 X86.071 Y116.423 E.01936
G1 X85.456 Y116.358 E.01939
G1 X84.872 Y116.159 E.01934
G1 X84.366 Y115.849 E.01861
G1 X83.907 Y115.402 E.02009
G1 X83.573 Y114.88 E.01943
G1 X83.364 Y114.298 E.01939
G1 X83.291 Y113.685 E.01936
G1 X83.355 Y113.07 E.01939
G1 X83.555 Y112.486 E.01935
G1 X83.879 Y111.96 E.01937
G1 X84.313 Y111.52 E.01938
G1 X84.796 Y111.21 E.01799
G1 X85.415 Y110.979 E.02072
G1 X86.004 Y110.906 E.01861
G1 X86.582 Y110.963 E.01821
M204 P1250
G1 X86.912 Y110.674 F9000
G1 E-2.24 F2400
;WIPE_START
G1 F7200
G1 X87.228 Y111.169 E-.21472
G1 X87.754 Y111.493 E-.19563
G1 X88.194 Y111.927 E-.19571
G1 X88.527 Y112.448 E-.1958
G1 X88.646 Y112.733 E-.0978
G1 X88.719 Y112.909 E-.06034
;WIPE_END
G1 Z.4 F9000
G1 X50.598 Y115.018
G1 Z.2
G1 E3.2 F1500
M204 P800
;WIDTH:0.430809
G1 F1200
G1 X50.487 Y114.761 E.00903
G1 X50.384 Y114.119 E.02097
;WIDTH:0.419839
G1 X50.363 Y113.398 E.02261
;WIDTH:0.433657
G1 X50.485 Y112.566 E.02732
G1 X50.737 Y112.002 E.02007
;WIDTH:0.419999
G1 X51.159 Y111.528 E.0199
G1 X51.683 Y111.187 E.0196
G1 X52.265 Y110.978 E.01939
