; generated by PrusaSlicer 2.6.0+MacOS-arm64 on 2023-07-11 at 13:40:05 UTC


;
;

;
;
; 

; external perimeters extrusion width = 0.45mm
; perimeters extrusion width = 0.45mm
; infill extrusion width = 0.45mm
; solid infill extrusion width = 0.45mm
; top infill extrusion width = 0.40mm
; first layer extrusion width = 0.42mm

; external perimeters extrusion width = 0.45mm
; perimeters extrusion width = 0.45mm
; infill extrusion width = 0.45mm
; solid infill extrusion width = 0.45mm
; top infill extrusion width = 0.40mm
; first layer extrusion width = 0.42mm

; external perimeters extrusion width = 0.45mm
; perimeters extrusion width = 0.45mm
; infill extrusion width = 0.45mm
; solid infill extrusion width = 0.45mm
; top infill extrusion width = 0.40mm
; first layer extrusion width = 0.42mm

; external perimeters extrusion width = 0.45mm
; perimeters extrusion width = 0.45mm
; infill extrusion width = 0.45mm
; solid infill extrusion width = 0.45mm
; top infill extrusion width = 0.40mm
; first layer extrusion width = 0.42mm

; external perimeters extrusion width = 0.45mm
; perimeters extrusion width = 0.45mm
; infill extrusion width = 0.45mm
; solid infill extrusion width = 0.45mm
; top infill extrusion width = 0.40mm
; first layer extrusion width = 0.42mm

M73 P0 R178
M201 X2500 Y2500 Z400 E5000 ; sets maximum accelerations, mm/sec^2
M203 X180 Y180 Z12 E80 ; sets maximum feedrates, mm / sec
M204 P1250 R1250 T2500 ; sets acceleration (P, T) and retract acceleration (R), mm/sec^2
M205 X8.00 Y8.00 Z2.00 E10.00 ; sets the jerk limits, mm/sec
M205 S0 T0 ; sets the minimum extruding and travel feed rate, mm/sec
;TYPE:Custom
M862.3 P "MINI" ; printer model check
G90 ; use absolute coordinates
M83 ; extruder relative mode
M104 S155 ; set extruder temp for bed leveling
M140 S80 ; set bed temp
M109 R155 ; wait for bed leveling temp
M190 S80 ; wait for bed temp
M204 T1250 ; set travel acceleration
G28 ; home all without mesh bed level
G29 ; mesh bed leveling 
M204 T2500 ; restore travel acceleration
M104 S218 ; set extruder temp
G92 E0
G1 Y-2 X179 F2400
G1 Z0.3 F720
M109 S218 ; wait for extruder temp

; intro line
G1 Z0.3 E2 F900
G1 Z2 E6 F500
G1 Z0.4 X85 E12 F900
G1 Z0.2 X30 E12 F900
G1 Z0.1 X25 E0 F900
G92 E0

M221 S95 ; set flow
G21 ; set units to millimeters
G90 ; use absolute coordinates
M83 ; use relative distances for extrusion
M900 K0.2 ; Filament gcode LA 1.5
; ; Filament gcode LA 1.0
M107
;LAYER_CHANGE
;Z:0.2
;HEIGHT:0.2
;BEFORE_LAYER_CHANGE
G92 E0.0
;0.2


G1 E-3.2 F2400
G1 Z.2 F9000
;AFTER_LAYER_CHANGE
;0.2
; printing object pixel_pump_upper_ui_lid.stl id:1 copy 0
G1 Z.4
G1 X46.983 Y90.899
G1 Z.2
G1 E3.2 F1500
M204 P800
;TYPE:Perimeter
;WIDTH:0.419999
G1 F1200
G1 X85.509 Y90.899 E1.20795
G1 X85.509 Y145.548 E1.71348
G1 X46.992 Y145.548 E1.20767
G1 X46.984 Y90.959 E1.7116
M204 P1250
G1 X46.606 Y90.522 F9000
M204 P800
;TYPE:External perimeter
G1 F1200
G1 X85.886 Y90.522 E1.23159
G1 X85.886 Y145.925 E1.73712
G1 X46.615 Y145.925 E1.23131
G1 X46.606 Y90.582 E1.73524
M204 P1250
G1 X46.986 Y90.647 F9000
G1 E-2.24 F2400
;WIPE_START
G1 F7200
G1 X49.638 Y90.577 E-.96
;WIPE_END
G1 Z.4 F9000
G1 X50.309 Y122.878
G1 Z.2
G1 E3.2 F1500
M204 P800
;TYPE:Perimeter
G1 F1200
G1 X50.309 Y122.547 E.01038
G1 X50.34 Y122.363 E.00585
G1 X50.536 Y122.094 E.01044
G1 X50.773 Y121.99 E.00811
G1 X50.875 Y121.981 E.00321
G1 X81.718 Y121.981 E.96706
G1 X81.984 Y122.048 E.0086
M73 P0 R177
G1 X82.127 Y122.157 E.00564
G1 X82.24 Y122.329 E.00645
G1 X82.283 Y122.547 E.00697
G1 X82.283 Y133.79 E.35252
G1 X82.24 Y134.007 E.00694
G1 X82.127 Y134.18 E.00648
G1 X81.842 Y134.341 E.01026
G1 X81.718 Y134.355 E.00391
G1 X50.875 Y134.355 E.96706
G1 X50.657 Y134.312 E.00697
G1 X50.422 Y134.129 E.00934
G1 X50.318 Y133.887 E.00826
G1 X50.309 Y133.79 E.00305
G1 X50.309 Y122.938 E.34026
M204 P1250
G1 X50.686 Y122.547 F9000
M204 P800
;TYPE:External perimeter
G1 F1200
G1 X50.762 Y122.396 E.0053
G1 X50.875 Y122.358 E.00374
G1 X81.718 Y122.358 E.96706
G1 X81.854 Y122.417 E.00465
G1 X81.906 Y122.547 E.00439
G1 X81.906 Y133.79 E.35252
G1 X81.854 Y133.92 E.00439
G1 X81.718 Y133.978 E.00464
G1 X50.875 Y133.978 E.96706
G1 X50.724 Y133.903 E.00529
G1 X50.686 Y133.79 E.00374
G1 X50.686 Y122.607 E.35063
M204 P1250
G1 X50.573 Y122.422 F9000
G1 E-2.24 F2400
;WIPE_START
G1 F7200
G1 X50.762 Y122.396 E-.07102
G1 X50.875 Y122.358 E-.03775
G1 X53.563 Y122.358 E-.85123
;WIPE_END
G1 Z.4 F9000
G1 X84.629 Y91.012
G1 Z.2
G1 E3.2 F1500
M204 P800
;TYPE:Solid infill
;WIDTH:0.422174
G1 F1200
G1 X85.226 Y91.61 E.02665
G1 X85.226 Y92.146 E.0169
G1 X84.263 Y91.182 E.04297
G1 X83.726 Y91.182 E.01693
G1 X85.226 Y92.682 E.0669
G1 X85.226 Y93.219 E.01693
G1 X83.19 Y91.182 E.09082
G1 X82.654 Y91.182 E.0169
G1 X85.226 Y93.755 E.11473
G1 X85.226 Y94.291 E.0169
G1 X82.117 Y91.182 E.13865
G1 X81.581 Y91.182 E.0169
G1 X85.226 Y94.828 E.16258
G1 X85.226 Y95.364 E.0169
G1 X81.045 Y91.182 E.18648
G1 X80.508 Y91.182 E.01693
G1 X85.226 Y95.9 E.21041
G1 X85.226 Y96.437 E.01693
G1 X79.972 Y91.182 E.23434
G1 X79.435 Y91.182 E.01693
G1 X85.226 Y96.973 E.25826
G1 X85.226 Y97.509 E.0169
G1 X78.899 Y91.182 E.28217
G1 X78.363 Y91.182 E.0169
G1 X85.226 Y98.046 E.30609
G1 X85.226 Y98.582 E.0169
G1 X77.826 Y91.182 E.33002
G1 X77.29 Y91.182 E.0169
G1 X85.226 Y99.118 E.35392
G1 X85.226 Y99.655 E.01693
G1 X76.754 Y91.182 E.37785
G1 X76.217 Y91.182 E.01693
G1 X85.226 Y100.191 E.40178
G1 X85.226 Y100.727 E.0169
G1 X75.681 Y91.182 E.42568
G1 X75.145 Y91.182 E.0169
G1 X85.226 Y101.264 E.44961
G1 X85.226 Y101.8 E.0169
G1 X74.608 Y91.182 E.47353
G1 X74.072 Y91.182 E.0169
G1 X85.226 Y102.337 E.49746
G1 X85.226 Y102.873 E.0169
G1 X73.536 Y91.182 E.52137
G1 X72.999 Y91.182 E.01693
G1 X85.226 Y103.409 E.54529
G1 X85.226 Y103.946 E.01693
G1 X72.463 Y91.182 E.56922
G1 X71.927 Y91.182 E.0169
G1 X85.226 Y104.482 E.59312
G1 X85.226 Y105.018 E.0169
G1 X71.39 Y91.182 E.61705
G1 X70.854 Y91.182 E.0169
G1 X85.226 Y105.555 E.64098
G1 X85.226 Y106.091 E.0169
G1 X70.318 Y91.182 E.66488
G1 X69.781 Y91.182 E.01693
G1 X85.226 Y106.627 E.68881
G1 X85.226 Y107.164 E.01693
G1 X69.245 Y91.182 E.71273
G1 X68.709 Y91.182 E.0169
G1 X85.226 Y107.7 E.73664
G1 X85.226 Y108.236 E.0169
G1 X68.172 Y91.182 E.76056
G1 X67.636 Y91.182 E.0169
G1 X85.226 Y108.773 E.78449
G1 X85.226 Y109.309 E.0169
G1 X67.099 Y91.182 E.80842
G1 X66.563 Y91.182 E.0169
G1 X85.226 Y109.845 E.83232
G1 X85.226 Y110.382 E.01693
G1 X66.027 Y91.182 E.85625
G1 X65.49 Y91.182 E.01693
G1 X85.226 Y110.918 E.88017
G1 X85.226 Y111.454 E.0169
G1 X64.954 Y91.182 E.90408
G1 X64.418 Y91.182 E.0169
G1 X85.226 Y111.991 E.928
G1 X85.226 Y112.527 E.0169
G1 X63.881 Y91.182 E.95193
G1 X63.345 Y91.182 E.0169
G1 X85.226 Y113.063 E.97584
G1 X85.226 Y113.6 E.01693
G1 X62.809 Y91.182 E.99976
G1 X62.272 Y91.182 E.01693
G1 X85.226 Y114.136 E1.02369
G1 X85.226 Y114.672 E.0169
G1 X61.736 Y91.182 E1.04759
G1 X61.2 Y91.182 E.0169
G1 X85.226 Y115.209 E1.07152
G1 X85.226 Y115.745 E.0169
G1 X60.663 Y91.182 E1.09545
G1 X60.127 Y91.182 E.0169
G1 X85.226 Y116.282 E1.11937
G1 X85.226 Y116.818 E.0169
G1 X59.591 Y91.182 E1.14328
G1 X59.054 Y91.182 E.01693
G1 X85.226 Y117.354 E1.1672
G1 X85.226 Y117.891 E.01693
G1 X58.518 Y91.182 E1.19113
G1 X57.982 Y91.182 E.0169
G1 X85.226 Y118.427 E1.21503
G1 X85.226 Y118.963 E.0169
M73 P0 R176
G1 X57.445 Y91.182 E1.23896
G1 X56.909 Y91.182 E.0169
G1 X85.226 Y119.5 E1.26289
G1 X85.226 Y120.036 E.0169
G1 X56.373 Y91.182 E1.28679
G1 X55.836 Y91.182 E.01693
G1 X85.226 Y120.572 E1.31072
G1 X85.226 Y121.109 E.01693
G1 X55.3 Y91.182 E1.33464
G1 X54.764 Y91.182 E.0169
M73 P1 R176
G1 X85.226 Y121.645 E1.35855
G1 X85.226 Y122.181 E.0169
G1 X54.227 Y91.182 E1.38247
G1 X53.691 Y91.182 E.0169
G1 X85.226 Y122.718 E1.4064
G1 X85.226 Y123.254 E.0169
G1 X53.155 Y91.182 E1.4303
G1 X52.618 Y91.182 E.01693
G1 X85.226 Y123.79 E1.45423
G1 X85.226 Y124.327 E.01693
G1 X52.082 Y91.182 E1.47816
G1 X51.545 Y91.182 E.01693
G1 X85.226 Y124.863 E1.50208
G1 X85.226 Y125.399 E.0169
G1 X82.566 Y122.739 E.11863
G1 X82.566 Y123.276 E.01693
G1 X85.226 Y125.936 E.11863
G1 X85.226 Y126.472 E.0169
G1 X82.566 Y123.812 E.11863
G1 X82.566 Y124.348 E.0169
G1 X85.226 Y127.008 E.11863
G1 X85.226 Y127.545 E.01693
G1 X82.566 Y124.885 E.11863
G1 X82.566 Y125.421 E.0169
G1 X85.226 Y128.081 E.11863
G1 X85.226 Y128.617 E.0169
G1 X82.566 Y125.957 E.11863
G1 X82.566 Y126.494 E.01693
G1 X85.226 Y129.154 E.11863
G1 X85.226 Y129.69 E.0169
G1 X82.566 Y127.03 E.11863
G1 X82.566 Y127.566 E.0169
G1 X85.226 Y130.227 E.11865
G1 X85.226 Y130.763 E.0169
G1 X82.566 Y128.103 E.11863
G1 X82.566 Y128.639 E.0169
G1 X85.226 Y131.299 E.11863
G1 X85.226 Y131.836 E.01693
G1 X82.566 Y129.175 E.11865
G1 X82.566 Y129.712 E.01693
G1 X85.226 Y132.372 E.11863
G1 X85.226 Y132.908 E.0169
G1 X82.566 Y130.248 E.11863
G1 X82.566 Y130.784 E.0169
G1 X85.226 Y133.445 E.11865
G1 X85.226 Y133.981 E.0169
G1 X82.566 Y131.321 E.11863
G1 X82.566 Y131.857 E.0169
G1 X85.226 Y134.517 E.11863
G1 X85.226 Y135.054 E.01693
G1 X82.566 Y132.393 E.11865
G1 X82.566 Y132.93 E.01693
G1 X85.226 Y135.59 E.11863
G1 X85.226 Y136.126 E.0169
G1 X82.566 Y133.466 E.11863
G1 X82.566 Y133.794 E.01034
G1 X82.542 Y133.978 E.00585
G1 X85.226 Y136.663 E.11972
G1 X85.226 Y137.199 E.0169
G1 X82.361 Y134.334 E.12777
G1 X82.334 Y134.375 E.00155
G1 X82.119 Y134.539 E.00853
G1 X82.054 Y134.563 E.00219
G1 X85.226 Y137.735 E.14146
G1 X85.226 Y138.272 E.01693
G1 X81.593 Y134.638 E.16204
G1 X81.056 Y134.638 E.01693
G1 X85.226 Y138.808 E.18597
G1 X85.226 Y139.344 E.0169
G1 X80.52 Y134.638 E.20988
G1 X79.984 Y134.638 E.0169
G1 X85.226 Y139.881 E.2338
G1 X85.226 Y140.417 E.0169
G1 X79.447 Y134.638 E.25773
G1 X78.911 Y134.638 E.0169
G1 X85.226 Y140.953 E.28163
G1 X85.226 Y141.49 E.01693
G1 X78.375 Y134.638 E.30556
G1 X77.838 Y134.638 E.01693
G1 X85.226 Y142.026 E.32949
G1 X85.226 Y142.562 E.0169
G1 X77.302 Y134.638 E.35339
G1 X76.766 Y134.638 E.0169
G1 X85.226 Y143.099 E.37732
G1 X85.226 Y143.635 E.0169
G1 X76.229 Y134.638 E.40124
G1 X75.693 Y134.638 E.0169
G1 X85.226 Y144.172 E.42517
G1 X85.226 Y144.708 E.0169
G1 X75.157 Y134.638 E.44907
G1 X74.62 Y134.638 E.01693
G1 X85.226 Y145.244 E.473
G1 X85.226 Y145.265 E.00066
G1 X84.711 Y145.265 E.01624
G1 X74.084 Y134.638 E.47394
G1 X73.548 Y134.638 E.0169
G1 X84.174 Y145.265 E.47391
G1 X83.638 Y145.265 E.0169
G1 X73.011 Y134.638 E.47394
G1 X72.475 Y134.638 E.0169
G1 X83.102 Y145.265 E.47394
G1 X82.565 Y145.265 E.01693
G1 X71.939 Y134.638 E.47391
G1 X71.402 Y134.638 E.01693
G1 X82.029 Y145.265 E.47394
G1 X81.493 Y145.265 E.0169
G1 X70.866 Y134.638 E.47394
G1 X70.33 Y134.638 E.0169
G1 X80.956 Y145.265 E.47391
G1 X80.42 Y145.265 E.0169
G1 X69.793 Y134.638 E.47394
G1 X69.257 Y134.638 E.0169
G1 X79.884 Y145.265 E.47394
G1 X79.347 Y145.265 E.01693
G1 X68.721 Y134.638 E.47391
G1 X68.184 Y134.638 E.01693
G1 X78.811 Y145.265 E.47394
G1 X78.274 Y145.265 E.01693
G1 X67.648 Y134.638 E.47391
G1 X67.111 Y134.638 E.01693
G1 X77.738 Y145.265 E.47394
G1 X77.202 Y145.265 E.0169
G1 X66.575 Y134.638 E.47394
G1 X66.039 Y134.638 E.0169
G1 X76.665 Y145.265 E.47391
G1 X76.129 Y145.265 E.0169
G1 X65.502 Y134.638 E.47394
G1 X64.966 Y134.638 E.0169
G1 X75.593 Y145.265 E.47394
G1 X75.056 Y145.265 E.01693
G1 X64.43 Y134.638 E.47391
G1 X63.893 Y134.638 E.01693
G1 X74.52 Y145.265 E.47394
G1 X73.984 Y145.265 E.0169
G1 X63.357 Y134.638 E.47394
G1 X62.821 Y134.638 E.0169
G1 X73.447 Y145.265 E.47391
G1 X72.911 Y145.265 E.0169
G1 X62.284 Y134.638 E.47394
G1 X61.748 Y134.638 E.0169
G1 X72.375 Y145.265 E.47394
G1 X71.838 Y145.265 E.01693
G1 X61.212 Y134.638 E.47391
G1 X60.675 Y134.638 E.01693
M73 P1 R175
G1 X71.302 Y145.265 E.47394
G1 X70.766 Y145.265 E.0169
G1 X60.139 Y134.638 E.47394
G1 X59.603 Y134.638 E.0169
G1 X70.229 Y145.265 E.47391
G1 X69.693 Y145.265 E.0169
G1 X59.066 Y134.638 E.47394
G1 X58.53 Y134.638 E.0169
G1 X69.157 Y145.265 E.47394
G1 X68.62 Y145.265 E.01693
G1 X57.994 Y134.638 E.47391
G1 X57.457 Y134.638 E.01693
G1 X68.084 Y145.265 E.47394
G1 X67.548 Y145.265 E.0169
G1 X56.921 Y134.638 E.47394
G1 X56.385 Y134.638 E.0169
G1 X67.011 Y145.265 E.47391
G1 X66.475 Y145.265 E.0169
G1 X55.848 Y134.638 E.47394
G1 X55.312 Y134.638 E.0169
G1 X65.939 Y145.265 E.47394
G1 X65.402 Y145.265 E.01693
G1 X54.776 Y134.638 E.47391
G1 X54.239 Y134.638 E.01693
G1 X64.866 Y145.265 E.47394
G1 X64.329 Y145.265 E.01693
G1 X53.703 Y134.638 E.47391
G1 X53.166 Y134.638 E.01693
G1 X63.793 Y145.265 E.47394
G1 X63.257 Y145.265 E.0169
G1 X52.63 Y134.638 E.47394
G1 X52.094 Y134.638 E.0169
G1 X62.72 Y145.265 E.47391
G1 X62.184 Y145.265 E.0169
G1 X51.388 Y134.468 E.4815
M204 P1250
G1 E-2.24 F2400
;WIPE_START
G1 F7200
G1 X53.532 Y136.612 E-.96
;WIPE_END
G1 Z.4 F9000
G1 X81.695 Y121.868
G1 Z.2
G1 E3.2 F1500
M204 P800
G1 F1200
G1 X51.009 Y91.182 E1.36851
G1 X50.473 Y91.182 E.0169
G1 X80.989 Y121.698 E1.36093
G1 X80.453 Y121.698 E.0169
G1 X49.936 Y91.182 E1.36096
G1 X49.4 Y91.182 E.0169
G1 X79.916 Y121.698 E1.36093
G1 X79.38 Y121.698 E.0169
G1 X48.864 Y91.182 E1.36093
G1 X48.327 Y91.182 E.01693
G1 X78.844 Y121.698 E1.36096
G1 X78.307 Y121.698 E.01693
G1 X47.791 Y91.182 E1.36093
G1 X47.266 Y91.182 E.01656
G1 X77.771 Y121.698 E1.36069
G1 X77.235 Y121.698 E.0169
G1 X47.266 Y91.73 E1.33652
G1 X47.267 Y92.267 E.01693
G1 X76.698 Y121.698 E1.31255
G1 X76.162 Y121.698 E.0169
G1 X47.267 Y92.803 E1.28864
G1 X47.267 Y93.339 E.0169
G1 X75.626 Y121.698 E1.26474
G1 X75.089 Y121.698 E.01693
G1 X47.267 Y93.876 E1.24079
G1 X47.267 Y94.412 E.0169
G1 X74.553 Y121.698 E1.21688
G1 X74.017 Y121.698 E.0169
G1 X47.267 Y94.949 E1.19296
G1 X47.267 Y95.485 E.0169
G1 X73.48 Y121.698 E1.16903
G1 X72.944 Y121.698 E.0169
G1 X47.267 Y96.022 E1.1451
G1 X47.267 Y96.558 E.0169
G1 X72.407 Y121.698 E1.12118
G1 X71.871 Y121.698 E.0169
G1 X47.267 Y97.095 E1.09725
G1 X47.267 Y97.631 E.0169
G1 X71.335 Y121.698 E1.07335
G1 X70.798 Y121.698 E.01693
G1 X47.268 Y98.167 E1.0494
G1 X47.268 Y98.704 E.01693
G1 X70.262 Y121.698 E1.02547
G1 X69.726 Y121.698 E.0169
M73 P2 R175
G1 X47.268 Y99.24 E1.00157
G1 X47.268 Y99.777 E.01693
M73 P2 R174
G1 X69.189 Y121.698 E.97762
G1 X68.653 Y121.698 E.0169
G1 X47.268 Y100.313 E.95371
G1 X47.268 Y100.85 E.01693
G1 X68.117 Y121.698 E.92979
G1 X67.58 Y121.698 E.01693
G1 X47.268 Y101.386 E.90586
G1 X47.268 Y101.922 E.0169
G1 X67.044 Y121.698 E.88196
G1 X66.508 Y121.698 E.0169
G1 X47.268 Y102.459 E.85803
G1 X47.268 Y102.995 E.0169
G1 X65.971 Y121.698 E.8341
G1 X65.435 Y121.698 E.0169
G1 X47.268 Y103.532 E.81018
G1 X47.268 Y104.068 E.0169
G1 X64.899 Y121.698 E.78627
G1 X64.362 Y121.698 E.01693
G1 X47.269 Y104.605 E.7623
G1 X47.269 Y105.141 E.0169
G1 X63.826 Y121.698 E.7384
G1 X63.29 Y121.698 E.0169
G1 X47.269 Y105.677 E.71449
G1 X47.269 Y106.214 E.01693
G1 X62.753 Y121.698 E.69055
G1 X62.217 Y121.698 E.0169
G1 X47.269 Y106.75 E.66664
G1 X47.269 Y107.287 E.01693
G1 X61.681 Y121.698 E.64271
G1 X61.144 Y121.698 E.01693
G1 X47.269 Y107.823 E.61879
G1 X47.269 Y108.36 E.01693
G1 X60.608 Y121.698 E.59486
G1 X60.072 Y121.698 E.0169
G1 X47.269 Y108.896 E.57096
G1 X47.269 Y109.433 E.01693
G1 X59.535 Y121.698 E.54701
G1 X58.999 Y121.698 E.0169
G1 X47.269 Y109.969 E.5231
G1 X47.27 Y110.505 E.0169
G1 X58.462 Y121.698 E.49916
G1 X57.926 Y121.698 E.0169
G1 X47.27 Y111.042 E.47523
G1 X47.27 Y111.578 E.0169
G1 X57.39 Y121.698 E.45133
G1 X56.853 Y121.698 E.01693
G1 X47.27 Y112.115 E.42738
G1 X47.27 Y112.651 E.0169
G1 X56.317 Y121.698 E.40347
G1 X55.781 Y121.698 E.0169
G1 X47.27 Y113.188 E.37955
G1 X47.27 Y113.724 E.0169
G1 X55.244 Y121.698 E.35562
G1 X54.708 Y121.698 E.0169
G1 X47.27 Y114.26 E.33172
G1 X47.27 Y114.797 E.01693
G1 X54.172 Y121.698 E.30779
G1 X53.635 Y121.698 E.01693
G1 X47.27 Y115.333 E.28386
G1 X47.27 Y115.87 E.01693
G1 X53.099 Y121.698 E.25994
G1 X52.563 Y121.698 E.0169
G1 X47.271 Y116.406 E.23601
G1 X47.271 Y116.943 E.01693
G1 X52.026 Y121.698 E.21206
G1 X51.49 Y121.698 E.0169
G1 X47.271 Y117.479 E.18816
G1 X47.271 Y118.015 E.0169
G1 X50.954 Y121.698 E.16425
G1 X50.721 Y121.712 E.00736
G1 X50.506 Y121.787 E.00718
G1 X47.271 Y118.552 E.14427
G1 X47.271 Y119.088 E.0169
G1 X50.208 Y122.025 E.13098
G1 X50.071 Y122.272 E.00891
